(.../pcb-gcode.ulp)
(Copyright 2005 - 2012 by John Johnson)
(See readme.txt for licensing terms.)
(This file generated from the board:)
(.../GIT/Eagle/FSK_modem/FSKmodem2.brd)
(Current profile is .../profiles/mach.pp  )
(This file generated 25/11/2018 12:45 PM)
(Settings from pcb-machine.h)
(  Tool Size)
(0.1600  )
(Z Axis Settings)
(  High     Up        Down     Drill)
(12.7000 	2.5400  	-0.1500 	-1.0000 )
(spindle on time = 10.0000)
(milling depth = -2.0000)
(text depth = -0.1270)
(tool change at 0.0000  0.0000  50.0000 )
(feed rate xy = F250   )
(feed rate z  = F50    )
(Settings from pcb-defaults.h)
(isolate min = 0.0254)
(isolate max = 0.5080)
(isolate step = 0.0900)
(Generated top outlines, top drill, bottom outlines, bottom drill, )
(Unit of measure: mm)
(Metric Mode)
G21
(Absolute Coordinates)
G90
G00 X0.0000  Y0.0000  
M03
G04 P10.000000
G00 Z2.5400  
G00 X12.8888 Y3.9272  
G01 Z-0.1500 F50    
G01 X12.8888 Y3.9272  F250   
G01 X12.9676 Y4.0059  
G01 X13.0279 Y4.0408  
G01 X13.0640 Y4.0616  
G01 X13.1716 Y4.0904  
G01 X13.2829 Y4.0904  
G01 X13.2875 Y4.0892  
G01 X13.3905 Y4.0616  
G01 X13.4449 Y4.0301  
G01 X13.4869 Y4.0059  
G01 X13.5656 Y3.9272  
G01 X14.1489 Y3.3439  
G01 X15.0611 Y3.3439  
G01 X15.6153 Y3.8981  
G01 X15.7118 Y3.9538  
G01 X15.8193 Y3.9826  
G01 X15.9307 Y3.9826  
G01 X15.9352 Y3.9814  
G01 X16.0382 Y3.9538  
G01 X16.0727 Y3.9339  
G01 X16.1347 Y3.8981  
G01 X16.2134 Y3.8194  
G01 X16.6889 Y3.3439  
G01 X17.6011 Y3.3439  
G01 X18.1553 Y3.8981  
G01 X18.2518 Y3.9538  
G01 X18.3593 Y3.9826  
G01 X18.4707 Y3.9826  
G01 X18.4753 Y3.9814  
G01 X18.5782 Y3.9538  
G01 X18.6128 Y3.9339  
G01 X18.6747 Y3.8981  
G01 X18.7534 Y3.8194  
G01 X19.2289 Y3.3439  
G01 X20.1411 Y3.3439  
G01 X20.6953 Y3.8981  
G01 X20.7918 Y3.9538  
G01 X20.8993 Y3.9826  
G01 X21.0107 Y3.9826  
G01 X21.0383 Y3.9752  
G01 X21.1182 Y3.9538  
G01 X21.2147 Y3.8981  
G01 X21.2934 Y3.8194  
G01 X21.6013 Y3.5115  
G01 X22.0060 Y3.3439  
G01 X22.4440 Y3.3439  
G01 X22.8487 Y3.5115  
G01 X23.1585 Y3.8213  
G01 X23.3261 Y4.2260  
G01 X23.3261 Y4.6640  
G01 X23.1585 Y5.0687  
G01 X22.8487 Y5.3785  
G01 X22.4440 Y5.5461  
G01 X22.0060 Y5.5461  
G01 X21.6013 Y5.3785  
G01 X21.2934 Y5.0706  
G01 X21.2147 Y4.9919  
G01 X21.1182 Y4.9362  
G01 X21.0407 Y4.9154  
G01 X21.0107 Y4.9074  
G01 X20.8993 Y4.9074  
G01 X20.7918 Y4.9362  
G01 X20.6953 Y4.9919  
G01 X20.1411 Y5.5461  
G01 X19.2289 Y5.5461  
G01 X18.7534 Y5.0706  
G01 X18.6747 Y4.9919  
G01 X18.6143 Y4.9570  
G01 X18.5782 Y4.9362  
G01 X18.4707 Y4.9074  
G01 X18.3593 Y4.9074  
G01 X18.2518 Y4.9362  
G01 X18.1553 Y4.9919  
G01 X17.6011 Y5.5461  
G01 X16.6889 Y5.5461  
G01 X16.2134 Y5.0706  
G01 X16.1347 Y4.9919  
G01 X16.0743 Y4.9570  
G01 X16.0382 Y4.9362  
G01 X15.9307 Y4.9074  
G01 X15.8193 Y4.9074  
G01 X15.7118 Y4.9362  
G01 X15.6153 Y4.9919  
G01 X15.0611 Y5.5461  
G01 X14.1489 Y5.5461  
G01 X13.4869 Y4.8841  
G01 X13.4474 Y4.8613  
G01 X13.3905 Y4.8284  
G01 X13.2829 Y4.7996  
G01 X13.1716 Y4.7996  
G01 X13.1670 Y4.8008  
G01 X13.0640 Y4.8284  
G01 X13.0295 Y4.8483  
G01 X12.9676 Y4.8841  
G01 X12.8888 Y4.9628  
G01 X12.4879 Y5.3637  
G01 X12.4879 Y5.3027  
G01 X12.9705 Y4.8201  
G01 X12.9705 Y4.0699  
G01 X12.4879 Y3.5873  
G01 X12.4879 Y3.5262  
G01 X12.8888 Y3.9272  
G00 Z2.5400  
G00 X13.6995 Y4.0699  
G01 Z-0.1500 F50    
G01 X13.6995 Y4.8201  F250   
G01 X14.2299 Y5.3505  
G01 X14.9801 Y5.3505  
G01 X15.5105 Y4.8201  
G01 X15.5105 Y4.0699  
G01 X14.9801 Y3.5395  
G01 X14.2299 Y3.5395  
G01 X13.6995 Y4.0699  
G00 Z2.5400  
G00 X16.2395 Y4.0699  
G01 Z-0.1500 F50    
G01 X16.2395 Y4.8201  F250   
G01 X16.7699 Y5.3505  
G01 X17.5201 Y5.3505  
G01 X18.0505 Y4.8201  
G01 X18.0505 Y4.0699  
G01 X17.5201 Y3.5395  
G01 X16.7699 Y3.5395  
G01 X16.2395 Y4.0699  
G00 Z2.5400  
G00 X18.7795 Y4.0699  
G01 Z-0.1500 F50    
G01 X18.7795 Y4.8201  F250   
G01 X19.3099 Y5.3505  
G01 X20.0601 Y5.3505  
G01 X20.5905 Y4.8201  
G01 X20.5905 Y4.0699  
G01 X20.0601 Y3.5395  
G01 X19.3099 Y3.5395  
G01 X18.7795 Y4.0699  
G00 Z2.5400  
G00 X21.3195 Y4.3558  
G01 Z-0.1500 F50    
G01 X21.3195 Y4.5342  F250   
G01 X21.3543 Y4.7091  
G01 X21.4226 Y4.8739  
G01 X21.5217 Y5.0222  
G01 X21.6478 Y5.1483  
G01 X21.7961 Y5.2474  
G01 X21.9609 Y5.3157  
G01 X22.1358 Y5.3505  
G01 X22.3142 Y5.3505  
G01 X22.4891 Y5.3157  
G01 X22.6539 Y5.2474  
G01 X22.8022 Y5.1483  
G01 X22.9283 Y5.0222  
G01 X23.0274 Y4.8739  
G01 X23.0957 Y4.7091  
G01 X23.1305 Y4.5342  
G01 X23.1305 Y4.3558  
G01 X23.0957 Y4.1809  
G01 X23.0274 Y4.0161  
G01 X22.9283 Y3.8678  
G01 X22.8022 Y3.7417  
G01 X22.6539 Y3.6426  
G01 X22.4891 Y3.5743  
G01 X22.3142 Y3.5395  
G01 X22.1358 Y3.5395  
G01 X21.9609 Y3.5743  
G01 X21.7961 Y3.6426  
G01 X21.6478 Y3.7417  
G01 X21.5217 Y3.8678  
G01 X21.4226 Y4.0161  
G01 X21.3543 Y4.1809  
G01 X21.3195 Y4.3558  
G00 Z2.5400  
G00 X13.6862 Y12.4879 
G01 Z-0.1500 F50    
G01 X13.7473 Y12.4879 F250   
G01 X14.1821 Y12.9227 
G01 X14.1821 Y12.9837 
G01 X13.6862 Y12.4879 
G00 Z2.5400  
G00 X12.4879 Y12.9227 
G01 Z-0.1500 F50    
G01 X12.9227 Y12.4879 F250   
G01 X12.9837 Y12.4879 
G01 X12.4879 Y12.9837 
G01 X12.4879 Y12.9227 
G00 Z2.5400  
G00 X3.4975  Y3.7942  
G01 Z-0.1500 F50    
G01 X3.4978  Y3.7940  F250   
G01 X3.5466  Y3.7659  
G01 X3.5940  Y3.7387  
G01 X3.6334  Y3.6994  
G01 X3.6729  Y3.6600  
G01 X3.9889  Y3.3439  
G01 X4.9011  Y3.3439  
G01 X5.4553  Y3.8981  
G01 X5.5518  Y3.9538  
G01 X5.6593  Y3.9826  
G01 X5.7707  Y3.9826  
G01 X5.7753  Y3.9814  
G01 X5.8782  Y3.9538  
G01 X5.9127  Y3.9339  
G01 X5.9747  Y3.8981  
G01 X6.0534  Y3.8194  
G01 X6.5289  Y3.3439  
G01 X7.4411  Y3.3439  
G01 X7.9953  Y3.8981  
G01 X8.0918  Y3.9538  
G01 X8.1993  Y3.9826  
G01 X8.3107  Y3.9826  
G01 X8.3153  Y3.9814  
G01 X8.4182  Y3.9538  
G01 X8.4527  Y3.9339  
G01 X8.5147  Y3.8981  
G01 X8.5934  Y3.8194  
G01 X9.0689  Y3.3439  
G01 X9.9811  Y3.3439  
G01 X10.6431 Y4.0059  
G01 X10.6826 Y4.0287  
G01 X10.7395 Y4.0616  
G01 X10.8471 Y4.0904  
G01 X10.9584 Y4.0904  
G01 X10.9630 Y4.0892  
G01 X11.0660 Y4.0616  
G01 X11.1005 Y4.0417  
G01 X11.1624 Y4.0059  
G01 X11.2412 Y3.9272  
G01 X11.6421 Y3.5263  
G01 X11.6421 Y3.5874  
G01 X11.1595 Y4.0699  
G01 X11.1595 Y4.8201  
G01 X11.6421 Y5.3026  
G01 X11.6421 Y5.3637  
G01 X11.2412 Y4.9628  
G01 X11.1624 Y4.8841  
G01 X11.1021 Y4.8492  
G01 X11.0660 Y4.8284  
G01 X10.9584 Y4.7996  
G01 X10.8471 Y4.7996  
G01 X10.8425 Y4.8008  
G01 X10.7395 Y4.8284  
G01 X10.6851 Y4.8598  
G01 X10.6431 Y4.8841  
G01 X10.5644 Y4.9628  
G01 X9.9811  Y5.5461  
G01 X9.0689  Y5.5461  
G01 X8.5934  Y5.0706  
G01 X8.5147  Y4.9919  
G01 X8.4543  Y4.9570  
G01 X8.4182  Y4.9362  
G01 X8.3107  Y4.9074  
G01 X8.1993  Y4.9074  
G01 X8.0918  Y4.9362  
G01 X7.9953  Y4.9919  
G01 X7.4411  Y5.5461  
G01 X6.5289  Y5.5461  
G01 X6.0534  Y5.0706  
G01 X5.9747  Y4.9919  
G01 X5.9143  Y4.9570  
G01 X5.8782  Y4.9362  
G01 X5.7707  Y4.9074  
G01 X5.6593  Y4.9074  
G01 X5.5518  Y4.9362  
G01 X5.4553  Y4.9919  
G01 X4.9011  Y5.5461  
G01 X3.9889  Y5.5461  
G01 X3.6312  Y5.1884  
G01 X3.5918  Y5.1489  
G01 X3.5432  Y5.1207  
G01 X3.4955  Y5.0931  
G01 X3.4804  Y5.0890  
G01 X3.4804  Y3.7987  
G01 X3.4975  Y3.7942  
G00 Z2.5400  
G00 X3.5395  Y4.0699  
G01 Z-0.1500 F50    
G01 X3.5395  Y4.8201  F250   
G01 X4.0699  Y5.3505  
G01 X4.8201  Y5.3505  
G01 X5.3505  Y4.8201  
G01 X5.3505  Y4.0699  
G01 X4.8201  Y3.5395  
G01 X4.0699  Y3.5395  
G01 X3.5395  Y4.0699  
G00 Z2.5400  
G00 X6.0795  Y4.0699  
G01 Z-0.1500 F50    
G01 X6.0795  Y4.8201  F250   
G01 X6.6099  Y5.3505  
G01 X7.3601  Y5.3505  
G01 X7.8905  Y4.8201  
G01 X7.8905  Y4.0699  
G01 X7.3601  Y3.5395  
G01 X6.6099  Y3.5395  
G01 X6.0795  Y4.0699  
G00 Z2.5400  
G00 X8.6195  Y4.0699  
G01 Z-0.1500 F50    
G01 X8.6195  Y4.8201  F250   
G01 X9.1499  Y5.3505  
G01 X9.9001  Y5.3505  
G01 X10.4305 Y4.8201  
G01 X10.4305 Y4.0699  
G01 X9.9001  Y3.5395  
G01 X9.1499  Y3.5395  
G01 X8.6195  Y4.0699  
G00 Z2.5400  
G00 X26.0995 Y1.5659  
G01 Z-0.1500 F50    
G01 X25.9610 Y1.4652  F250   
G01 X25.8398 Y1.3440  
G01 X25.7683 Y1.2456  
G01 X25.7637 Y1.2353  
G01 X25.7356 Y1.2006  
G01 X25.7094 Y1.1645  
G01 X25.7007 Y1.1575  
G01 X25.6936 Y1.1488  
G01 X25.6575 Y1.1225  
G01 X25.6229 Y1.0945  
G01 X25.6126 Y1.0899  
G01 X25.6035 Y1.0833  
G01 X25.5619 Y1.0673  
G01 X25.5407 Y1.0579  
G01 X25.7124 Y1.0579  
G01 X25.7761 Y1.1828  
G01 X25.8728 Y1.3159  
G01 X25.9891 Y1.4322  
G01 X26.1222 Y1.5289  
G01 X26.2471 Y1.5926  
G01 X26.2471 Y1.6411  
G01 X26.0995 Y1.5659  
G00 Z2.5400  
G00 X24.8390 Y1.4652  
G01 Z-0.1500 F50    
G01 X24.7005 Y1.5659  F250   
G01 X24.5529 Y1.6411  
G01 X24.5529 Y1.5926  
G01 X24.6778 Y1.5289  
G01 X24.8109 Y1.4322  
G01 X24.9272 Y1.3159  
G01 X25.0239 Y1.1828  
G01 X25.0876 Y1.0579  
G01 X25.2593 Y1.0579  
G01 X25.2381 Y1.0673  
G01 X25.1965 Y1.0833  
G01 X25.1874 Y1.0899  
G01 X25.1771 Y1.0945  
G01 X25.1425 Y1.1225  
G01 X25.1064 Y1.1488  
G01 X25.0993 Y1.1575  
G01 X25.0906 Y1.1646  
G01 X25.0644 Y1.2007  
G01 X25.0363 Y1.2353  
G01 X25.0317 Y1.2456  
G01 X24.9602 Y1.3440  
G01 X24.8390 Y1.4652  
G00 Z2.5400  
G00 X26.5900 Y11.1006 
G01 Z-0.1500 F50    
G01 X26.5900 Y12.5722 F250   
G01 X26.6194 Y12.7202 
G01 X26.6772 Y12.8595 
G01 X26.7610 Y12.9850 
G01 X26.8676 Y13.0916 
G01 X26.9329 Y13.1352 
G01 X26.9329 Y13.1893 
G01 X26.8288 Y13.1139 
G01 X26.7387 Y13.0238 
G01 X26.6639 Y12.9208 
G01 X26.6061 Y12.8074 
G01 X26.6038 Y12.8004 
G01 X26.6016 Y12.7837 
G01 X26.5867 Y12.7476 
G01 X26.5746 Y12.7105 
G01 X26.5654 Y12.6964 
G01 X26.5590 Y12.6808 
G01 X26.5352 Y12.6498 
G01 X26.5139 Y12.6171 
G01 X26.5014 Y12.6058 
G01 X26.4912 Y12.5925 
G01 X26.4602 Y12.5687 
G01 X26.4312 Y12.5426 
G01 X26.4162 Y12.5349 
G01 X26.4029 Y12.5247 
G01 X26.3668 Y12.5097 
G01 X26.3320 Y12.4920 
G01 X26.3155 Y12.4885 
G01 X26.3000 Y12.4821 
G01 X26.2613 Y12.4770 
G01 X26.2231 Y12.4688 
G01 X26.2063 Y12.4697 
G01 X26.1896 Y12.4675 
G01 X26.1509 Y12.4726 
G01 X26.1119 Y12.4747 
G01 X26.0959 Y12.4799 
G01 X26.0792 Y12.4821 
G01 X26.0431 Y12.4970 
G01 X26.0060 Y12.5091 
G01 X25.9919 Y12.5182 
G01 X25.9763 Y12.5247 
G01 X25.9453 Y12.5485 
G01 X25.9126 Y12.5697 
G01 X25.9013 Y12.5822 
G01 X25.8880 Y12.5925 
G01 X25.8642 Y12.6234 
G01 X25.8381 Y12.6525 
G01 X25.8304 Y12.6675 
G01 X25.8202 Y12.6808 
G01 X25.8052 Y12.7169 
G01 X25.7875 Y12.7517 
G01 X25.7840 Y12.7681 
G01 X25.6708 Y13.0414 
G01 X25.4004 Y13.3118 
G01 X25.0470 Y13.4582 
G01 X24.6646 Y13.4582 
G01 X24.3112 Y13.3118 
G01 X24.0408 Y13.0414 
G01 X23.9319 Y12.7785 
G01 X23.9246 Y12.7515 
G01 X23.9106 Y12.7273 
G01 X23.9000 Y12.7014 
G01 X23.8829 Y12.6793 
G01 X23.8690 Y12.6550 
G01 X23.8492 Y12.6353 
G01 X23.8322 Y12.6131 
G01 X23.8100 Y12.5961 
G01 X23.7902 Y12.5763 
G01 X23.7660 Y12.5623 
G01 X23.7438 Y12.5453 
G01 X23.7180 Y12.5346 
G01 X23.6938 Y12.5206 
G01 X23.6668 Y12.5134 
G01 X23.6410 Y12.5027 
G01 X23.6132 Y12.4990 
G01 X23.5862 Y12.4918 
G01 X23.5583 Y12.4918 
G01 X23.5306 Y12.4882 
G01 X23.5028 Y12.4918 
G01 X23.4749 Y12.4918 
G01 X23.4479 Y12.4990 
G01 X23.4201 Y12.5027 
G01 X23.3943 Y12.5134 
G01 X23.3673 Y12.5206 
G01 X23.3431 Y12.5346 
G01 X23.3173 Y12.5453 
G01 X23.2951 Y12.5623 
G01 X23.2709 Y12.5763 
G01 X23.2511 Y12.5961 
G01 X23.2289 Y12.6131 
G01 X23.2119 Y12.6353 
G01 X22.6811 Y13.1661 
G01 X21.7689 Y13.1661 
G01 X21.2147 Y12.6119 
G01 X21.1182 Y12.5562 
G01 X21.0107 Y12.5274 
G01 X20.8993 Y12.5274 
G01 X20.8947 Y12.5286 
G01 X20.7918 Y12.5562 
G01 X20.7572 Y12.5761 
G01 X20.6953 Y12.6119 
G01 X20.6166 Y12.6906 
G01 X20.1411 Y13.1661 
G01 X19.2289 Y13.1661 
G01 X18.6747 Y12.6119 
G01 X18.5782 Y12.5562 
G01 X18.4707 Y12.5274 
G01 X18.3593 Y12.5274 
G01 X18.3547 Y12.5286 
G01 X18.2518 Y12.5562 
G01 X18.2172 Y12.5761 
G01 X18.1553 Y12.6119 
G01 X18.0766 Y12.6906 
G01 X17.6011 Y13.1661 
G01 X16.6889 Y13.1661 
G01 X16.0269 Y12.5041 
G01 X15.9874 Y12.4813 
G01 X15.9305 Y12.4484 
G01 X15.8229 Y12.4196 
G01 X15.7116 Y12.4196 
G01 X15.7070 Y12.4208 
G01 X15.6040 Y12.4484 
G01 X15.5695 Y12.4683 
G01 X15.5076 Y12.5041 
G01 X15.4288 Y12.5828 
G01 X15.0279 Y12.9838 
G01 X15.0279 Y12.9227 
G01 X15.5105 Y12.4401 
G01 X15.5105 Y11.6899 
G01 X14.9801 Y11.1595 
G01 X14.2299 Y11.1595 
G01 X13.7474 Y11.6421 
G01 X12.9226 Y11.6421 
G01 X12.4401 Y11.1595 
G01 X11.6899 Y11.1595 
G01 X11.1595 Y11.6899 
G01 X11.1595 Y12.4401 
G01 X11.6421 Y12.9227 
G01 X11.6421 Y12.9837 
G01 X11.2412 Y12.5828 
G01 X11.1624 Y12.5041 
G01 X11.1021 Y12.4692 
G01 X11.0660 Y12.4484 
G01 X10.9584 Y12.4196 
G01 X10.8471 Y12.4196 
G01 X10.8425 Y12.4208 
G01 X10.7395 Y12.4484 
G01 X10.6851 Y12.4799 
G01 X10.6431 Y12.5041 
G01 X10.5644 Y12.5828 
G01 X9.9811  Y13.1661 
G01 X9.0689  Y13.1661 
G01 X8.5147  Y12.6119 
G01 X8.4182  Y12.5562 
G01 X8.3107  Y12.5274 
G01 X8.1993  Y12.5274 
G01 X8.1947  Y12.5286 
G01 X8.0918  Y12.5562 
G01 X8.0572  Y12.5761 
G01 X7.9953  Y12.6119 
G01 X7.9166  Y12.6906 
G01 X7.4411  Y13.1661 
G01 X6.5289  Y13.1661 
G01 X5.8669  Y12.5041 
G01 X5.8274  Y12.4813 
G01 X5.7705  Y12.4484 
G01 X5.6629  Y12.4196 
G01 X5.5516  Y12.4196 
G01 X5.5470  Y12.4208 
G01 X5.4440  Y12.4484 
G01 X5.4095  Y12.4683 
G01 X5.3476  Y12.5041 
G01 X5.2688  Y12.5828 
G01 X4.8679  Y12.9837 
G01 X4.8679  Y12.9227 
G01 X5.3505  Y12.4401 
G01 X5.3505  Y11.6899 
G01 X4.8679  Y11.2073 
G01 X4.8679  Y11.1462 
G01 X5.2688  Y11.5472 
G01 X5.3476  Y11.6259 
G01 X5.4079  Y11.6608 
G01 X5.4440  Y11.6816 
G01 X5.5516  Y11.7104 
G01 X5.6629  Y11.7104 
G01 X5.6675  Y11.7092 
G01 X5.7705  Y11.6816 
G01 X5.8249  Y11.6501 
G01 X5.8669  Y11.6259 
G01 X5.9456  Y11.5472 
G01 X6.5289  Y10.9639 
G01 X7.4411  Y10.9639 
G01 X7.9166  Y11.4394 
G01 X7.9953  Y11.5181 
G01 X8.0557  Y11.5530 
G01 X8.0918  Y11.5738 
G01 X8.1993  Y11.6026 
G01 X8.3107  Y11.6026 
G01 X8.4182  Y11.5738 
G01 X8.5147  Y11.5181 
G01 X8.9395  Y11.0933 
G01 X8.9952  Y10.9969 
G01 X9.0240  Y10.8893 
G01 X9.0240  Y9.9587  
G01 X9.1003  Y9.7746  
G01 X9.1187  Y9.7562  
G01 X9.1694  Y9.7054  
G01 X9.2092  Y9.6657  
G01 X9.2480  Y9.6270  
G01 X9.2795  Y9.5953  
G01 X9.3203  Y9.5785  
G01 X9.3723  Y9.5570  
G01 X9.4230  Y9.5361  
G01 X9.4637  Y9.5192  
G01 X9.5086  Y9.5192  
G01 X9.5652  Y9.5193  
G01 X9.6197  Y9.5194  
G01 X9.6907  Y9.5193  
G01 X9.7188  Y9.5195  
G01 X9.7462  Y9.5232  
G01 X9.7743  Y9.5196  
G01 X21.3086 Y9.5335  
G01 X21.3644 Y9.5335  
G01 X21.4175 Y9.5336  
G01 X21.4224 Y9.5329  
G01 X21.4736 Y9.5186  
G01 X21.5251 Y9.5049  
G01 X21.5296 Y9.5030  
G01 X21.5755 Y9.4759  
G01 X21.6216 Y9.4493  
G01 X21.6255 Y9.4464  
G01 X21.6628 Y9.4082  
G01 X21.7005 Y9.3707  
G01 X21.8851 Y9.1814  
G01 X21.8937 Y9.1758  
G01 X21.9240 Y9.1417  
G01 X21.9559 Y9.1092  
G01 X21.9609 Y9.1002  
G01 X24.7330 Y5.9865  
G01 X24.7637 Y5.9558  
G01 X24.7699 Y5.9450  
G01 X24.7782 Y5.9358  
G01 X24.7977 Y5.8970  
G01 X24.8194 Y5.8594  
G01 X24.8226 Y5.8474  
G01 X24.8282 Y5.8363  
G01 X24.8370 Y5.7937  
G01 X24.8482 Y5.7518  
G01 X24.8482 Y5.7394  
G01 X24.8507 Y5.7272  
G01 X24.8482 Y5.6839  
G01 X24.8482 Y5.2707  
G01 X24.8194 Y5.1632  
G01 X24.7994 Y5.1286  
G01 X24.7637 Y5.0667  
G01 X24.6850 Y4.9880  
G01 X24.3878 Y4.6908  
G01 X24.3878 Y3.8944  
G01 X24.9510 Y3.3312  
G01 X25.7474 Y3.3312  
G01 X26.3106 Y3.8944  
G01 X26.3106 Y4.6908  
G01 X26.0134 Y4.9880  
G01 X25.9347 Y5.0667  
G01 X25.8998 Y5.1271  
G01 X25.8790 Y5.1632  
G01 X25.8502 Y5.2707  
G01 X25.8502 Y5.9778  
G01 X25.8477 Y5.9899  
G01 X25.8502 Y6.0333  
G01 X25.8502 Y6.0767  
G01 X25.8534 Y6.0887  
G01 X25.8552 Y6.1198  
G01 X25.8542 Y6.1331  
G01 X25.8508 Y6.1461  
G01 X25.8389 Y6.1748  
G01 X25.8319 Y6.1851  
G01 X25.8176 Y6.2261  
G01 X25.8010 Y6.2662  
G01 X25.7994 Y6.2785  
G01 X25.7892 Y6.3079  
G01 X25.7831 Y6.3199  
G01 X25.7750 Y6.3305  
G01 X25.7530 Y6.3526  
G01 X25.7426 Y6.3594  
G01 X25.7137 Y6.3919  
G01 X25.6830 Y6.4225  
G01 X25.6768 Y6.4333  
G01 X22.7966 Y9.6685  
G01 X22.7825 Y9.6795  
G01 X22.7597 Y9.7099  
G01 X22.7344 Y9.7383  
G01 X22.7264 Y9.7542  
G01 X22.6952 Y9.7863  
G01 X22.6867 Y9.7919  
G01 X22.6564 Y9.8259  
G01 X22.6245 Y9.8585  
G01 X22.6195 Y9.8674  
G01 X22.5907 Y9.8997  
G01 X22.5744 Y9.9096  
G01 X22.5477 Y9.9368  
G01 X22.5189 Y9.9617  
G01 X22.5089 Y9.9764  
G01 X22.2474 Y10.2434 
G01 X22.2094 Y10.2813 
G01 X22.2068 Y10.2848 
G01 X22.1806 Y10.3313 
G01 X22.1537 Y10.3778 
G01 X22.1521 Y10.3818 
G01 X22.1388 Y10.4336 
G01 X22.1249 Y10.4853 
G01 X22.1244 Y10.4896 
G01 X22.1249 Y10.5432 
G01 X22.1249 Y10.5967 
G01 X22.1255 Y10.6010 
G01 X22.1399 Y10.6525 
G01 X22.1537 Y10.7042 
G01 X22.1554 Y10.7082 
G01 X22.1826 Y10.7543 
G01 X22.2094 Y10.8007 
G01 X22.2121 Y10.8041 
G01 X22.2502 Y10.8415 
G01 X22.2881 Y10.8794 
G01 X22.2916 Y10.8820 
G01 X22.3381 Y10.9082 
G01 X22.3846 Y10.9351 
G01 X22.3886 Y10.9367 
G01 X22.4404 Y10.9500 
G01 X22.4921 Y10.9639 
G01 X22.4965 Y10.9644 
G01 X22.5500 Y10.9639 
G01 X22.6811 Y10.9639 
G01 X23.1331 Y11.4159 
G01 X23.2118 Y11.4946 
G01 X23.2722 Y11.5295 
G01 X23.3083 Y11.5503 
G01 X23.4158 Y11.5791 
G01 X23.5272 Y11.5791 
G01 X23.6347 Y11.5503 
G01 X23.7312 Y11.4946 
G01 X23.8099 Y11.4159 
G01 X23.8448 Y11.3556 
G01 X23.8656 Y11.3195 
G01 X23.8944 Y11.2119 
G01 X23.8944 Y10.9848 
G01 X24.0408 Y10.6314 
G01 X24.3112 Y10.3610 
G01 X24.6646 Y10.2146 
G01 X25.0470 Y10.2146 
G01 X25.4004 Y10.3610 
G01 X25.6708 Y10.6314 
G01 X25.7840 Y10.9047 
G01 X25.7875 Y10.9211 
G01 X25.8052 Y10.9559 
G01 X25.8202 Y10.9920 
G01 X25.8304 Y11.0053 
G01 X25.8381 Y11.0203 
G01 X25.8642 Y11.0493 
G01 X25.8880 Y11.0803 
G01 X25.9013 Y11.0906 
G01 X25.9126 Y11.1031 
G01 X25.9453 Y11.1243 
G01 X25.9763 Y11.1481 
G01 X25.9919 Y11.1546 
G01 X26.0060 Y11.1637 
G01 X26.0431 Y11.1758 
G01 X26.0792 Y11.1907 
G01 X26.0959 Y11.1929 
G01 X26.1119 Y11.1981 
G01 X26.1509 Y11.2002 
G01 X26.1896 Y11.2053 
G01 X26.2063 Y11.2031 
G01 X26.2231 Y11.2039 
G01 X26.2613 Y11.1958 
G01 X26.3000 Y11.1907 
G01 X26.3155 Y11.1843 
G01 X26.3320 Y11.1808 
G01 X26.3668 Y11.1631 
G01 X26.4029 Y11.1481 
G01 X26.4162 Y11.1379 
G01 X26.4312 Y11.1302 
G01 X26.4602 Y11.1041 
G01 X26.4912 Y11.0803 
G01 X26.5014 Y11.0670 
G01 X26.5139 Y11.0557 
G01 X26.5352 Y11.0230 
G01 X26.5590 Y10.9920 
G01 X26.5654 Y10.9764 
G01 X26.5746 Y10.9623 
G01 X26.5867 Y10.9252 
G01 X26.6016 Y10.8891 
G01 X26.6038 Y10.8724 
G01 X26.6061 Y10.8654 
G01 X26.6639 Y10.7520 
G01 X26.7387 Y10.6490 
G01 X26.8288 Y10.5589 
G01 X26.9318 Y10.4841 
G01 X26.9329 Y10.5376 
G01 X26.8676 Y10.5812 
G01 X26.7610 Y10.6878 
G01 X26.6772 Y10.8133 
G01 X26.6194 Y10.9526 
G01 X26.5900 Y11.1006 
G00 Z2.5400  
G00 X24.0900 Y11.1006 
G01 Z-0.1500 F50    
G01 X24.0900 Y12.5722 F250   
G01 X24.1194 Y12.7202 
G01 X24.1772 Y12.8595 
G01 X24.2610 Y12.9850 
G01 X24.3676 Y13.0916 
G01 X24.4931 Y13.1754 
G01 X24.6324 Y13.2332 
G01 X24.7804 Y13.2626 
G01 X24.9312 Y13.2626 
G01 X25.0792 Y13.2332 
G01 X25.2185 Y13.1754 
G01 X25.3440 Y13.0916 
G01 X25.4506 Y12.9850 
G01 X25.5344 Y12.8595 
G01 X25.5922 Y12.7202 
G01 X25.6216 Y12.5722 
G01 X25.6216 Y11.1006 
G01 X25.5922 Y10.9526 
G01 X25.5344 Y10.8133 
G01 X25.4506 Y10.6878 
G01 X25.3440 Y10.5812 
G01 X25.2185 Y10.4974 
G01 X25.0792 Y10.4396 
G01 X24.9312 Y10.4102 
G01 X24.7804 Y10.4102 
G01 X24.6324 Y10.4396 
G01 X24.4931 Y10.4974 
G01 X24.3676 Y10.5812 
G01 X24.2610 Y10.6878 
G01 X24.1772 Y10.8133 
G01 X24.1194 Y10.9526 
G01 X24.0900 Y11.1006 
G00 Z2.5400  
G00 X21.3195 Y11.6899 
G01 Z-0.1500 F50    
G01 X21.3195 Y12.4401 F250   
G01 X21.8499 Y12.9705 
G01 X22.6001 Y12.9705 
G01 X23.1305 Y12.4401 
G01 X23.1305 Y11.6899 
G01 X22.6001 Y11.1595 
G01 X21.8499 Y11.1595 
G01 X21.3195 Y11.6899 
G00 Z2.5400  
G00 X18.7795 Y11.6899 
G01 Z-0.1500 F50    
G01 X18.7795 Y12.4401 F250   
G01 X19.3099 Y12.9705 
G01 X20.0601 Y12.9705 
G01 X20.5905 Y12.4401 
G01 X20.5905 Y11.6899 
G01 X20.0601 Y11.1595 
G01 X19.3099 Y11.1595 
G01 X18.7795 Y11.6899 
G00 Z2.5400  
G00 X16.2395 Y11.6899 
G01 Z-0.1500 F50    
G01 X16.2395 Y12.4401 F250   
G01 X16.7699 Y12.9705 
G01 X17.5201 Y12.9705 
G01 X18.0505 Y12.4401 
G01 X18.0505 Y11.6899 
G01 X17.5201 Y11.1595 
G01 X16.7699 Y11.1595 
G01 X16.2395 Y11.6899 
G00 Z2.5400  
G00 X8.6195  Y11.6899 
G01 Z-0.1500 F50    
G01 X8.6195  Y12.4401 F250   
G01 X9.1499  Y12.9705 
G01 X9.9001  Y12.9705 
G01 X10.4305 Y12.4401 
G01 X10.4305 Y11.6899 
G01 X9.9001  Y11.1595 
G01 X9.8304  Y11.1595 
G01 X9.8304  Y10.3260 
G01 X21.7113 Y10.3403 
G01 X21.7517 Y10.3404 
G01 X21.7900 Y10.3404 
G01 X21.7935 Y10.3400 
G01 X21.8307 Y10.3296 
G01 X21.8677 Y10.3197 
G01 X21.8709 Y10.3184 
G01 X21.9041 Y10.2987 
G01 X21.9374 Y10.2796 
G01 X21.9402 Y10.2774 
G01 X21.9671 Y10.2500 
G01 X21.9943 Y10.2228 
G01 X22.4854 Y9.7210  
G01 X22.4915 Y9.7169  
G01 X22.5134 Y9.6924  
G01 X22.5365 Y9.6688  
G01 X22.5401 Y9.6624  
G01 X25.5714 Y6.2575  
G01 X25.5936 Y6.2353  
G01 X25.5981 Y6.2276  
G01 X25.6040 Y6.2209  
G01 X25.6181 Y6.1928  
G01 X25.6338 Y6.1657  
G01 X25.6361 Y6.1570  
G01 X25.6401 Y6.1490  
G01 X25.6465 Y6.1183  
G01 X25.6546 Y6.0880  
G01 X25.6546 Y6.0790  
G01 X25.6564 Y6.0703  
G01 X25.6546 Y6.0390  
G01 X25.6546 Y5.0584  
G01 X25.6664 Y5.0584  
G01 X26.1150 Y4.6098  
G01 X26.1150 Y3.9754  
G01 X25.6664 Y3.5268  
G01 X25.0320 Y3.5268  
G01 X24.5834 Y3.9754  
G01 X24.5834 Y4.6098  
G01 X25.0320 Y5.0584  
G01 X25.0438 Y5.0584  
G01 X25.0438 Y5.9316  
G01 X22.0669 Y9.2753  
G01 X21.6220 Y9.7294  
G01 X9.6035  Y9.7149  
G01 X9.5622  Y9.7149  
G01 X9.5233  Y9.7149  
G01 X9.4831  Y9.7256  
G01 X9.4456  Y9.7356  
G01 X9.4094  Y9.7564  
G01 X9.3759  Y9.7757  
G01 X9.3468  Y9.8047  
G01 X9.3189  Y9.8325  
G01 X9.2806  Y9.8709  
G01 X9.2404  Y9.9405  
G01 X9.2196  Y10.0182 
G01 X9.2196  Y11.1595 
G01 X9.1499  Y11.1595 
G01 X8.6195  Y11.6899 
G00 Z2.5400  
G00 X6.0795  Y11.6899 
G01 Z-0.1500 F50    
G01 X6.0795  Y12.4401 F250   
G01 X6.6099  Y12.9705 
G01 X7.3601  Y12.9705 
G01 X7.8905  Y12.4401 
G01 X7.8905  Y11.6899 
G01 X7.3601  Y11.1595 
G01 X6.6099  Y11.1595 
G01 X6.0795  Y11.6899 
G00 Z2.5400  
G00 X27.7798 Y10.4841 
G01 Z-0.1500 F50    
G01 X27.8828 Y10.5589 F250   
G01 X27.9729 Y10.6490 
G01 X28.0477 Y10.7520 
G01 X28.1055 Y10.8654 
G01 X28.1078 Y10.8724 
G01 X28.1100 Y10.8891 
G01 X28.1249 Y10.9252 
G01 X28.1370 Y10.9623 
G01 X28.1462 Y10.9764 
G01 X28.1526 Y10.9920 
G01 X28.1764 Y11.0230 
G01 X28.1976 Y11.0557 
G01 X28.2101 Y11.0670 
G01 X28.2204 Y11.0803 
G01 X28.2514 Y11.1041 
G01 X28.2804 Y11.1302 
G01 X28.2954 Y11.1379 
G01 X28.3087 Y11.1481 
G01 X28.3448 Y11.1631 
G01 X28.3796 Y11.1808 
G01 X28.3961 Y11.1843 
G01 X28.4116 Y11.1907 
G01 X28.4503 Y11.1958 
G01 X28.4885 Y11.2039 
G01 X28.5053 Y11.2031 
G01 X28.5220 Y11.2053 
G01 X28.5607 Y11.2002 
G01 X28.5997 Y11.1981 
G01 X28.6157 Y11.1929 
G01 X28.6324 Y11.1907 
G01 X28.6685 Y11.1758 
G01 X28.7056 Y11.1637 
G01 X28.7197 Y11.1546 
G01 X28.7353 Y11.1481 
G01 X28.7663 Y11.1243 
G01 X28.7990 Y11.1031 
G01 X28.8103 Y11.0906 
G01 X28.8236 Y11.0803 
G01 X28.8474 Y11.0494 
G01 X28.8735 Y11.0203 
G01 X28.8812 Y11.0053 
G01 X28.8914 Y10.9920 
G01 X28.9063 Y10.9559 
G01 X28.9241 Y10.9211 
G01 X28.9276 Y10.9047 
G01 X29.0408 Y10.6314 
G01 X29.3112 Y10.3610 
G01 X29.6646 Y10.2146 
G01 X30.0470 Y10.2146 
G01 X30.4004 Y10.3610 
G01 X30.6708 Y10.6314 
G01 X30.8172 Y10.9848 
G01 X30.8172 Y12.6880 
G01 X30.6708 Y13.0414 
G01 X30.4004 Y13.3118 
G01 X30.0470 Y13.4582 
G01 X29.6646 Y13.4582 
G01 X29.3112 Y13.3118 
G01 X29.0408 Y13.0414 
G01 X28.9276 Y12.7681 
G01 X28.9241 Y12.7517 
G01 X28.9063 Y12.7169 
G01 X28.8914 Y12.6808 
G01 X28.8812 Y12.6675 
G01 X28.8735 Y12.6525 
G01 X28.8474 Y12.6234 
G01 X28.8236 Y12.5925 
G01 X28.8103 Y12.5822 
G01 X28.7990 Y12.5697 
G01 X28.7663 Y12.5485 
G01 X28.7353 Y12.5247 
G01 X28.7197 Y12.5182 
G01 X28.7056 Y12.5091 
G01 X28.6685 Y12.4970 
G01 X28.6324 Y12.4821 
G01 X28.6157 Y12.4799 
G01 X28.5997 Y12.4747 
G01 X28.5607 Y12.4726 
G01 X28.5220 Y12.4675 
G01 X28.5053 Y12.4697 
G01 X28.4885 Y12.4688 
G01 X28.4503 Y12.4770 
G01 X28.4116 Y12.4821 
G01 X28.3961 Y12.4885 
G01 X28.3796 Y12.4920 
G01 X28.3448 Y12.5097 
G01 X28.3087 Y12.5247 
G01 X28.2954 Y12.5349 
G01 X28.2804 Y12.5426 
G01 X28.2514 Y12.5687 
G01 X28.2204 Y12.5925 
G01 X28.2101 Y12.6058 
G01 X28.1976 Y12.6171 
G01 X28.1764 Y12.6498 
G01 X28.1526 Y12.6808 
G01 X28.1462 Y12.6964 
G01 X28.1370 Y12.7105 
G01 X28.1249 Y12.7476 
G01 X28.1100 Y12.7837 
G01 X28.1078 Y12.8004 
G01 X28.1055 Y12.8074 
G01 X28.0477 Y12.9208 
G01 X27.9729 Y13.0238 
G01 X27.8828 Y13.1139 
G01 X27.7798 Y13.1887 
G01 X27.7787 Y13.1352 
G01 X27.8440 Y13.0916 
G01 X27.9506 Y12.9850 
G01 X28.0344 Y12.8595 
G01 X28.0922 Y12.7202 
G01 X28.1216 Y12.5722 
G01 X28.1216 Y11.1006 
G01 X28.0922 Y10.9526 
G01 X28.0344 Y10.8133 
G01 X27.9506 Y10.6878 
G01 X27.8440 Y10.5812 
G01 X27.7787 Y10.5376 
G01 X27.7787 Y10.4835 
G00 Z2.5400  
G00 X29.0900 Y11.1006 
G01 Z-0.1500 F50    
G01 X29.0900 Y12.5722 F250   
G01 X29.1194 Y12.7202 
G01 X29.1772 Y12.8595 
G01 X29.2610 Y12.9850 
G01 X29.3676 Y13.0916 
G01 X29.4931 Y13.1754 
G01 X29.6324 Y13.2332 
G01 X29.7804 Y13.2626 
G01 X29.9312 Y13.2626 
G01 X30.0792 Y13.2332 
G01 X30.2185 Y13.1754 
G01 X30.3440 Y13.0916 
G01 X30.4506 Y12.9850 
G01 X30.5344 Y12.8595 
G01 X30.5922 Y12.7202 
G01 X30.6216 Y12.5722 
G01 X30.6216 Y11.1006 
G01 X30.5922 Y10.9526 
G01 X30.5344 Y10.8133 
G01 X30.4506 Y10.6878 
G01 X30.3440 Y10.5812 
G01 X30.2185 Y10.4974 
G01 X30.0792 Y10.4396 
G01 X29.9312 Y10.4102 
G01 X29.7804 Y10.4102 
G01 X29.6324 Y10.4396 
G01 X29.4931 Y10.4974 
G01 X29.3676 Y10.5812 
G01 X29.2610 Y10.6878 
G01 X29.1772 Y10.8133 
G01 X29.1194 Y10.9526 
G01 X29.0900 Y11.1006 
G00 Z2.5400  
G00 X30.8274 Y3.3312  
G01 Z-0.1500 F50    
G01 X31.3906 Y3.8944  F250   
G01 X31.3906 Y4.6908  
G01 X30.8274 Y5.2540  
G01 X30.0310 Y5.2540  
G01 X29.4678 Y4.6908  
G01 X29.4678 Y3.8944  
G01 X30.0310 Y3.3312  
G01 X30.8274 Y3.3312  
G00 Z2.5400  
G00 X29.6634 Y3.9754  
G01 Z-0.1500 F50    
G01 X29.6634 Y4.6098  F250   
G01 X30.1120 Y5.0584  
G01 X30.7464 Y5.0584  
G01 X31.1950 Y4.6098  
G01 X31.1950 Y3.9754  
G01 X30.7464 Y3.5268  
G01 X30.1120 Y3.5268  
G01 X29.6634 Y3.9754  
G00 Z2.5400  
G00 X30.7048 Y0.5527  
G01 Z-0.1500 F50    
G01 X30.7048 Y0.7173  F250   
G01 X30.7305 Y0.8798  
G01 X30.7814 Y1.0362  
G01 X30.8561 Y1.1828  
G01 X30.9528 Y1.3159  
G01 X31.0691 Y1.4322  
G01 X31.2022 Y1.5289  
G01 X31.3488 Y1.6036  
G01 X31.5052 Y1.6545  
G01 X31.6677 Y1.6802  
G01 X31.8323 Y1.6802  
G01 X31.9947 Y1.6545  
G01 X32.1512 Y1.6036  
G01 X32.2978 Y1.5289  
G01 X32.4309 Y1.4322  
G01 X32.5472 Y1.3159  
G01 X32.6439 Y1.1828  
G01 X32.7186 Y1.0362  
G01 X32.7695 Y0.8798  
G01 X32.7952 Y0.7173  
G01 X32.7952 Y0.5527  
G01 X32.7695 Y0.3902  
G01 X32.7186 Y0.2338  
G01 X32.6439 Y0.0872  
G01 X32.5472 Y-0.0459 
G01 X32.4309 Y-0.1622 
G01 X32.2978 Y-0.2589 
G01 X32.1512 Y-0.3336 
G01 X31.9947 Y-0.3845 
G01 X31.8323 Y-0.4102 
G01 X31.6677 Y-0.4102 
G01 X31.5052 Y-0.3845 
G01 X31.3488 Y-0.3336 
G01 X31.2022 Y-0.2589 
G01 X31.0691 Y-0.1622 
G01 X30.9528 Y-0.0459 
G01 X30.8561 Y0.0872  
G01 X30.7814 Y0.2338  
G01 X30.7305 Y0.3902  
G01 X30.7048 Y0.5527  
G00 Z2.5400  
G00 X28.1648 Y0.5527  
G01 Z-0.1500 F50    
G01 X28.1648 Y0.7173  F250   
G01 X28.1905 Y0.8798  
G01 X28.2414 Y1.0362  
G01 X28.3161 Y1.1828  
G01 X28.4128 Y1.3159  
G01 X28.5291 Y1.4322  
G01 X28.6622 Y1.5289  
G01 X28.8088 Y1.6036  
G01 X28.9652 Y1.6545  
G01 X29.1277 Y1.6802  
G01 X29.2923 Y1.6802  
G01 X29.4548 Y1.6545  
G01 X29.6112 Y1.6036  
G01 X29.7578 Y1.5289  
G01 X29.8909 Y1.4322  
G01 X30.0072 Y1.3159  
G01 X30.1039 Y1.1828  
G01 X30.1786 Y1.0362  
G01 X30.2295 Y0.8798  
G01 X30.2552 Y0.7173  
G01 X30.2552 Y0.5527  
G01 X30.2295 Y0.3902  
G01 X30.1786 Y0.2338  
G01 X30.1039 Y0.0872  
G01 X30.0072 Y-0.0459 
G01 X29.8909 Y-0.1622 
G01 X29.7578 Y-0.2589 
G01 X29.6112 Y-0.3336 
G01 X29.4548 Y-0.3845 
G01 X29.2923 Y-0.4102 
G01 X29.1277 Y-0.4102 
G01 X28.9652 Y-0.3845 
G01 X28.8088 Y-0.3336 
G01 X28.6622 Y-0.2589 
G01 X28.5291 Y-0.1622 
G01 X28.4128 Y-0.0459 
G01 X28.3161 Y0.0872  
G01 X28.2414 Y0.2338  
G01 X28.1905 Y0.3902  
G01 X28.1648 Y0.5527  
G00 Z2.5400  
G00 X20.5448 Y0.5527  
G01 Z-0.1500 F50    
G01 X20.5448 Y0.7173  F250   
G01 X20.5705 Y0.8798  
G01 X20.6214 Y1.0362  
G01 X20.6961 Y1.1828  
G01 X20.7928 Y1.3159  
G01 X20.9091 Y1.4322  
G01 X21.0422 Y1.5289  
G01 X21.1888 Y1.6036  
G01 X21.3452 Y1.6545  
G01 X21.5077 Y1.6802  
G01 X21.6723 Y1.6802  
G01 X21.8347 Y1.6545  
G01 X21.9912 Y1.6036  
G01 X22.1378 Y1.5289  
G01 X22.2709 Y1.4322  
G01 X22.3872 Y1.3159  
G01 X22.4839 Y1.1828  
G01 X22.5586 Y1.0362  
G01 X22.6095 Y0.8798  
G01 X22.6352 Y0.7173  
G01 X22.6352 Y0.5527  
G01 X22.6095 Y0.3902  
G01 X22.5586 Y0.2338  
G01 X22.4839 Y0.0872  
G01 X22.3872 Y-0.0459 
G01 X22.2709 Y-0.1622 
G01 X22.1378 Y-0.2589 
G01 X21.9912 Y-0.3336 
G01 X21.8347 Y-0.3845 
G01 X21.6723 Y-0.4102 
G01 X21.5077 Y-0.4102 
G01 X21.3452 Y-0.3845 
G01 X21.1888 Y-0.3336 
G01 X21.0422 Y-0.2589 
G01 X20.9091 Y-0.1622 
G01 X20.7928 Y-0.0459 
G01 X20.6961 Y0.0872  
G01 X20.6214 Y0.2338  
G01 X20.5705 Y0.3902  
G01 X20.5448 Y0.5527  
G00 Z2.5400  
G00 X18.0048 Y0.5527  
G01 Z-0.1500 F50    
G01 X18.0048 Y0.7173  F250   
G01 X18.0305 Y0.8798  
G01 X18.0814 Y1.0362  
G01 X18.1561 Y1.1828  
G01 X18.2528 Y1.3159  
G01 X18.3691 Y1.4322  
G01 X18.5022 Y1.5289  
G01 X18.6488 Y1.6036  
G01 X18.8052 Y1.6545  
G01 X18.9677 Y1.6802  
G01 X19.1323 Y1.6802  
G01 X19.2948 Y1.6545  
G01 X19.4512 Y1.6036  
G01 X19.5978 Y1.5289  
G01 X19.7309 Y1.4322  
G01 X19.8472 Y1.3159  
G01 X19.9439 Y1.1828  
G01 X20.0186 Y1.0362  
G01 X20.0695 Y0.8798  
G01 X20.0952 Y0.7173  
G01 X20.0952 Y0.5527  
G01 X20.0695 Y0.3902  
G01 X20.0186 Y0.2338  
G01 X19.9439 Y0.0872  
G01 X19.8472 Y-0.0459 
G01 X19.7309 Y-0.1622 
G01 X19.5978 Y-0.2589 
G01 X19.4512 Y-0.3336 
G01 X19.2948 Y-0.3845 
G01 X19.1323 Y-0.4102 
G01 X18.9677 Y-0.4102 
G01 X18.8052 Y-0.3845 
G01 X18.6488 Y-0.3336 
G01 X18.5022 Y-0.2589 
G01 X18.3691 Y-0.1622 
G01 X18.2528 Y-0.0459 
G01 X18.1561 Y0.0872  
G01 X18.0814 Y0.2338  
G01 X18.0305 Y0.3902  
G01 X18.0048 Y0.5527  
G00 Z2.5400  
G00 X15.4648 Y0.5527  
G01 Z-0.1500 F50    
G01 X15.4648 Y0.7173  F250   
G01 X15.4905 Y0.8798  
G01 X15.5414 Y1.0362  
G01 X15.6161 Y1.1828  
G01 X15.7128 Y1.3159  
G01 X15.8291 Y1.4322  
G01 X15.9622 Y1.5289  
G01 X16.1088 Y1.6036  
G01 X16.2652 Y1.6545  
G01 X16.4277 Y1.6802  
G01 X16.5923 Y1.6802  
G01 X16.7548 Y1.6545  
G01 X16.9112 Y1.6036  
G01 X17.0578 Y1.5289  
G01 X17.1909 Y1.4322  
G01 X17.3072 Y1.3159  
G01 X17.4039 Y1.1828  
G01 X17.4786 Y1.0362  
G01 X17.5295 Y0.8798  
G01 X17.5552 Y0.7173  
G01 X17.5552 Y0.5527  
G01 X17.5295 Y0.3902  
G01 X17.4786 Y0.2338  
G01 X17.4039 Y0.0872  
G01 X17.3072 Y-0.0459 
G01 X17.1909 Y-0.1622 
G01 X17.0578 Y-0.2589 
G01 X16.9112 Y-0.3336 
G01 X16.7548 Y-0.3845 
G01 X16.5923 Y-0.4102 
G01 X16.4277 Y-0.4102 
G01 X16.2652 Y-0.3845 
G01 X16.1088 Y-0.3336 
G01 X15.9622 Y-0.2589 
G01 X15.8291 Y-0.1622 
G01 X15.7128 Y-0.0459 
G01 X15.6161 Y0.0872  
G01 X15.5414 Y0.2338  
G01 X15.4905 Y0.3902  
G01 X15.4648 Y0.5527  
G00 Z2.5400  
G00 X12.9248 Y0.5527  
G01 Z-0.1500 F50    
G01 X12.9248 Y0.7173  F250   
G01 X12.9505 Y0.8798  
G01 X13.0014 Y1.0362  
G01 X13.0761 Y1.1828  
G01 X13.1728 Y1.3159  
G01 X13.2891 Y1.4322  
G01 X13.4222 Y1.5289  
G01 X13.5688 Y1.6036  
G01 X13.7252 Y1.6545  
G01 X13.8877 Y1.6802  
G01 X14.0523 Y1.6802  
G01 X14.2148 Y1.6545  
G01 X14.3712 Y1.6036  
G01 X14.5178 Y1.5289  
G01 X14.6509 Y1.4322  
G01 X14.7672 Y1.3159  
G01 X14.8639 Y1.1828  
G01 X14.9386 Y1.0362  
G01 X14.9895 Y0.8798  
G01 X15.0152 Y0.7173  
G01 X15.0152 Y0.5527  
G01 X14.9895 Y0.3902  
G01 X14.9386 Y0.2338  
G01 X14.8639 Y0.0872  
G01 X14.7672 Y-0.0459 
G01 X14.6509 Y-0.1622 
G01 X14.5178 Y-0.2589 
G01 X14.3712 Y-0.3336 
G01 X14.2148 Y-0.3845 
G01 X14.0523 Y-0.4102 
G01 X13.8877 Y-0.4102 
G01 X13.7252 Y-0.3845 
G01 X13.5688 Y-0.3336 
G01 X13.4222 Y-0.2589 
G01 X13.2891 Y-0.1622 
G01 X13.1728 Y-0.0459 
G01 X13.0761 Y0.0872  
G01 X13.0014 Y0.2338  
G01 X12.9505 Y0.3902  
G01 X12.9248 Y0.5527  
G00 Z2.5400  
G00 X10.3848 Y0.5527  
G01 Z-0.1500 F50    
G01 X10.3848 Y0.7173  F250   
G01 X10.4105 Y0.8798  
G01 X10.4614 Y1.0362  
G01 X10.5361 Y1.1828  
G01 X10.6328 Y1.3159  
G01 X10.7491 Y1.4322  
G01 X10.8822 Y1.5289  
G01 X11.0288 Y1.6036  
G01 X11.1852 Y1.6545  
G01 X11.3477 Y1.6802  
G01 X11.5123 Y1.6802  
G01 X11.6748 Y1.6545  
G01 X11.8312 Y1.6036  
G01 X11.9778 Y1.5289  
G01 X12.1109 Y1.4322  
G01 X12.2272 Y1.3159  
G01 X12.3239 Y1.1828  
G01 X12.3986 Y1.0362  
G01 X12.4495 Y0.8798  
G01 X12.4752 Y0.7173  
G01 X12.4752 Y0.5527  
G01 X12.4495 Y0.3902  
G01 X12.3986 Y0.2338  
G01 X12.3239 Y0.0872  
G01 X12.2272 Y-0.0459 
G01 X12.1109 Y-0.1622 
G01 X11.9778 Y-0.2589 
G01 X11.8312 Y-0.3336 
G01 X11.6748 Y-0.3845 
G01 X11.5123 Y-0.4102 
G01 X11.3477 Y-0.4102 
G01 X11.1852 Y-0.3845 
G01 X11.0288 Y-0.3336 
G01 X10.8822 Y-0.2589 
G01 X10.7491 Y-0.1622 
G01 X10.6328 Y-0.0459 
G01 X10.5361 Y0.0872  
G01 X10.4614 Y0.2338  
G01 X10.4105 Y0.3902  
G01 X10.3848 Y0.5527  
G00 Z2.5400  
G00 X7.8448  Y0.5527  
G01 Z-0.1500 F50    
G01 X7.8448  Y0.7173  F250   
G01 X7.8705  Y0.8798  
G01 X7.9214  Y1.0362  
G01 X7.9961  Y1.1828  
G01 X8.0928  Y1.3159  
G01 X8.2091  Y1.4322  
G01 X8.3422  Y1.5289  
G01 X8.4888  Y1.6036  
G01 X8.6452  Y1.6545  
G01 X8.8077  Y1.6802  
G01 X8.9723  Y1.6802  
G01 X9.1348  Y1.6545  
G01 X9.2912  Y1.6036  
G01 X9.4378  Y1.5289  
G01 X9.5709  Y1.4322  
G01 X9.6872  Y1.3159  
G01 X9.7839  Y1.1828  
G01 X9.8586  Y1.0362  
G01 X9.9095  Y0.8798  
G01 X9.9352  Y0.7173  
G01 X9.9352  Y0.5527  
G01 X9.9095  Y0.3902  
G01 X9.8586  Y0.2338  
G01 X9.7839  Y0.0872  
G01 X9.6872  Y-0.0459 
G01 X9.5709  Y-0.1622 
G01 X9.4378  Y-0.2589 
G01 X9.2912  Y-0.3336 
G01 X9.1348  Y-0.3845 
G01 X8.9723  Y-0.4102 
G01 X8.8077  Y-0.4102 
G01 X8.6452  Y-0.3845 
G01 X8.4888  Y-0.3336 
G01 X8.3422  Y-0.2589 
G01 X8.2091  Y-0.1622 
G01 X8.0928  Y-0.0459 
G01 X7.9961  Y0.0872  
G01 X7.9214  Y0.2338  
G01 X7.8705  Y0.3902  
G01 X7.8448  Y0.5527  
G00 Z2.5400  
G00 X5.3048  Y0.5527  
G01 Z-0.1500 F50    
G01 X5.3048  Y0.7173  F250   
G01 X5.3305  Y0.8798  
G01 X5.3814  Y1.0362  
G01 X5.4561  Y1.1828  
G01 X5.5528  Y1.3159  
G01 X5.6691  Y1.4322  
G01 X5.8022  Y1.5289  
G01 X5.9488  Y1.6036  
G01 X6.1052  Y1.6545  
G01 X6.2677  Y1.6802  
G01 X6.4323  Y1.6802  
G01 X6.5948  Y1.6545  
G01 X6.7512  Y1.6036  
G01 X6.8978  Y1.5289  
G01 X7.0309  Y1.4322  
G01 X7.1472  Y1.3159  
G01 X7.2439  Y1.1828  
G01 X7.3186  Y1.0362  
G01 X7.3695  Y0.8798  
G01 X7.3952  Y0.7173  
G01 X7.3952  Y0.5527  
G01 X7.3695  Y0.3902  
G01 X7.3186  Y0.2338  
G01 X7.2439  Y0.0872  
G01 X7.1472  Y-0.0459 
G01 X7.0309  Y-0.1622 
G01 X6.8978  Y-0.2589 
G01 X6.7512  Y-0.3336 
G01 X6.5948  Y-0.3845 
G01 X6.4323  Y-0.4102 
G01 X6.2677  Y-0.4102 
G01 X6.1052  Y-0.3845 
G01 X5.9488  Y-0.3336 
G01 X5.8022  Y-0.2589 
G01 X5.6691  Y-0.1622 
G01 X5.5528  Y-0.0459 
G01 X5.4561  Y0.0872  
G01 X5.3814  Y0.2338  
G01 X5.3305  Y0.3902  
G01 X5.3048  Y0.5527  
G00 Z2.5400  
G00 X2.7648  Y0.5527  
G01 Z-0.1500 F50    
G01 X2.7648  Y0.7173  F250   
G01 X2.7905  Y0.8798  
G01 X2.8414  Y1.0362  
G01 X2.9161  Y1.1828  
G01 X3.0128  Y1.3159  
G01 X3.1291  Y1.4322  
G01 X3.2622  Y1.5289  
G01 X3.4088  Y1.6036  
G01 X3.5652  Y1.6545  
G01 X3.7277  Y1.6802  
G01 X3.8923  Y1.6802  
G01 X4.0548  Y1.6545  
G01 X4.2112  Y1.6036  
G01 X4.3578  Y1.5289  
G01 X4.4909  Y1.4322  
G01 X4.6072  Y1.3159  
G01 X4.7039  Y1.1828  
G01 X4.7786  Y1.0362  
G01 X4.8295  Y0.8798  
G01 X4.8552  Y0.7173  
G01 X4.8552  Y0.5527  
G01 X4.8295  Y0.3902  
G01 X4.7786  Y0.2338  
G01 X4.7039  Y0.0872  
G01 X4.6072  Y-0.0459 
G01 X4.4909  Y-0.1622 
G01 X4.3578  Y-0.2589 
G01 X4.2112  Y-0.3336 
G01 X4.0548  Y-0.3845 
G01 X3.8923  Y-0.4102 
G01 X3.7277  Y-0.4102 
G01 X3.5652  Y-0.3845 
G01 X3.4088  Y-0.3336 
G01 X3.2622  Y-0.2589 
G01 X3.1291  Y-0.1622 
G01 X3.0128  Y-0.0459 
G01 X2.9161  Y0.0872  
G01 X2.8414  Y0.2338  
G01 X2.7905  Y0.3902  
G01 X2.7648  Y0.5527  
G00 Z2.5400  
G00 X2.7648  Y15.7927 
G01 Z-0.1500 F50    
G01 X2.7648  Y15.9573 F250   
G01 X2.7905  Y16.1197 
G01 X2.8414  Y16.2762 
G01 X2.9161  Y16.4228 
G01 X3.0128  Y16.5559 
G01 X3.1291  Y16.6722 
G01 X3.2622  Y16.7689 
G01 X3.4088  Y16.8436 
G01 X3.5652  Y16.8945 
G01 X3.7277  Y16.9202 
G01 X3.8923  Y16.9202 
G01 X4.0548  Y16.8945 
G01 X4.2112  Y16.8436 
G01 X4.3578  Y16.7689 
G01 X4.4909  Y16.6722 
G01 X4.6072  Y16.5559 
G01 X4.7039  Y16.4228 
G01 X4.7786  Y16.2762 
G01 X4.8295  Y16.1197 
G01 X4.8552  Y15.9573 
G01 X4.8552  Y15.7927 
G01 X4.8295  Y15.6302 
G01 X4.7786  Y15.4738 
G01 X4.7039  Y15.3272 
G01 X4.6072  Y15.1941 
G01 X4.4909  Y15.0778 
G01 X4.3578  Y14.9811 
G01 X4.2112  Y14.9064 
G01 X4.0548  Y14.8555 
G01 X3.8923  Y14.8298 
G01 X3.7277  Y14.8298 
G01 X3.5652  Y14.8555 
G01 X3.4088  Y14.9064 
G01 X3.2622  Y14.9811 
G01 X3.1291  Y15.0778 
G01 X3.0128  Y15.1941 
G01 X2.9161  Y15.3272 
G01 X2.8414  Y15.4738 
G01 X2.7905  Y15.6302 
G01 X2.7648  Y15.7927 
G00 Z2.5400  
G00 X5.3048  Y15.7927 
G01 Z-0.1500 F50    
G01 X5.3048  Y15.9573 F250   
G01 X5.3305  Y16.1197 
G01 X5.3814  Y16.2762 
G01 X5.4561  Y16.4228 
G01 X5.5528  Y16.5559 
G01 X5.6691  Y16.6722 
G01 X5.8022  Y16.7689 
G01 X5.9488  Y16.8436 
G01 X6.1052  Y16.8945 
G01 X6.2677  Y16.9202 
G01 X6.4323  Y16.9202 
G01 X6.5948  Y16.8945 
G01 X6.7512  Y16.8436 
G01 X6.8978  Y16.7689 
G01 X7.0309  Y16.6722 
G01 X7.1472  Y16.5559 
G01 X7.2439  Y16.4228 
G01 X7.3186  Y16.2762 
G01 X7.3695  Y16.1197 
G01 X7.3952  Y15.9573 
G01 X7.3952  Y15.7927 
G01 X7.3695  Y15.6302 
G01 X7.3186  Y15.4738 
G01 X7.2439  Y15.3272 
G01 X7.1472  Y15.1941 
G01 X7.0309  Y15.0778 
G01 X6.8978  Y14.9811 
G01 X6.7512  Y14.9064 
G01 X6.5948  Y14.8555 
G01 X6.4323  Y14.8298 
G01 X6.2677  Y14.8298 
G01 X6.1052  Y14.8555 
G01 X5.9488  Y14.9064 
G01 X5.8022  Y14.9811 
G01 X5.6691  Y15.0778 
G01 X5.5528  Y15.1941 
G01 X5.4561  Y15.3272 
G01 X5.3814  Y15.4738 
G01 X5.3305  Y15.6302 
G01 X5.3048  Y15.7927 
G00 Z2.5400  
G00 X7.8448  Y15.7927 
G01 Z-0.1500 F50    
G01 X7.8448  Y15.9573 F250   
G01 X7.8705  Y16.1197 
G01 X7.9214  Y16.2762 
G01 X7.9961  Y16.4228 
G01 X8.0928  Y16.5559 
G01 X8.2091  Y16.6722 
G01 X8.3422  Y16.7689 
G01 X8.4888  Y16.8436 
G01 X8.6452  Y16.8945 
G01 X8.8077  Y16.9202 
G01 X8.9723  Y16.9202 
G01 X9.1348  Y16.8945 
G01 X9.2912  Y16.8436 
G01 X9.4378  Y16.7689 
G01 X9.5709  Y16.6722 
G01 X9.6872  Y16.5559 
G01 X9.7839  Y16.4228 
G01 X9.8586  Y16.2762 
G01 X9.9095  Y16.1197 
G01 X9.9352  Y15.9573 
G01 X9.9352  Y15.7927 
G01 X9.9095  Y15.6302 
G01 X9.8586  Y15.4738 
G01 X9.7839  Y15.3272 
G01 X9.6872  Y15.1941 
G01 X9.5709  Y15.0778 
G01 X9.4378  Y14.9811 
G01 X9.2912  Y14.9064 
G01 X9.1348  Y14.8555 
G01 X8.9723  Y14.8298 
G01 X8.8077  Y14.8298 
G01 X8.6452  Y14.8555 
G01 X8.4888  Y14.9064 
G01 X8.3422  Y14.9811 
G01 X8.2091  Y15.0778 
G01 X8.0928  Y15.1941 
G01 X7.9961  Y15.3272 
G01 X7.9214  Y15.4738 
G01 X7.8705  Y15.6302 
G01 X7.8448  Y15.7927 
G00 Z2.5400  
G00 X10.3848 Y15.7927 
G01 Z-0.1500 F50    
G01 X10.3848 Y15.9573 F250   
G01 X10.4105 Y16.1197 
G01 X10.4614 Y16.2762 
G01 X10.5361 Y16.4228 
G01 X10.6328 Y16.5559 
G01 X10.7491 Y16.6722 
G01 X10.8822 Y16.7689 
G01 X11.0288 Y16.8436 
G01 X11.1852 Y16.8945 
G01 X11.3477 Y16.9202 
G01 X11.5123 Y16.9202 
G01 X11.6748 Y16.8945 
G01 X11.8312 Y16.8436 
G01 X11.9778 Y16.7689 
G01 X12.1109 Y16.6722 
G01 X12.2272 Y16.5559 
G01 X12.3239 Y16.4228 
G01 X12.3986 Y16.2762 
G01 X12.4495 Y16.1197 
G01 X12.4752 Y15.9573 
G01 X12.4752 Y15.7927 
G01 X12.4495 Y15.6302 
G01 X12.3986 Y15.4738 
G01 X12.3239 Y15.3272 
G01 X12.2272 Y15.1941 
G01 X12.1109 Y15.0778 
G01 X11.9778 Y14.9811 
G01 X11.8312 Y14.9064 
G01 X11.6748 Y14.8555 
G01 X11.5123 Y14.8298 
G01 X11.3477 Y14.8298 
G01 X11.1852 Y14.8555 
G01 X11.0288 Y14.9064 
G01 X10.8822 Y14.9811 
G01 X10.7491 Y15.0778 
G01 X10.6328 Y15.1941 
G01 X10.5361 Y15.3272 
G01 X10.4614 Y15.4738 
G01 X10.4105 Y15.6302 
G01 X10.3848 Y15.7927 
G00 Z2.5400  
G00 X12.9248 Y15.7927 
G01 Z-0.1500 F50    
G01 X12.9248 Y15.9573 F250   
G01 X12.9505 Y16.1197 
G01 X13.0014 Y16.2762 
G01 X13.0761 Y16.4228 
G01 X13.1728 Y16.5559 
G01 X13.2891 Y16.6722 
G01 X13.4222 Y16.7689 
G01 X13.5688 Y16.8436 
G01 X13.7252 Y16.8945 
G01 X13.8877 Y16.9202 
G01 X14.0523 Y16.9202 
G01 X14.2148 Y16.8945 
G01 X14.3712 Y16.8436 
G01 X14.5178 Y16.7689 
G01 X14.6509 Y16.6722 
G01 X14.7672 Y16.5559 
G01 X14.8639 Y16.4228 
G01 X14.9386 Y16.2762 
G01 X14.9895 Y16.1197 
G01 X15.0152 Y15.9573 
G01 X15.0152 Y15.7927 
G01 X14.9895 Y15.6302 
G01 X14.9386 Y15.4738 
G01 X14.8639 Y15.3272 
G01 X14.7672 Y15.1941 
G01 X14.6509 Y15.0778 
G01 X14.5178 Y14.9811 
G01 X14.3712 Y14.9064 
G01 X14.2148 Y14.8555 
G01 X14.0523 Y14.8298 
G01 X13.8877 Y14.8298 
G01 X13.7252 Y14.8555 
G01 X13.5688 Y14.9064 
G01 X13.4222 Y14.9811 
G01 X13.2891 Y15.0778 
G01 X13.1728 Y15.1941 
G01 X13.0761 Y15.3272 
G01 X13.0014 Y15.4738 
G01 X12.9505 Y15.6302 
G01 X12.9248 Y15.7927 
G00 Z2.5400  
G00 X15.4648 Y15.7927 
G01 Z-0.1500 F50    
G01 X15.4648 Y15.9573 F250   
G01 X15.4905 Y16.1197 
G01 X15.5414 Y16.2762 
G01 X15.6161 Y16.4228 
G01 X15.7128 Y16.5559 
G01 X15.8291 Y16.6722 
G01 X15.9622 Y16.7689 
G01 X16.1088 Y16.8436 
G01 X16.2652 Y16.8945 
G01 X16.4277 Y16.9202 
G01 X16.5923 Y16.9202 
G01 X16.7548 Y16.8945 
G01 X16.9112 Y16.8436 
G01 X17.0578 Y16.7689 
G01 X17.1909 Y16.6722 
G01 X17.3072 Y16.5559 
G01 X17.4039 Y16.4228 
G01 X17.4786 Y16.2762 
G01 X17.5295 Y16.1197 
G01 X17.5552 Y15.9573 
G01 X17.5552 Y15.7927 
G01 X17.5295 Y15.6302 
G01 X17.4786 Y15.4738 
G01 X17.4039 Y15.3272 
G01 X17.3072 Y15.1941 
G01 X17.1909 Y15.0778 
G01 X17.0578 Y14.9811 
G01 X16.9112 Y14.9064 
G01 X16.7548 Y14.8555 
G01 X16.5923 Y14.8298 
G01 X16.4277 Y14.8298 
G01 X16.2652 Y14.8555 
G01 X16.1088 Y14.9064 
G01 X15.9622 Y14.9811 
G01 X15.8291 Y15.0778 
G01 X15.7128 Y15.1941 
G01 X15.6161 Y15.3272 
G01 X15.5414 Y15.4738 
G01 X15.4905 Y15.6302 
G01 X15.4648 Y15.7927 
G00 Z2.5400  
G00 X18.0048 Y15.7927 
G01 Z-0.1500 F50    
G01 X18.0048 Y15.9573 F250   
G01 X18.0305 Y16.1197 
G01 X18.0814 Y16.2762 
G01 X18.1561 Y16.4228 
G01 X18.2528 Y16.5559 
G01 X18.3691 Y16.6722 
G01 X18.5022 Y16.7689 
G01 X18.6488 Y16.8436 
G01 X18.8052 Y16.8945 
G01 X18.9677 Y16.9202 
G01 X19.1323 Y16.9202 
G01 X19.2948 Y16.8945 
G01 X19.4512 Y16.8436 
G01 X19.5978 Y16.7689 
G01 X19.7309 Y16.6722 
G01 X19.8472 Y16.5559 
G01 X19.9439 Y16.4228 
G01 X20.0186 Y16.2762 
G01 X20.0695 Y16.1197 
G01 X20.0952 Y15.9573 
G01 X20.0952 Y15.7927 
G01 X20.0695 Y15.6302 
G01 X20.0186 Y15.4738 
G01 X19.9439 Y15.3272 
G01 X19.8472 Y15.1941 
G01 X19.7309 Y15.0778 
G01 X19.5978 Y14.9811 
G01 X19.4512 Y14.9064 
G01 X19.2948 Y14.8555 
G01 X19.1323 Y14.8298 
G01 X18.9677 Y14.8298 
G01 X18.8052 Y14.8555 
G01 X18.6488 Y14.9064 
G01 X18.5022 Y14.9811 
G01 X18.3691 Y15.0778 
G01 X18.2528 Y15.1941 
G01 X18.1561 Y15.3272 
G01 X18.0814 Y15.4738 
G01 X18.0305 Y15.6302 
G01 X18.0048 Y15.7927 
G00 Z2.5400  
G00 X20.5448 Y15.7927 
G01 Z-0.1500 F50    
G01 X20.5448 Y15.9573 F250   
G01 X20.5705 Y16.1197 
G01 X20.6214 Y16.2762 
G01 X20.6961 Y16.4228 
G01 X20.7928 Y16.5559 
G01 X20.9091 Y16.6722 
G01 X21.0422 Y16.7689 
G01 X21.1888 Y16.8436 
G01 X21.3452 Y16.8945 
G01 X21.5077 Y16.9202 
G01 X21.6723 Y16.9202 
G01 X21.8347 Y16.8945 
G01 X21.9912 Y16.8436 
G01 X22.1378 Y16.7689 
G01 X22.2709 Y16.6722 
G01 X22.3872 Y16.5559 
G01 X22.4839 Y16.4228 
G01 X22.5586 Y16.2762 
G01 X22.6095 Y16.1197 
G01 X22.6352 Y15.9573 
G01 X22.6352 Y15.7927 
G01 X22.6095 Y15.6302 
G01 X22.5586 Y15.4738 
G01 X22.4839 Y15.3272 
G01 X22.3872 Y15.1941 
G01 X22.2709 Y15.0778 
G01 X22.1378 Y14.9811 
G01 X21.9912 Y14.9064 
G01 X21.8347 Y14.8555 
G01 X21.6723 Y14.8298 
G01 X21.5077 Y14.8298 
G01 X21.3452 Y14.8555 
G01 X21.1888 Y14.9064 
G01 X21.0422 Y14.9811 
G01 X20.9091 Y15.0778 
G01 X20.7928 Y15.1941 
G01 X20.6961 Y15.3272 
G01 X20.6214 Y15.4738 
G01 X20.5705 Y15.6302 
G01 X20.5448 Y15.7927 
G00 Z2.5400  
G00 X23.0848 Y15.7927 
G01 Z-0.1500 F50    
G01 X23.0848 Y15.9573 F250   
G01 X23.1105 Y16.1197 
G01 X23.1614 Y16.2762 
G01 X23.2361 Y16.4228 
G01 X23.3328 Y16.5559 
G01 X23.4491 Y16.6722 
G01 X23.5822 Y16.7689 
G01 X23.7288 Y16.8436 
G01 X23.8852 Y16.8945 
G01 X24.0477 Y16.9202 
G01 X24.2123 Y16.9202 
G01 X24.3748 Y16.8945 
G01 X24.5312 Y16.8436 
G01 X24.6778 Y16.7689 
G01 X24.8109 Y16.6722 
G01 X24.9272 Y16.5559 
G01 X25.0239 Y16.4228 
G01 X25.0986 Y16.2762 
G01 X25.1495 Y16.1197 
G01 X25.1752 Y15.9573 
G01 X25.1752 Y15.7927 
G01 X25.1495 Y15.6302 
G01 X25.0986 Y15.4738 
G01 X25.0239 Y15.3272 
G01 X24.9272 Y15.1941 
G01 X24.8109 Y15.0778 
G01 X24.6778 Y14.9811 
G01 X24.5312 Y14.9064 
G01 X24.3748 Y14.8555 
G01 X24.2123 Y14.8298 
G01 X24.0477 Y14.8298 
G01 X23.8852 Y14.8555 
G01 X23.7288 Y14.9064 
G01 X23.5822 Y14.9811 
G01 X23.4491 Y15.0778 
G01 X23.3328 Y15.1941 
G01 X23.2361 Y15.3272 
G01 X23.1614 Y15.4738 
G01 X23.1105 Y15.6302 
G01 X23.0848 Y15.7927 
G00 Z2.5400  
G00 X25.6248 Y15.7927 
G01 Z-0.1500 F50    
G01 X25.6248 Y15.9573 F250   
G01 X25.6505 Y16.1197 
G01 X25.7014 Y16.2762 
G01 X25.7761 Y16.4228 
G01 X25.8728 Y16.5559 
G01 X25.9891 Y16.6722 
G01 X26.1222 Y16.7689 
G01 X26.2688 Y16.8436 
G01 X26.4252 Y16.8945 
G01 X26.5877 Y16.9202 
G01 X26.7523 Y16.9202 
G01 X26.9148 Y16.8945 
G01 X27.0712 Y16.8436 
G01 X27.2178 Y16.7689 
G01 X27.3509 Y16.6722 
G01 X27.4672 Y16.5559 
G01 X27.5639 Y16.4228 
G01 X27.6386 Y16.2762 
G01 X27.6895 Y16.1197 
G01 X27.7152 Y15.9573 
G01 X27.7152 Y15.7927 
G01 X27.6895 Y15.6302 
G01 X27.6386 Y15.4738 
G01 X27.5639 Y15.3272 
G01 X27.4672 Y15.1941 
G01 X27.3509 Y15.0778 
G01 X27.2178 Y14.9811 
G01 X27.0712 Y14.9064 
G01 X26.9148 Y14.8555 
G01 X26.7523 Y14.8298 
G01 X26.5877 Y14.8298 
G01 X26.4252 Y14.8555 
G01 X26.2688 Y14.9064 
G01 X26.1222 Y14.9811 
G01 X25.9891 Y15.0778 
G01 X25.8728 Y15.1941 
G01 X25.7761 Y15.3272 
G01 X25.7014 Y15.4738 
G01 X25.6505 Y15.6302 
G01 X25.6248 Y15.7927 
G00 Z2.5400  
G00 X30.7048 Y15.7927 
G01 Z-0.1500 F50    
G01 X30.7048 Y15.9573 F250   
G01 X30.7305 Y16.1197 
G01 X30.7814 Y16.2762 
G01 X30.8561 Y16.4228 
G01 X30.9528 Y16.5559 
G01 X31.0691 Y16.6722 
G01 X31.2022 Y16.7689 
G01 X31.3488 Y16.8436 
G01 X31.5052 Y16.8945 
G01 X31.6677 Y16.9202 
G01 X31.8323 Y16.9202 
G01 X31.9947 Y16.8945 
G01 X32.1512 Y16.8436 
G01 X32.2978 Y16.7689 
G01 X32.4309 Y16.6722 
G01 X32.5472 Y16.5559 
G01 X32.6439 Y16.4228 
G01 X32.7186 Y16.2762 
G01 X32.7695 Y16.1197 
G01 X32.7952 Y15.9573 
G01 X32.7952 Y15.7927 
G01 X32.7695 Y15.6302 
G01 X32.7186 Y15.4738 
G01 X32.6439 Y15.3272 
G01 X32.5472 Y15.1941 
G01 X32.4309 Y15.0778 
G01 X32.2978 Y14.9811 
G01 X32.1512 Y14.9064 
G01 X31.9947 Y14.8555 
G01 X31.8323 Y14.8298 
G01 X31.6677 Y14.8298 
G01 X31.5052 Y14.8555 
G01 X31.3488 Y14.9064 
G01 X31.2022 Y14.9811 
G01 X31.0691 Y15.0778 
G01 X30.9528 Y15.1941 
G01 X30.8561 Y15.3272 
G01 X30.7814 Y15.4738 
G01 X30.7305 Y15.6302 
G01 X30.7048 Y15.7927 
G00 Z2.5400  
G00 X3.5395  Y11.6899 
G01 Z-0.1500 F50    
G01 X3.5395  Y12.4401 F250   
G01 X4.0221  Y12.9226 
G01 X4.0221  Y12.9837 
G01 X3.6198  Y12.5814 
G01 X3.5804  Y12.5420 
G01 X3.5318  Y12.5138 
G01 X3.4841  Y12.4861 
G01 X3.4291  Y12.4713 
G01 X3.3766  Y12.4571 
G01 X3.3198  Y12.4571 
G01 X3.2652  Y12.4570 
G01 X3.2102  Y12.4716 
G01 X3.1576  Y12.4856 
G01 X3.1086  Y12.5138 
G01 X3.0611  Y12.5412 
G01 X3.0216  Y12.5805 
G01 X2.9822  Y12.6198 
G01 X2.9541  Y12.6684 
G01 X2.9264  Y12.7161 
G01 X2.9116  Y12.7711 
G01 X2.8974  Y12.8236 
G01 X2.8973  Y12.8802 
G01 X2.8952  Y14.2499 
G01 X2.8915  Y14.2780 
G01 X2.8951  Y14.3054 
G01 X2.8951  Y14.3330 
G01 X2.9024  Y14.3603 
G01 X2.9061  Y14.3884 
G01 X2.9166  Y14.4139 
G01 X2.9237  Y14.4406 
G01 X2.9378  Y14.4651 
G01 X2.9487  Y14.4913 
G01 X2.9655  Y14.5132 
G01 X2.9793  Y14.5371 
G01 X2.9992  Y14.5572 
G01 X3.0164  Y14.5796 
G01 X3.0384  Y14.5964 
G01 X3.0579  Y14.6160 
G01 X3.0823  Y14.6302 
G01 X3.1048  Y14.6474 
G01 X3.1303  Y14.6580 
G01 X3.1542  Y14.6718 
G01 X3.1815  Y14.6792 
G01 X3.2077  Y14.6900 
G01 X3.2351  Y14.6936 
G01 X3.2617  Y14.7008 
G01 X3.2900  Y14.7008 
G01 X3.3181  Y14.7045 
G01 X3.3455  Y14.7009 
G01 X3.3731  Y14.7010 
G01 X3.4004  Y14.6937 
G01 X3.4285  Y14.6900 
G01 X3.4540  Y14.6794 
G01 X3.4807  Y14.6723 
G01 X3.5052  Y14.6582 
G01 X3.5632  Y14.6342 
G01 X4.0568  Y14.6342 
G01 X4.5129  Y14.8231 
G01 X4.8203  Y15.1306 
G01 X4.9168  Y15.1863 
G01 X5.0243  Y15.2151 
G01 X5.1357  Y15.2151 
G01 X5.1633  Y15.2077 
G01 X5.2432  Y15.1863 
G01 X5.3397  Y15.1306 
G01 X5.4184  Y15.0518 
G01 X5.6471  Y14.8231 
G01 X6.1032  Y14.6342 
G01 X6.5968  Y14.6342 
G01 X7.0529  Y14.8231 
G01 X7.3603  Y15.1306 
G01 X7.4568  Y15.1863 
G01 X7.5643  Y15.2151 
G01 X7.6757  Y15.2151 
G01 X7.7033  Y15.2077 
G01 X7.7832  Y15.1863 
G01 X7.8797  Y15.1306 
G01 X7.9584  Y15.0518 
G01 X8.1871  Y14.8231 
G01 X8.6432  Y14.6342 
G01 X9.1368  Y14.6342 
G01 X9.5929  Y14.8231 
G01 X9.9003  Y15.1306 
G01 X9.9968  Y15.1863 
G01 X10.1043 Y15.2151 
G01 X10.2157 Y15.2151 
G01 X10.2433 Y15.2077 
G01 X10.3232 Y15.1863 
G01 X10.4197 Y15.1306 
G01 X10.4984 Y15.0518 
G01 X10.7271 Y14.8231 
G01 X11.1832 Y14.6342 
G01 X11.6768 Y14.6342 
G01 X12.1329 Y14.8231 
G01 X12.4403 Y15.1306 
G01 X12.5368 Y15.1863 
G01 X12.6443 Y15.2151 
G01 X12.7557 Y15.2151 
G01 X12.7833 Y15.2077 
G01 X12.8632 Y15.1863 
G01 X12.9597 Y15.1306 
G01 X13.0384 Y15.0518 
G01 X13.2671 Y14.8231 
G01 X13.7232 Y14.6342 
G01 X14.2168 Y14.6342 
G01 X14.6729 Y14.8231 
G01 X14.9803 Y15.1306 
G01 X15.0768 Y15.1863 
G01 X15.1843 Y15.2151 
G01 X15.2957 Y15.2151 
G01 X15.3233 Y15.2077 
G01 X15.4032 Y15.1863 
G01 X15.4997 Y15.1306 
G01 X15.5784 Y15.0518 
G01 X15.8071 Y14.8231 
G01 X16.2632 Y14.6342 
G01 X16.7568 Y14.6342 
G01 X17.2129 Y14.8231 
G01 X17.5203 Y15.1306 
G01 X17.6168 Y15.1863 
G01 X17.7243 Y15.2151 
G01 X17.8357 Y15.2151 
G01 X17.8633 Y15.2077 
G01 X17.9432 Y15.1863 
G01 X18.0397 Y15.1306 
G01 X18.1184 Y15.0518 
G01 X18.3471 Y14.8231 
G01 X18.8032 Y14.6342 
G01 X19.2968 Y14.6342 
G01 X19.7529 Y14.8231 
G01 X20.0603 Y15.1306 
G01 X20.1568 Y15.1863 
G01 X20.2643 Y15.2151 
G01 X20.3757 Y15.2151 
G01 X20.4033 Y15.2077 
G01 X20.4832 Y15.1863 
G01 X20.5797 Y15.1306 
G01 X20.6584 Y15.0518 
G01 X20.8871 Y14.8231 
G01 X21.3432 Y14.6342 
G01 X21.8368 Y14.6342 
G01 X22.2929 Y14.8231 
G01 X22.6003 Y15.1306 
G01 X22.6968 Y15.1863 
G01 X22.8043 Y15.2151 
G01 X22.9157 Y15.2151 
G01 X22.9433 Y15.2077 
G01 X23.0232 Y15.1863 
G01 X23.1197 Y15.1306 
G01 X23.1984 Y15.0518 
G01 X23.4271 Y14.8231 
G01 X23.8832 Y14.6342 
G01 X24.3768 Y14.6342 
G01 X24.8329 Y14.8231 
G01 X25.1403 Y15.1306 
G01 X25.2368 Y15.1863 
G01 X25.3443 Y15.2151 
G01 X25.4557 Y15.2151 
G01 X25.4833 Y15.2077 
G01 X25.5632 Y15.1863 
G01 X25.6597 Y15.1306 
G01 X25.7384 Y15.0518 
G01 X25.9671 Y14.8231 
G01 X26.4232 Y14.6342 
G01 X26.9168 Y14.6342 
G01 X27.3729 Y14.8231 
G01 X27.7346 Y15.1848 
G01 X27.7557 Y15.2109 
G01 X27.7738 Y15.2240 
G01 X27.7896 Y15.2398 
G01 X27.8187 Y15.2566 
G01 X27.8458 Y15.2763 
G01 X27.8667 Y15.2843 
G01 X27.8860 Y15.2955 
G01 X27.9184 Y15.3042 
G01 X27.9498 Y15.3162 
G01 X27.9720 Y15.3185 
G01 X27.9936 Y15.3243 
G01 X28.0271 Y15.3243 
G01 X28.0605 Y15.3278 
G01 X28.0826 Y15.3243 
G01 X28.1049 Y15.3243 
G01 X28.1373 Y15.3157 
G01 X28.1705 Y15.3104 
G01 X28.1909 Y15.3013 
G01 X28.2125 Y15.2955 
G01 X28.2416 Y15.2787 
G01 X28.2722 Y15.2651 
G01 X28.2896 Y15.2510 
G01 X28.3089 Y15.2398 
G01 X28.3327 Y15.2161 
G01 X28.3587 Y15.1950 
G01 X28.3719 Y15.1769 
G01 X28.3877 Y15.1611 
G01 X28.3918 Y15.1540 
G01 X28.5010 Y15.0448 
G01 X28.6395 Y14.9441 
G01 X28.7871 Y14.8689 
G01 X28.7871 Y14.9174 
G01 X28.6622 Y14.9811 
G01 X28.5291 Y15.0778 
G01 X28.4128 Y15.1941 
G01 X28.3161 Y15.3272 
G01 X28.2414 Y15.4738 
G01 X28.1905 Y15.6302 
G01 X28.1648 Y15.7927 
G01 X28.1648 Y15.9573 
G01 X28.1905 Y16.1197 
G01 X28.2414 Y16.2762 
G01 X28.3161 Y16.4228 
G01 X28.4128 Y16.5559 
G01 X28.5291 Y16.6722 
G01 X28.6622 Y16.7689 
G01 X28.8088 Y16.8436 
G01 X28.9652 Y16.8945 
G01 X29.1277 Y16.9202 
G01 X29.2923 Y16.9202 
G01 X29.4548 Y16.8945 
G01 X29.6112 Y16.8436 
G01 X29.7578 Y16.7689 
G01 X29.8909 Y16.6722 
G01 X30.0072 Y16.5559 
G01 X30.1039 Y16.4228 
G01 X30.1786 Y16.2762 
G01 X30.2295 Y16.1197 
G01 X30.2552 Y15.9573 
G01 X30.2552 Y15.7927 
G01 X30.2295 Y15.6302 
G01 X30.1786 Y15.4738 
G01 X30.1039 Y15.3272 
G01 X30.0072 Y15.1941 
G01 X29.8909 Y15.0778 
G01 X29.7578 Y14.9811 
G01 X29.6329 Y14.9174 
G01 X29.6329 Y14.8689 
G01 X29.7805 Y14.9441 
G01 X29.9190 Y15.0448 
G01 X30.0282 Y15.1540 
G01 X30.0323 Y15.1611 
G01 X30.0481 Y15.1769 
G01 X30.0613 Y15.1950 
G01 X30.0873 Y15.2161 
G01 X30.1111 Y15.2398 
G01 X30.1304 Y15.2510 
G01 X30.1478 Y15.2651 
G01 X30.1784 Y15.2787 
G01 X30.2075 Y15.2955 
G01 X30.2291 Y15.3013 
G01 X30.2495 Y15.3104 
G01 X30.2826 Y15.3157 
G01 X30.3151 Y15.3243 
G01 X30.3374 Y15.3243 
G01 X30.3595 Y15.3278 
G01 X30.3929 Y15.3243 
G01 X30.4264 Y15.3243 
G01 X30.4480 Y15.3185 
G01 X30.4702 Y15.3162 
G01 X30.5016 Y15.3042 
G01 X30.5340 Y15.2955 
G01 X30.5533 Y15.2843 
G01 X30.5742 Y15.2763 
G01 X30.6013 Y15.2566 
G01 X30.6304 Y15.2398 
G01 X30.6462 Y15.2240 
G01 X30.6643 Y15.2109 
G01 X30.6854 Y15.1848 
G01 X31.0471 Y14.8231 
G01 X31.5032 Y14.6342 
G01 X31.9968 Y14.6342 
G01 X32.4529 Y14.8231 
G01 X32.8019 Y15.1721 
G01 X32.9092 Y15.4312 
G01 X32.9287 Y15.4567 
G01 X32.9770 Y15.5196 
G01 X33.0374 Y15.5659 
G01 X33.0653 Y15.5873 
G01 X33.1420 Y15.6191 
G01 X33.1682 Y15.6300 
G01 X33.2261 Y15.6376 
G01 X33.2786 Y15.6445 
G01 X33.3289 Y15.6379 
G01 X33.3890 Y15.6300 
G01 X33.4081 Y15.6221 
G01 X33.4919 Y15.5874 
G01 X33.5241 Y15.5740 
G01 X35.0611 Y15.5740 
G01 X35.1151 Y15.5740 
G01 X35.1723 Y15.5740 
G01 X35.2248 Y15.5599 
G01 X35.2798 Y15.5452 
G01 X35.3267 Y15.5181 
G01 X35.3762 Y15.4895 
G01 X35.4141 Y15.4516 
G01 X35.4550 Y15.4108 
G01 X35.9585 Y14.9063 
G01 X36.0372 Y14.8275 
G01 X36.0530 Y14.8000 
G01 X36.0928 Y14.7310 
G01 X36.0988 Y14.7083 
G01 X36.1215 Y14.6234 
G01 X36.1107 Y1.9260  
G01 X36.1107 Y1.8739  
G01 X36.0959 Y1.8186  
G01 X36.0818 Y1.7663  
G01 X36.0521 Y1.7150  
G01 X36.0261 Y1.6699  
G01 X35.9845 Y1.6284  
G01 X35.4156 Y1.0603  
G01 X35.3758 Y1.0205  
G01 X35.3292 Y0.9936  
G01 X35.2794 Y0.9648  
G01 X35.2267 Y0.9507  
G01 X35.1718 Y0.9360  
G01 X35.1158 Y0.9360  
G01 X33.5241 Y0.9360  
G01 X33.4919 Y0.9226  
G01 X33.4100 Y0.8887  
G01 X33.3890 Y0.8800  
G01 X33.3311 Y0.8724  
G01 X33.2786 Y0.8655  
G01 X33.2283 Y0.8721  
G01 X33.1682 Y0.8800  
G01 X33.1445 Y0.8899  
G01 X33.0653 Y0.9226  
G01 X33.0399 Y0.9422  
G01 X32.9770 Y0.9904  
G01 X32.9306 Y1.0509  
G01 X32.9092 Y1.0788  
G01 X32.8019 Y1.3379  
G01 X32.4529 Y1.6869  
G01 X31.9968 Y1.8758  
G01 X31.5032 Y1.8758  
G01 X31.0471 Y1.6869  
G01 X30.7397 Y1.3794  
G01 X30.6432 Y1.3237  
G01 X30.5357 Y1.2949  
G01 X30.4243 Y1.2949  
G01 X30.3967 Y1.3023  
G01 X30.3168 Y1.3237  
G01 X30.2203 Y1.3794  
G01 X30.1416 Y1.4582  
G01 X29.9129 Y1.6869  
G01 X29.4568 Y1.8758  
G01 X28.9632 Y1.8758  
G01 X28.5071 Y1.6869  
G01 X28.1454 Y1.3252  
G01 X28.1243 Y1.2991  
G01 X28.1062 Y1.2860  
G01 X28.0904 Y1.2702  
G01 X28.0613 Y1.2534  
G01 X28.0342 Y1.2337  
G01 X28.0133 Y1.2257  
G01 X27.9940 Y1.2145  
G01 X27.9616 Y1.2058  
G01 X27.9302 Y1.1938  
G01 X27.9080 Y1.1915  
G01 X27.8864 Y1.1857  
G01 X27.8529 Y1.1857  
G01 X27.8195 Y1.1822  
G01 X27.7974 Y1.1857  
G01 X27.7751 Y1.1857  
G01 X27.7426 Y1.1943  
G01 X27.7095 Y1.1996  
G01 X27.6891 Y1.2087  
G01 X27.6675 Y1.2145  
G01 X27.6384 Y1.2313  
G01 X27.6078 Y1.2449  
G01 X27.5904 Y1.2590  
G01 X27.5711 Y1.2702  
G01 X27.5473 Y1.2939  
G01 X27.5213 Y1.3150  
G01 X27.5081 Y1.3331  
G01 X27.4923 Y1.3489  
G01 X27.4882 Y1.3560  
G01 X27.3790 Y1.4652  
G01 X27.2405 Y1.5659  
G01 X27.0929 Y1.6411  
G01 X27.0929 Y1.5926  
G01 X27.2178 Y1.5289  
G01 X27.3509 Y1.4322  
G01 X27.4672 Y1.3159  
G01 X27.5639 Y1.1828  
G01 X27.6386 Y1.0362  
G01 X27.6895 Y0.8798  
G01 X27.7152 Y0.7173  
G01 X27.7152 Y0.5527  
G01 X27.6895 Y0.3902  
G01 X27.6386 Y0.2338  
G01 X27.5639 Y0.0872  
G01 X27.4672 Y-0.0459 
G01 X27.3509 Y-0.1622 
G01 X27.2178 Y-0.2589 
G01 X27.0712 Y-0.3336 
G01 X26.9148 Y-0.3845 
G01 X26.7523 Y-0.4102 
G01 X26.5877 Y-0.4102 
G01 X26.4252 Y-0.3845 
G01 X26.2688 Y-0.3336 
G01 X26.1222 Y-0.2589 
G01 X25.9891 Y-0.1622 
G01 X25.8728 Y-0.0459 
G01 X25.7761 Y0.0872  
G01 X25.7124 Y0.2121  
G01 X25.0876 Y0.2121  
G01 X25.0239 Y0.0872  
G01 X24.9272 Y-0.0459 
G01 X24.8109 Y-0.1622 
G01 X24.6778 Y-0.2589 
G01 X24.5312 Y-0.3336 
G01 X24.3748 Y-0.3845 
G01 X24.2123 Y-0.4102 
G01 X24.0477 Y-0.4102 
G01 X23.8852 Y-0.3845 
G01 X23.7288 Y-0.3336 
G01 X23.5822 Y-0.2589 
G01 X23.4491 Y-0.1622 
G01 X23.3328 Y-0.0459 
G01 X23.2361 Y0.0872  
G01 X23.1614 Y0.2338  
G01 X23.1105 Y0.3902  
G01 X23.0848 Y0.5527  
G01 X23.0848 Y0.7173  
G01 X23.1105 Y0.8798  
G01 X23.1614 Y1.0362  
G01 X23.2361 Y1.1828  
G01 X23.3328 Y1.3159  
G01 X23.4491 Y1.4322  
G01 X23.5822 Y1.5289  
G01 X23.7071 Y1.5926  
G01 X23.7071 Y1.6411  
G01 X23.5595 Y1.5659  
G01 X23.4210 Y1.4652  
G01 X23.3118 Y1.3560  
G01 X23.3077 Y1.3489  
G01 X23.2919 Y1.3331  
G01 X23.2788 Y1.3150  
G01 X23.2527 Y1.2939  
G01 X23.2289 Y1.2702  
G01 X23.2096 Y1.2590  
G01 X23.1922 Y1.2449  
G01 X23.1616 Y1.2313  
G01 X23.1325 Y1.2145  
G01 X23.1109 Y1.2087  
G01 X23.0905 Y1.1996  
G01 X23.0574 Y1.1943  
G01 X23.0249 Y1.1857  
G01 X23.0026 Y1.1857  
G01 X22.9806 Y1.1822  
G01 X22.9472 Y1.1857  
G01 X22.9136 Y1.1857  
G01 X22.8920 Y1.1914  
G01 X22.8698 Y1.1938  
G01 X22.8385 Y1.2058  
G01 X22.8060 Y1.2145  
G01 X22.7867 Y1.2257  
G01 X22.7658 Y1.2336  
G01 X22.7387 Y1.2534  
G01 X22.7096 Y1.2702  
G01 X22.6938 Y1.2859  
G01 X22.6757 Y1.2991  
G01 X22.6546 Y1.3252  
G01 X22.2929 Y1.6869  
G01 X21.8368 Y1.8758  
G01 X21.3432 Y1.8758  
G01 X20.8871 Y1.6869  
G01 X20.5797 Y1.3794  
G01 X20.4832 Y1.3237  
G01 X20.3757 Y1.2949  
G01 X20.2643 Y1.2949  
G01 X20.2367 Y1.3023  
G01 X20.1568 Y1.3237  
G01 X20.0603 Y1.3794  
G01 X19.9816 Y1.4582  
G01 X19.7529 Y1.6869  
G01 X19.2968 Y1.8758  
G01 X18.8032 Y1.8758  
G01 X18.3471 Y1.6869  
G01 X18.0397 Y1.3794  
G01 X17.9432 Y1.3237  
G01 X17.8357 Y1.2949  
G01 X17.7243 Y1.2949  
G01 X17.6967 Y1.3023  
G01 X17.6168 Y1.3237  
G01 X17.5203 Y1.3794  
G01 X17.4416 Y1.4582  
G01 X17.2129 Y1.6869  
G01 X16.7568 Y1.8758  
G01 X16.2632 Y1.8758  
G01 X15.8071 Y1.6869  
G01 X15.4997 Y1.3794  
G01 X15.4032 Y1.3237  
G01 X15.2957 Y1.2949  
G01 X15.1843 Y1.2949  
G01 X15.1567 Y1.3023  
G01 X15.0768 Y1.3237  
G01 X14.9803 Y1.3794  
G01 X14.9016 Y1.4582  
G01 X14.6729 Y1.6869  
G01 X14.2168 Y1.8758  
G01 X13.7232 Y1.8758  
G01 X13.2671 Y1.6869  
G01 X13.0384 Y1.4582  
G01 X12.9597 Y1.3794  
G01 X12.8632 Y1.3237  
G01 X12.7857 Y1.3030  
G01 X12.7557 Y1.2949  
G01 X12.6443 Y1.2949  
G01 X12.5413 Y1.3225  
G01 X12.5368 Y1.3237  
G01 X12.4403 Y1.3794  
G01 X12.1329 Y1.6869  
G01 X11.6768 Y1.8758  
G01 X11.1832 Y1.8758  
G01 X10.7271 Y1.6869  
G01 X10.4197 Y1.3794  
G01 X10.3232 Y1.3237  
G01 X10.2157 Y1.2949  
G01 X10.1043 Y1.2949  
G01 X10.0767 Y1.3023  
G01 X9.9968  Y1.3237  
G01 X9.9003  Y1.3794  
G01 X9.8216  Y1.4582  
G01 X9.5929  Y1.6869  
G01 X9.1368  Y1.8758  
G01 X8.6432  Y1.8758  
G01 X8.1871  Y1.6869  
G01 X7.8797  Y1.3794  
G01 X7.7832  Y1.3237  
G01 X7.6757  Y1.2949  
G01 X7.5643  Y1.2949  
G01 X7.5367  Y1.3023  
G01 X7.4568  Y1.3237  
G01 X7.3603  Y1.3794  
G01 X7.2816  Y1.4582  
G01 X7.0529  Y1.6869  
G01 X6.5968  Y1.8758  
G01 X6.1032  Y1.8758  
G01 X5.6471  Y1.6869  
G01 X5.3397  Y1.3794  
G01 X5.2432  Y1.3237  
G01 X5.1357  Y1.2949  
G01 X5.0243  Y1.2949  
G01 X4.9967  Y1.3023  
G01 X4.9168  Y1.3237  
G01 X4.8203  Y1.3794  
G01 X4.7416  Y1.4582  
G01 X4.5129  Y1.6869  
G01 X4.0568  Y1.8758  
G01 X3.5632  Y1.8758  
G01 X3.5244  Y1.8597  
G01 X3.5005  Y1.8459  
G01 X3.4732  Y1.8385  
G01 X3.4471  Y1.8277  
G01 X3.4197  Y1.8241  
G01 X3.3930  Y1.8169  
G01 X3.3647  Y1.8169  
G01 X3.3367  Y1.8132  
G01 X3.3093  Y1.8168  
G01 X3.2816  Y1.8167  
G01 X3.2543  Y1.8240  
G01 X3.2263  Y1.8277  
G01 X3.2007  Y1.8383  
G01 X3.1741  Y1.8454  
G01 X3.1495  Y1.8595  
G01 X3.1234  Y1.8703  
G01 X3.1015  Y1.8871  
G01 X3.0775  Y1.9009  
G01 X3.0575  Y1.9209  
G01 X3.0351  Y1.9381  
G01 X3.0182  Y1.9600  
G01 X2.9987  Y1.9795  
G01 X2.9845  Y2.0040  
G01 X2.9673  Y2.0264  
G01 X2.9567  Y2.0520  
G01 X2.9428  Y2.0759  
G01 X2.9355  Y2.1032  
G01 X2.9247  Y2.1293  
G01 X2.9211  Y2.1567  
G01 X2.9139  Y2.1834  
G01 X2.9138  Y2.2117  
G01 X2.9101  Y2.2397  
G01 X2.9137  Y2.2671  
G01 X2.9136  Y2.3820  
G01 X2.8904  Y2.4221  
G01 X2.8696  Y2.4998  
G01 X2.8696  Y8.9302  
G01 X2.8904  Y9.0079  
G01 X2.9033  Y9.0302  
G01 X2.8999  Y11.1915 
G01 X2.8999  Y11.2479 
G01 X2.8998  Y11.3025 
G01 X2.9144  Y11.3575 
G01 X2.9284  Y11.4101 
G01 X2.9569  Y11.4596 
G01 X2.9839  Y11.5067 
G01 X3.0242  Y11.5471 
G01 X3.0626  Y11.5855 
G01 X3.1115  Y11.6139 
G01 X3.1589  Y11.6413 
G01 X3.2134  Y11.6560 
G01 X3.2664  Y11.6703 
G01 X3.3231  Y11.6704 
G01 X3.3778  Y11.6705 
G01 X3.4327  Y11.6559 
G01 X3.4854  Y11.6418 
G01 X3.5348  Y11.6134 
G01 X3.5819  Y11.5863 
G01 X3.6223  Y11.5460 
G01 X3.6608  Y11.5077 
G01 X4.0221  Y11.1463 
G01 X4.0221  Y11.2073 
G01 X3.5395  Y11.6899 
G00 Z2.5400  
G00 X30.7901 Y3.4212  
G01 Z-0.1500 F50    
G01 X31.3006 Y3.9317  F250   
G01 X31.3006 Y4.6535  
G01 X30.7901 Y5.1640  
G01 X30.0683 Y5.1640  
G01 X29.5578 Y4.6535  
G01 X29.5578 Y3.9317  
G01 X30.0683 Y3.4212  
G01 X30.7901 Y3.4212  
G00 Z2.5400  
G00 X29.5734 Y3.9381  
G01 Z-0.1500 F50    
G01 X29.5734 Y4.6471  F250   
G01 X30.0747 Y5.1484  
G01 X30.7837 Y5.1484  
G01 X31.2850 Y4.6471  
G01 X31.2850 Y3.9381  
G01 X30.7837 Y3.4368  
G01 X30.0747 Y3.4368  
G01 X29.5734 Y3.9381  
G00 Z2.5400  
G00 X29.3622 Y10.4373 
G01 Z-0.1500 F50    
G01 X29.6825 Y10.3046 F250   
G01 X30.0291 Y10.3046 
G01 X30.3494 Y10.4373 
G01 X30.5945 Y10.6824 
G01 X30.7272 Y11.0027 
G01 X30.7272 Y12.6701 
G01 X30.5945 Y12.9904 
G01 X30.3494 Y13.2355 
G01 X30.0291 Y13.3682 
G01 X29.6825 Y13.3682 
G01 X29.3622 Y13.2355 
G01 X29.1171 Y12.9904 
G01 X29.0139 Y12.7413 
G01 X29.0097 Y12.7214 
G01 X28.9881 Y12.6792 
G01 X28.9700 Y12.6354 
G01 X28.9576 Y12.6192 
G01 X28.9483 Y12.6011 
G01 X28.9166 Y12.5658 
G01 X28.8878 Y12.5283 
G01 X28.8716 Y12.5159 
G01 X28.8580 Y12.5007 
G01 X28.8182 Y12.4749 
G01 X28.7807 Y12.4461 
G01 X28.7618 Y12.4383 
G01 X28.7447 Y12.4271 
G01 X28.6996 Y12.4125 
G01 X28.6559 Y12.3944 
G01 X28.6357 Y12.3917 
G01 X28.6163 Y12.3854 
G01 X28.5690 Y12.3829 
G01 X28.5220 Y12.3768 
G01 X28.5018 Y12.3794 
G01 X28.4814 Y12.3784 
G01 X28.4351 Y12.3882 
G01 X28.3881 Y12.3944 
G01 X28.3693 Y12.4022 
G01 X28.3493 Y12.4064 
G01 X28.3071 Y12.4279 
G01 X28.2633 Y12.4461 
G01 X28.2472 Y12.4585 
G01 X28.2290 Y12.4677 
G01 X28.2116 Y12.4834 
G01 X28.2116 Y11.1894 
G01 X28.2290 Y11.2050 
G01 X28.2472 Y11.2143 
G01 X28.2633 Y11.2267 
G01 X28.3071 Y11.2449 
G01 X28.3493 Y11.2664 
G01 X28.3693 Y11.2706 
G01 X28.3881 Y11.2784 
G01 X28.4351 Y11.2846 
G01 X28.4814 Y11.2944 
G01 X28.5018 Y11.2934 
G01 X28.5220 Y11.2960 
G01 X28.5690 Y11.2899 
G01 X28.6163 Y11.2874 
G01 X28.6357 Y11.2811 
G01 X28.6559 Y11.2784 
G01 X28.6996 Y11.2603 
G01 X28.7447 Y11.2457 
G01 X28.7618 Y11.2345 
G01 X28.7807 Y11.2267 
G01 X28.8182 Y11.1979 
G01 X28.8580 Y11.1721 
G01 X28.8716 Y11.1569 
G01 X28.8878 Y11.1445 
G01 X28.9166 Y11.1070 
G01 X28.9483 Y11.0717 
G01 X28.9576 Y11.0536 
G01 X28.9700 Y11.0374 
G01 X28.9881 Y10.9936 
G01 X29.0097 Y10.9514 
G01 X29.0139 Y10.9315 
G01 X29.1171 Y10.6824 
G01 X29.3622 Y10.4373 
G00 Z2.5400  
G00 X29.0000 Y11.0917 
G01 Z-0.1500 F50    
G01 X29.0000 Y12.5811 F250   
G01 X29.0329 Y12.7464 
G01 X29.0974 Y12.9022 
G01 X29.1911 Y13.0423 
G01 X29.3103 Y13.1615 
G01 X29.4504 Y13.2552 
G01 X29.6062 Y13.3197 
G01 X29.7715 Y13.3526 
G01 X29.9401 Y13.3526 
G01 X30.1054 Y13.3197 
G01 X30.2612 Y13.2552 
G01 X30.4013 Y13.1615 
G01 X30.5205 Y13.0423 
G01 X30.6142 Y12.9022 
G01 X30.6787 Y12.7464 
G01 X30.7116 Y12.5811 
G01 X30.7116 Y11.0917 
G01 X30.6787 Y10.9264 
G01 X30.6142 Y10.7706 
G01 X30.5205 Y10.6305 
G01 X30.4013 Y10.5113 
G01 X30.2612 Y10.4176 
G01 X30.1054 Y10.3531 
G01 X29.9401 Y10.3202 
G01 X29.7715 Y10.3202 
G01 X29.6062 Y10.3531 
G01 X29.4504 Y10.4176 
G01 X29.3103 Y10.5113 
G01 X29.1911 Y10.6305 
G01 X29.0974 Y10.7706 
G01 X29.0329 Y10.9264 
G01 X29.0000 Y11.0917 
G00 Z2.5400  
G00 X26.5000 Y12.4834 
G01 Z-0.1500 F50    
G01 X26.4826 Y12.4677 F250   
G01 X26.4644 Y12.4585 
G01 X26.4483 Y12.4461 
G01 X26.4045 Y12.4279 
G01 X26.3623 Y12.4064 
G01 X26.3423 Y12.4022 
G01 X26.3235 Y12.3944 
G01 X26.2765 Y12.3882 
G01 X26.2302 Y12.3784 
G01 X26.2098 Y12.3794 
G01 X26.1896 Y12.3768 
G01 X26.1426 Y12.3829 
G01 X26.0953 Y12.3854 
G01 X26.0759 Y12.3917 
G01 X26.0557 Y12.3944 
G01 X26.0120 Y12.4125 
G01 X25.9669 Y12.4271 
G01 X25.9498 Y12.4383 
G01 X25.9309 Y12.4461 
G01 X25.8934 Y12.4749 
G01 X25.8536 Y12.5007 
G01 X25.8400 Y12.5159 
G01 X25.8238 Y12.5283 
G01 X25.7950 Y12.5658 
G01 X25.7633 Y12.6011 
G01 X25.7540 Y12.6192 
G01 X25.7416 Y12.6354 
G01 X25.7234 Y12.6792 
G01 X25.7019 Y12.7214 
G01 X25.6977 Y12.7413 
G01 X25.5945 Y12.9904 
G01 X25.3494 Y13.2355 
G01 X25.0291 Y13.3682 
G01 X24.6825 Y13.3682 
G01 X24.3622 Y13.2355 
G01 X24.1171 Y12.9904 
G01 X24.0173 Y12.7495 
G01 X24.0085 Y12.7167 
G01 X23.9915 Y12.6874 
G01 X23.9786 Y12.6560 
G01 X23.9579 Y12.6291 
G01 X23.9410 Y12.5998 
G01 X23.9170 Y12.5758 
G01 X23.8964 Y12.5489 
G01 X23.8695 Y12.5283 
G01 X23.8455 Y12.5043 
G01 X23.8161 Y12.4873 
G01 X23.7892 Y12.4667 
G01 X23.7579 Y12.4537 
G01 X23.7285 Y12.4368 
G01 X23.6958 Y12.4280 
G01 X23.6644 Y12.4150 
G01 X23.6308 Y12.4106 
G01 X23.5981 Y12.4018 
G01 X23.5642 Y12.4018 
G01 X23.5306 Y12.3974 
G01 X23.4969 Y12.4018 
G01 X23.4630 Y12.4018 
G01 X23.4303 Y12.4106 
G01 X23.3967 Y12.4150 
G01 X23.3653 Y12.4280 
G01 X23.3326 Y12.4368 
G01 X23.3032 Y12.4537 
G01 X23.2719 Y12.4667 
G01 X23.2450 Y12.4873 
G01 X23.2156 Y12.5043 
G01 X23.1917 Y12.5283 
G01 X23.1647 Y12.5489 
G01 X23.1441 Y12.5758 
G01 X22.6438 Y13.0761 
G01 X21.8062 Y13.0761 
G01 X21.3654 Y12.6353 
G01 X21.2699 Y12.5398 
G01 X21.1967 Y12.4976 
G01 X21.1530 Y12.4723 
G01 X21.0225 Y12.4374 
G01 X20.8875 Y12.4374 
G01 X20.7570 Y12.4723 
G01 X20.7544 Y12.4738 
G01 X20.6401 Y12.5398 
G01 X20.1038 Y13.0761 
G01 X19.2662 Y13.0761 
G01 X18.8254 Y12.6353 
G01 X18.7299 Y12.5398 
G01 X18.6567 Y12.4976 
G01 X18.6130 Y12.4723 
G01 X18.4825 Y12.4374 
G01 X18.3475 Y12.4374 
G01 X18.2170 Y12.4723 
G01 X18.2144 Y12.4738 
G01 X18.1001 Y12.5398 
G01 X17.5638 Y13.0761 
G01 X16.7262 Y13.0761 
G01 X16.1777 Y12.5276 
G01 X16.0887 Y12.4386 
G01 X16.0822 Y12.4321 
G01 X16.0342 Y12.4044 
G01 X15.9652 Y12.3645 
G01 X15.8348 Y12.3296 
G01 X15.6997 Y12.3296 
G01 X15.6005 Y12.3562 
G01 X15.6005 Y11.6527 
G01 X15.0173 Y11.0695 
G01 X14.1927 Y11.0695 
G01 X13.7101 Y11.5521 
G01 X12.9599 Y11.5521 
G01 X12.4773 Y11.0695 
G01 X11.6527 Y11.0695 
G01 X11.0695 Y11.6527 
G01 X11.0695 Y12.3562 
G01 X10.9703 Y12.3296 
G01 X10.8352 Y12.3296 
G01 X10.7048 Y12.3645 
G01 X10.6388 Y12.4027 
G01 X10.5878 Y12.4321 
G01 X10.4923 Y12.5276 
G01 X9.9438  Y13.0761 
G01 X9.1062  Y13.0761 
G01 X8.6654  Y12.6353 
G01 X8.5699  Y12.5398 
G01 X8.4967  Y12.4976 
G01 X8.4530  Y12.4723 
G01 X8.3225  Y12.4374 
G01 X8.1875  Y12.4374 
G01 X8.0570  Y12.4723 
G01 X8.0544  Y12.4738 
G01 X7.9401  Y12.5398 
G01 X7.4038  Y13.0761 
G01 X6.5662  Y13.0761 
G01 X6.0177  Y12.5276 
G01 X5.9287  Y12.4386 
G01 X5.9222  Y12.4321 
G01 X5.8742  Y12.4044 
G01 X5.8052  Y12.3645 
G01 X5.6748  Y12.3296 
G01 X5.5397  Y12.3296 
G01 X5.4405  Y12.3562 
G01 X5.4405  Y11.7738 
G01 X5.5397  Y11.8004 
G01 X5.6748  Y11.8004 
G01 X5.8052  Y11.7655 
G01 X5.8712  Y11.7273 
G01 X5.9222  Y11.6979 
G01 X6.0177  Y11.6024 
G01 X6.5662  Y11.0539 
G01 X7.4038  Y11.0539 
G01 X7.9401  Y11.5902 
G01 X8.0570  Y11.6577 
G01 X8.1875  Y11.6926 
G01 X8.3225  Y11.6926 
G01 X8.4530  Y11.6577 
G01 X8.4948  Y11.6335 
G01 X8.5699  Y11.5902 
G01 X8.6654  Y11.4947 
G01 X9.0115  Y11.1486 
G01 X9.0790  Y11.0316 
G01 X9.1140  Y10.9012 
G01 X9.1140  Y9.9766  
G01 X9.1766  Y9.8256  
G01 X9.1907  Y9.8115  
G01 X9.2246  Y9.7775  
G01 X9.2718  Y9.7303  
G01 X9.3200  Y9.6823  
G01 X9.3305  Y9.6717  
G01 X9.3438  Y9.6662  
G01 X9.4064  Y9.6404  
G01 X9.4683  Y9.6148  
G01 X9.4816  Y9.6092  
G01 X9.4967  Y9.6092  
G01 X9.5639  Y9.6093  
G01 X9.6314  Y9.6094  
G01 X9.6787  Y9.6093  
G01 X9.7127  Y9.6095  
G01 X9.7459  Y9.6139  
G01 X9.7800  Y9.6096  
G01 X21.2972 Y9.6234  
G01 X21.3001 Y9.6242  
G01 X21.3647 Y9.6235  
G01 X21.4293 Y9.6236  
G01 X21.4322 Y9.6228  
G01 X21.4351 Y9.6228  
G01 X21.4975 Y9.6054  
G01 X21.5598 Y9.5888  
G01 X21.5623 Y9.5873  
G01 X21.5652 Y9.5865  
G01 X21.6208 Y9.5536  
G01 X21.6768 Y9.5214  
G01 X21.6815 Y9.5178  
G01 X21.7266 Y9.4718  
G01 X21.7724 Y9.4260  
G01 X21.7739 Y9.4235  
G01 X21.9426 Y9.2513  
G01 X21.9530 Y9.2444  
G01 X21.9897 Y9.2032  
G01 X22.0284 Y9.1637  
G01 X22.0345 Y9.1529  
G01 X24.7985 Y6.0483  
G01 X24.8357 Y6.0111  
G01 X24.8433 Y5.9980  
G01 X24.8533 Y5.9868  
G01 X24.8769 Y5.9397  
G01 X24.9032 Y5.8941  
G01 X24.9071 Y5.8795  
G01 X24.9139 Y5.8661  
G01 X24.9246 Y5.8145  
G01 X24.9382 Y5.7637  
G01 X24.9382 Y5.7486  
G01 X24.9412 Y5.7338  
G01 X24.9382 Y5.6813  
G01 X24.9382 Y5.2589  
G01 X24.9032 Y5.1284  
G01 X24.9018 Y5.1258  
G01 X24.8357 Y5.0115  
G01 X24.4778 Y4.6535  
G01 X24.4778 Y3.9317  
G01 X24.9883 Y3.4212  
G01 X25.7101 Y3.4212  
G01 X26.2206 Y3.9317  
G01 X26.2206 Y4.6535  
G01 X25.8627 Y5.0115  
G01 X25.7951 Y5.1284  
G01 X25.7602 Y5.2589  
G01 X25.7602 Y5.9686  
G01 X25.7571 Y5.9833  
G01 X25.7602 Y6.0359  
G01 X25.7602 Y6.0885  
G01 X25.7641 Y6.1031  
G01 X25.7650 Y6.1181  
G01 X25.7592 Y6.1319  
G01 X25.7508 Y6.1444  
G01 X25.7335 Y6.1941  
G01 X25.7133 Y6.2427  
G01 X25.7114 Y6.2577  
G01 X25.7064 Y6.2718  
G01 X25.6958 Y6.2824  
G01 X25.6832 Y6.2907  
G01 X25.6482 Y6.3300  
G01 X25.6110 Y6.3672  
G01 X25.6035 Y6.3803  
G01 X22.7347 Y9.6026  
G01 X22.7177 Y9.6159  
G01 X22.6900 Y9.6529  
G01 X22.6593 Y9.6873  
G01 X22.6520 Y9.7018  
G01 X22.6377 Y9.7164  
G01 X22.6273 Y9.7232  
G01 X22.5906 Y9.7645  
G01 X22.5519 Y9.8039  
G01 X22.5458 Y9.8148  
G01 X22.5323 Y9.8300  
G01 X22.5184 Y9.8382  
G01 X22.4861 Y9.8712  
G01 X22.4511 Y9.9014  
G01 X22.4390 Y9.9192  
G01 X22.1833 Y10.1802 
G01 X22.1374 Y10.2261 
G01 X22.1342 Y10.2303 
G01 X22.1023 Y10.2868 
G01 X22.0699 Y10.3430 
G01 X22.0692 Y10.3456 
G01 X22.0517 Y10.4108 
G01 X22.0349 Y10.4735 
G01 X22.0349 Y10.4761 
G01 X22.0343 Y10.4787 
G01 X22.0349 Y10.5436 
G01 X22.0349 Y10.6085 
G01 X22.0356 Y10.6111 
G01 X22.0356 Y10.6138 
G01 X22.0531 Y10.6762 
G01 X22.0699 Y10.7390 
G01 X22.0719 Y10.7438 
G01 X22.1050 Y10.7998 
G01 X22.1374 Y10.8559 
G01 X22.1406 Y10.8601 
G01 X22.1871 Y10.9056 
G01 X22.2329 Y10.9514 
G01 X22.2371 Y10.9546 
G01 X22.2936 Y10.9865 
G01 X22.3498 Y11.0189 
G01 X22.3524 Y11.0196 
G01 X22.4176 Y11.0371 
G01 X22.4803 Y11.0539 
G01 X22.4830 Y11.0539 
G01 X22.4855 Y11.0546 
G01 X22.5505 Y11.0539 
G01 X22.6438 Y11.0539 
G01 X23.1566 Y11.5667 
G01 X23.2735 Y11.6342 
G01 X23.4040 Y11.6691 
G01 X23.5390 Y11.6691 
G01 X23.6695 Y11.6342 
G01 X23.7113 Y11.6100 
G01 X23.7864 Y11.5667 
G01 X23.8819 Y11.4712 
G01 X23.9494 Y11.3542 
G01 X23.9844 Y11.2238 
G01 X23.9844 Y11.0027 
G01 X24.1171 Y10.6824 
G01 X24.3622 Y10.4373 
G01 X24.6825 Y10.3046 
G01 X25.0291 Y10.3046 
G01 X25.3494 Y10.4373 
G01 X25.5945 Y10.6824 
G01 X25.6977 Y10.9315 
G01 X25.7019 Y10.9514 
G01 X25.7234 Y10.9936 
G01 X25.7416 Y11.0374 
G01 X25.7540 Y11.0536 
G01 X25.7633 Y11.0717 
G01 X25.7950 Y11.1070 
G01 X25.8238 Y11.1445 
G01 X25.8400 Y11.1569 
G01 X25.8536 Y11.1721 
G01 X25.8934 Y11.1979 
G01 X25.9309 Y11.2267 
G01 X25.9498 Y11.2345 
G01 X25.9669 Y11.2457 
G01 X26.0120 Y11.2603 
G01 X26.0557 Y11.2784 
G01 X26.0759 Y11.2811 
G01 X26.0953 Y11.2874 
G01 X26.1426 Y11.2899 
G01 X26.1896 Y11.2960 
G01 X26.2098 Y11.2934 
G01 X26.2302 Y11.2944 
G01 X26.2765 Y11.2846 
G01 X26.3235 Y11.2784 
G01 X26.3423 Y11.2706 
G01 X26.3623 Y11.2664 
G01 X26.4045 Y11.2449 
G01 X26.4483 Y11.2267 
G01 X26.4644 Y11.2143 
G01 X26.4826 Y11.2050 
G01 X26.5000 Y11.1894 
G01 X26.5000 Y12.4834 
G00 Z2.5400  
G00 X5.9895  Y11.6527 
G01 Z-0.1500 F50    
G01 X5.9895  Y12.4773 F250   
G01 X6.5727  Y13.0605 
G01 X7.3973  Y13.0605 
G01 X7.9805  Y12.4773 
G01 X7.9805  Y11.6527 
G01 X7.3973  Y11.0695 
G01 X6.5727  Y11.0695 
G01 X5.9895  Y11.6527 
G00 Z2.5400  
G00 X16.1495 Y11.6527 
G01 Z-0.1500 F50    
G01 X16.1495 Y12.4773 F250   
G01 X16.7326 Y13.0605 
G01 X17.5573 Y13.0605 
G01 X18.1405 Y12.4773 
G01 X18.1405 Y11.6527 
G01 X17.5573 Y11.0695 
G01 X16.7326 Y11.0695 
G01 X16.1495 Y11.6527 
G00 Z2.5400  
G00 X18.6895 Y11.6527 
G01 Z-0.1500 F50    
G01 X18.6895 Y12.4773 F250   
G01 X19.2727 Y13.0605 
G01 X20.0973 Y13.0605 
G01 X20.6805 Y12.4773 
G01 X20.6805 Y11.6527 
G01 X20.0973 Y11.0695 
G01 X19.2727 Y11.0695 
G01 X18.6895 Y11.6527 
G00 Z2.5400  
G00 X21.2295 Y11.6527 
G01 Z-0.1500 F50    
G01 X21.2295 Y12.4773 F250   
G01 X21.8127 Y13.0605 
G01 X22.6373 Y13.0605 
G01 X23.2205 Y12.4773 
G01 X23.2205 Y11.6527 
G01 X22.6373 Y11.0695 
G01 X21.8127 Y11.0695 
G01 X21.2295 Y11.6527 
G00 Z2.5400  
G00 X24.0000 Y11.0917 
G01 Z-0.1500 F50    
G01 X24.0000 Y12.5811 F250   
G01 X24.0329 Y12.7464 
G01 X24.0974 Y12.9022 
G01 X24.1911 Y13.0423 
G01 X24.3103 Y13.1615 
G01 X24.4504 Y13.2552 
G01 X24.6062 Y13.3197 
G01 X24.7715 Y13.3526 
G01 X24.9401 Y13.3526 
G01 X25.1054 Y13.3197 
G01 X25.2612 Y13.2552 
G01 X25.4013 Y13.1615 
G01 X25.5205 Y13.0423 
G01 X25.6142 Y12.9022 
G01 X25.6787 Y12.7464 
G01 X25.7116 Y12.5811 
G01 X25.7116 Y11.0917 
G01 X25.6787 Y10.9264 
G01 X25.6142 Y10.7706 
G01 X25.5205 Y10.6305 
G01 X25.4013 Y10.5113 
G01 X25.2612 Y10.4176 
G01 X25.1054 Y10.3531 
G01 X24.9401 Y10.3202 
G01 X24.7715 Y10.3202 
G01 X24.6062 Y10.3531 
G01 X24.4504 Y10.4176 
G01 X24.3103 Y10.5113 
G01 X24.1911 Y10.6305 
G01 X24.0974 Y10.7706 
G01 X24.0329 Y10.9264 
G01 X24.0000 Y11.0917 
G00 Z2.5400  
G00 X24.4934 Y3.9381  
G01 Z-0.1500 F50    
G01 X24.4934 Y4.6471  F250   
G01 X24.9538 Y5.1075  
G01 X24.9538 Y5.8973  
G01 X22.0011 Y9.2138  
G01 X21.5842 Y9.6394  
G01 X9.6154  Y9.6250  
G01 X9.5634  Y9.6249  
G01 X9.5115  Y9.6248  
G01 X9.4609  Y9.6383  
G01 X9.4109  Y9.6517  
G01 X9.3649  Y9.6782  
G01 X9.3207  Y9.7036  
G01 X9.2832  Y9.7410  
G01 X9.2470  Y9.7771  
G01 X9.2086  Y9.8156  
G01 X9.1565  Y9.9058  
G01 X9.1296  Y10.0063 
G01 X9.1296  Y11.0695 
G01 X9.1127  Y11.0695 
G01 X8.5295  Y11.6527 
G01 X8.5295  Y12.4773 
G01 X9.1127  Y13.0605 
G01 X9.9373  Y13.0605 
G01 X10.5205 Y12.4773 
G01 X10.5205 Y11.6527 
G01 X9.9373  Y11.0695 
G01 X9.9204  Y11.0695 
G01 X9.9204  Y10.4161 
G01 X21.6999 Y10.4303 
G01 X21.7518 Y10.4304 
G01 X21.8017 Y10.4305 
G01 X21.8062 Y10.4298 
G01 X21.8542 Y10.4164 
G01 X21.9023 Y10.4036 
G01 X21.9065 Y10.4019 
G01 X21.9495 Y10.3765 
G01 X21.9925 Y10.3517 
G01 X21.9961 Y10.3489 
G01 X22.0310 Y10.3133 
G01 X22.0663 Y10.2782 
G01 X22.5429 Y9.7909  
G01 X22.5509 Y9.7856  
G01 X22.5792 Y9.7538  
G01 X22.6090 Y9.7234  
G01 X22.6137 Y9.7150  
G01 X25.6369 Y6.3193  
G01 X25.6656 Y6.2906  
G01 X25.6714 Y6.2805  
G01 X25.6791 Y6.2719  
G01 X25.6974 Y6.2356  
G01 X25.7177 Y6.2004  
G01 X25.7207 Y6.1892  
G01 X25.7259 Y6.1788  
G01 X25.7341 Y6.1391  
G01 X25.7446 Y6.0999  
G01 X25.7446 Y6.0883  
G01 X25.7470 Y6.0769  
G01 X25.7446 Y6.0363  
G01 X25.7446 Y5.1075  
G01 X26.2050 Y4.6471  
G01 X26.2050 Y3.9381  
G01 X25.7037 Y3.4368  
G01 X24.9947 Y3.4368  
G01 X24.4934 Y3.9381  
G00 Z2.5400  
G00 X15.0238 Y3.4339  
G01 Z-0.1500 F50    
G01 X15.4646 Y3.8747  F250   
G01 X15.4646 Y3.8747  
G01 X15.5601 Y3.9702  
G01 X15.6333 Y4.0124  
G01 X15.6770 Y4.0377  
G01 X15.8075 Y4.0726  
G01 X15.9425 Y4.0726  
G01 X16.0730 Y4.0377  
G01 X16.0755 Y4.0362  
G01 X16.1899 Y3.9702  
G01 X16.7262 Y3.4339  
G01 X17.5638 Y3.4339  
G01 X18.0046 Y3.8747  
G01 X18.1001 Y3.9702  
G01 X18.1733 Y4.0124  
G01 X18.2170 Y4.0377  
G01 X18.3475 Y4.0726  
G01 X18.4825 Y4.0726  
G01 X18.6130 Y4.0377  
G01 X18.6155 Y4.0362  
G01 X18.7299 Y3.9702  
G01 X19.2662 Y3.4339  
G01 X20.1038 Y3.4339  
G01 X20.5446 Y3.8747  
G01 X20.6401 Y3.9702  
G01 X20.7133 Y4.0124  
G01 X20.7570 Y4.0377  
G01 X20.8875 Y4.0726  
G01 X21.0225 Y4.0726  
G01 X21.1530 Y4.0377  
G01 X21.1555 Y4.0362  
G01 X21.2699 Y3.9702  
G01 X21.6523 Y3.5878  
G01 X22.0239 Y3.4339  
G01 X22.4261 Y3.4339  
G01 X22.7977 Y3.5878  
G01 X23.0822 Y3.8723  
G01 X23.2361 Y4.2439  
G01 X23.2361 Y4.6461  
G01 X23.0822 Y5.0177  
G01 X22.7977 Y5.3022  
G01 X22.4261 Y5.4561  
G01 X22.0239 Y5.4561  
G01 X21.6523 Y5.3022  
G01 X21.2699 Y4.9198  
G01 X21.1530 Y4.8523  
G01 X21.0225 Y4.8174  
G01 X20.8875 Y4.8174  
G01 X20.7570 Y4.8523  
G01 X20.7152 Y4.8765  
G01 X20.6401 Y4.9198  
G01 X20.5446 Y5.0153  
G01 X20.1038 Y5.4561  
G01 X19.2662 Y5.4561  
G01 X18.7299 Y4.9198  
G01 X18.6130 Y4.8523  
G01 X18.4825 Y4.8174  
G01 X18.3475 Y4.8174  
G01 X18.2170 Y4.8523  
G01 X18.1752 Y4.8765  
G01 X18.1001 Y4.9198  
G01 X18.0046 Y5.0153  
G01 X17.5638 Y5.4561  
G01 X16.7262 Y5.4561  
G01 X16.1899 Y4.9198  
G01 X16.0730 Y4.8523  
G01 X15.9425 Y4.8174  
G01 X15.8075 Y4.8174  
G01 X15.6770 Y4.8523  
G01 X15.6352 Y4.8765  
G01 X15.5601 Y4.9198  
G01 X15.4646 Y5.0153  
G01 X15.0238 Y5.4561  
G01 X14.1862 Y5.4561  
G01 X13.6377 Y4.9076  
G01 X13.5487 Y4.8186  
G01 X13.5422 Y4.8121  
G01 X13.4942 Y4.7844  
G01 X13.4252 Y4.7445  
G01 X13.2948 Y4.7096  
G01 X13.1597 Y4.7096  
G01 X13.0605 Y4.7362  
G01 X13.0605 Y4.1538  
G01 X13.1597 Y4.1804  
G01 X13.2948 Y4.1804  
G01 X13.4252 Y4.1455  
G01 X13.4912 Y4.1073  
G01 X13.5422 Y4.0779  
G01 X13.6377 Y3.9824  
G01 X14.1862 Y3.4339  
G01 X15.0238 Y3.4339  
G00 Z2.5400  
G00 X21.2295 Y4.3470  
G01 Z-0.1500 F50    
G01 X21.2295 Y4.5430  F250   
G01 X21.2678 Y4.7354  
G01 X21.3428 Y4.9165  
G01 X21.4517 Y5.0796  
G01 X21.5904 Y5.2183  
G01 X21.7535 Y5.3272  
G01 X21.9346 Y5.4022  
G01 X22.1270 Y5.4405  
G01 X22.3230 Y5.4405  
G01 X22.5154 Y5.4022  
G01 X22.6965 Y5.3272  
G01 X22.8596 Y5.2183  
G01 X22.9983 Y5.0796  
G01 X23.1072 Y4.9165  
G01 X23.1822 Y4.7354  
G01 X23.2205 Y4.5430  
G01 X23.2205 Y4.3470  
G01 X23.1822 Y4.1546  
G01 X23.1072 Y3.9735  
G01 X22.9983 Y3.8104  
G01 X22.8596 Y3.6717  
G01 X22.6965 Y3.5628  
G01 X22.5154 Y3.4878  
G01 X22.3230 Y3.4495  
G01 X22.1270 Y3.4495  
G01 X21.9346 Y3.4878  
G01 X21.7535 Y3.5628  
G01 X21.5904 Y3.6717  
G01 X21.4517 Y3.8104  
G01 X21.3428 Y3.9735  
G01 X21.2678 Y4.1546  
G01 X21.2295 Y4.3470  
G00 Z2.5400  
G00 X18.6895 Y4.0327  
G01 Z-0.1500 F50    
G01 X18.6895 Y4.8573  F250   
G01 X19.2727 Y5.4405  
G01 X20.0973 Y5.4405  
G01 X20.6805 Y4.8573  
G01 X20.6805 Y4.0327  
G01 X20.0973 Y3.4495  
G01 X19.2727 Y3.4495  
G01 X18.6895 Y4.0327  
G00 Z2.5400  
G00 X16.1495 Y4.0327  
G01 Z-0.1500 F50    
G01 X16.1495 Y4.8573  F250   
G01 X16.7326 Y5.4405  
G01 X17.5573 Y5.4405  
G01 X18.1405 Y4.8573  
G01 X18.1405 Y4.0327  
G01 X17.5573 Y3.4495  
G01 X16.7326 Y3.4495  
G01 X16.1495 Y4.0327  
G00 Z2.5400  
G00 X13.6095 Y4.0327  
G01 Z-0.1500 F50    
G01 X13.6095 Y4.8573  F250   
G01 X14.1927 Y5.4405  
G01 X15.0173 Y5.4405  
G01 X15.6005 Y4.8573  
G01 X15.6005 Y4.0327  
G01 X15.0173 Y3.4495  
G01 X14.1927 Y3.4495  
G01 X13.6095 Y4.0327  
G00 Z2.5400  
G00 X11.0695 Y4.7362  
G01 Z-0.1500 F50    
G01 X10.9703 Y4.7096  F250   
G01 X10.8352 Y4.7096  
G01 X10.7048 Y4.7445  
G01 X10.6388 Y4.7827  
G01 X10.5878 Y4.8121  
G01 X10.4923 Y4.9076  
G01 X9.9438  Y5.4561  
G01 X9.1062  Y5.4561  
G01 X8.5699  Y4.9198  
G01 X8.4530  Y4.8523  
G01 X8.3225  Y4.8174  
G01 X8.1875  Y4.8174  
G01 X8.0570  Y4.8523  
G01 X8.0152  Y4.8765  
G01 X7.9401  Y4.9198  
G01 X7.8446  Y5.0153  
G01 X7.4038  Y5.4561  
G01 X6.5662  Y5.4561  
G01 X6.0299  Y4.9198  
G01 X5.9130  Y4.8523  
G01 X5.7825  Y4.8174  
G01 X5.6475  Y4.8174  
G01 X5.5170  Y4.8523  
G01 X5.4752  Y4.8765  
G01 X5.4001  Y4.9198  
G01 X5.3046  Y5.0153  
G01 X4.8638  Y5.4561  
G01 X4.0262  Y5.4561  
G01 X3.6939  Y5.1239  
G01 X3.6472  Y5.0770  
G01 X3.5879  Y5.0426  
G01 X3.5704  Y5.0325  
G01 X3.5704  Y4.9782  
G01 X4.0327  Y5.4405  
G01 X4.8573  Y5.4405  
G01 X5.4405  Y4.8573  
G01 X5.4405  Y4.0327  
G01 X4.8573  Y3.4495  
G01 X4.0327  Y3.4495  
G01 X3.5704  Y3.9118  
G01 X3.5704  Y3.8561  
G01 X3.5911  Y3.8442  
G01 X3.6492  Y3.8108  
G01 X3.6979  Y3.7622  
G01 X3.7448  Y3.7154  
G01 X4.0262  Y3.4339  
G01 X4.8638  Y3.4339  
G01 X5.3046  Y3.8747  
G01 X5.4001  Y3.9702  
G01 X5.4733  Y4.0124  
G01 X5.5170  Y4.0377  
G01 X5.6475  Y4.0726  
G01 X5.7825  Y4.0726  
G01 X5.9130  Y4.0377  
G01 X5.9155  Y4.0362  
G01 X6.0299  Y3.9702  
G01 X6.5662  Y3.4339  
G01 X7.4038  Y3.4339  
G01 X7.8446  Y3.8747  
G01 X7.9401  Y3.9702  
G01 X8.0133  Y4.0124  
G01 X8.0570  Y4.0377  
G01 X8.1875  Y4.0726  
G01 X8.3225  Y4.0726  
G01 X8.4530  Y4.0377  
G01 X8.4555  Y4.0362  
G01 X8.5699  Y3.9702  
G01 X9.1062  Y3.4339  
G01 X9.9438  Y3.4339  
G01 X10.4923 Y3.9824  
G01 X10.5813 Y4.0714  
G01 X10.5878 Y4.0779  
G01 X10.6358 Y4.1056  
G01 X10.7048 Y4.1455  
G01 X10.8352 Y4.1804  
G01 X10.9703 Y4.1804  
G01 X11.0695 Y4.1538  
G01 X11.0695 Y4.7362  
G00 Z2.5400  
G00 X8.5295  Y4.0327  
G01 Z-0.1500 F50    
G01 X8.5295  Y4.8573  F250   
G01 X9.1127  Y5.4405  
G01 X9.9373  Y5.4405  
G01 X10.5205 Y4.8573  
G01 X10.5205 Y4.0327  
G01 X9.9373  Y3.4495  
G01 X9.1127  Y3.4495  
G01 X8.5295  Y4.0327  
G00 Z2.5400  
G00 X5.9895  Y4.0327  
G01 Z-0.1500 F50    
G01 X5.9895  Y4.8573  F250   
G01 X6.5727  Y5.4405  
G01 X7.3973  Y5.4405  
G01 X7.9805  Y4.8573  
G01 X7.9805  Y4.0327  
G01 X7.3973  Y3.4495  
G01 X6.5727  Y3.4495  
G01 X5.9895  Y4.0327  
G00 Z2.5400  
G00 X2.8100  Y11.1796 
G01 Z-0.1500 F50    
G01 X2.8098  Y11.1800 F250   
G01 X2.8098  Y11.2475 
G01 X2.8097  Y11.3142 
G01 X2.8273  Y11.3800 
G01 X2.8445  Y11.4447 
G01 X2.8782  Y11.5033 
G01 X2.9118  Y11.5618 
G01 X2.9595  Y11.6096 
G01 X3.0072  Y11.6574 
G01 X3.0660  Y11.6915 
G01 X3.1240  Y11.7252 
G01 X3.1901  Y11.7430 
G01 X3.2544  Y11.7603 
G01 X3.3229  Y11.7604 
G01 X3.3895  Y11.7605 
G01 X3.4495  Y11.7445 
G01 X3.4495  Y12.3836 
G01 X3.3885  Y12.3672 
G01 X3.3200  Y12.3671 
G01 X3.2535  Y12.3670 
G01 X3.1882  Y12.3843 
G01 X3.1230  Y12.4017 
G01 X3.0641  Y12.4356 
G01 X3.0059  Y12.4690 
G01 X2.9571  Y12.5178 
G01 X2.9103  Y12.5644 
G01 X2.8759  Y12.6237 
G01 X2.8426  Y12.6812 
G01 X2.8248  Y12.7471 
G01 X2.8074  Y12.8116 
G01 X2.8073  Y12.8803 
G01 X2.8052  Y14.2440 
G01 X2.8007  Y14.2780 
G01 X2.8051  Y14.3112 
G01 X2.8051  Y14.3447 
G01 X2.8139  Y14.3779 
G01 X2.8184  Y14.4119 
G01 X2.8312  Y14.4428 
G01 X2.8398  Y14.4752 
G01 X2.8569  Y14.5050 
G01 X2.8700  Y14.5366 
G01 X2.8904  Y14.5632 
G01 X2.9072  Y14.5923 
G01 X2.9314  Y14.6166 
G01 X2.9523  Y14.6438 
G01 X2.9788  Y14.6642 
G01 X3.0025  Y14.6879 
G01 X3.0322  Y14.7051 
G01 X3.0594  Y14.7260 
G01 X3.0904  Y14.7388 
G01 X3.1194  Y14.7556 
G01 X3.1525  Y14.7646 
G01 X3.1842  Y14.7777 
G01 X3.2174  Y14.7821 
G01 X3.2497  Y14.7908 
G01 X3.2841  Y14.7908 
G01 X3.3181  Y14.7953 
G01 X3.3513  Y14.7909 
G01 X3.3848  Y14.7910 
G01 X3.4179  Y14.7822 
G01 X3.4520  Y14.7777 
G01 X3.4829  Y14.7649 
G01 X3.5153  Y14.7562 
G01 X3.5450  Y14.7391 
G01 X3.5811  Y14.7242 
G01 X4.0389  Y14.7242 
G01 X4.4619  Y14.8994 
G01 X4.6696  Y15.1071 
G01 X4.7651  Y15.2026 
G01 X4.8383  Y15.2449 
G01 X4.8820  Y15.2701 
G01 X5.0125  Y15.3051 
G01 X5.1475  Y15.3051 
G01 X5.2724  Y15.2716 
G01 X5.2780  Y15.2701 
G01 X5.2805  Y15.2686 
G01 X5.3949  Y15.2026 
G01 X5.6981  Y14.8994 
G01 X6.1211  Y14.7242 
G01 X6.5789  Y14.7242 
G01 X7.0019  Y14.8994 
G01 X7.2096  Y15.1071 
G01 X7.3051  Y15.2026 
G01 X7.3783  Y15.2449 
G01 X7.4220  Y15.2701 
G01 X7.5525  Y15.3051 
G01 X7.6875  Y15.3051 
G01 X7.8124  Y15.2716 
G01 X7.8180  Y15.2701 
G01 X7.8205  Y15.2686 
G01 X7.9349  Y15.2026 
G01 X8.2381  Y14.8994 
G01 X8.6611  Y14.7242 
G01 X9.1189  Y14.7242 
G01 X9.5419  Y14.8994 
G01 X9.7496  Y15.1071 
G01 X9.8451  Y15.2026 
G01 X9.9183  Y15.2449 
G01 X9.9620  Y15.2701 
G01 X10.0925 Y15.3051 
G01 X10.2275 Y15.3051 
G01 X10.3524 Y15.2716 
G01 X10.3580 Y15.2701 
G01 X10.3605 Y15.2686 
G01 X10.4749 Y15.2026 
G01 X10.7781 Y14.8994 
G01 X11.2011 Y14.7242 
G01 X11.6589 Y14.7242 
G01 X12.0819 Y14.8994 
G01 X12.2896 Y15.1071 
G01 X12.3851 Y15.2026 
G01 X12.4583 Y15.2449 
G01 X12.5020 Y15.2701 
G01 X12.6325 Y15.3051 
G01 X12.7675 Y15.3051 
G01 X12.8924 Y15.2716 
G01 X12.8980 Y15.2701 
G01 X12.9005 Y15.2686 
G01 X13.0149 Y15.2026 
G01 X13.3181 Y14.8994 
G01 X13.7411 Y14.7242 
G01 X14.1989 Y14.7242 
G01 X14.6219 Y14.8994 
G01 X14.8296 Y15.1071 
G01 X14.9251 Y15.2026 
G01 X14.9983 Y15.2449 
G01 X15.0420 Y15.2701 
G01 X15.1725 Y15.3051 
G01 X15.3075 Y15.3051 
G01 X15.4324 Y15.2716 
G01 X15.4380 Y15.2701 
G01 X15.4405 Y15.2686 
G01 X15.5549 Y15.2026 
G01 X15.8581 Y14.8994 
G01 X16.2811 Y14.7242 
G01 X16.7389 Y14.7242 
G01 X17.1619 Y14.8994 
G01 X17.3696 Y15.1071 
G01 X17.4651 Y15.2026 
G01 X17.5383 Y15.2449 
G01 X17.5820 Y15.2701 
G01 X17.7125 Y15.3051 
G01 X17.8475 Y15.3051 
G01 X17.9724 Y15.2716 
G01 X17.9780 Y15.2701 
G01 X17.9805 Y15.2686 
G01 X18.0949 Y15.2026 
G01 X18.3981 Y14.8994 
G01 X18.8211 Y14.7242 
G01 X19.2789 Y14.7242 
G01 X19.7019 Y14.8994 
G01 X19.9096 Y15.1071 
G01 X20.0051 Y15.2026 
G01 X20.0783 Y15.2449 
G01 X20.1220 Y15.2701 
G01 X20.2525 Y15.3051 
G01 X20.3875 Y15.3051 
G01 X20.5124 Y15.2716 
G01 X20.5180 Y15.2701 
G01 X20.5205 Y15.2686 
G01 X20.6349 Y15.2026 
G01 X20.9381 Y14.8994 
G01 X21.3611 Y14.7242 
G01 X21.8189 Y14.7242 
G01 X22.2419 Y14.8994 
G01 X22.4496 Y15.1071 
G01 X22.5451 Y15.2026 
G01 X22.6183 Y15.2449 
G01 X22.6620 Y15.2701 
G01 X22.7925 Y15.3051 
G01 X22.9275 Y15.3051 
G01 X23.0524 Y15.2716 
G01 X23.0580 Y15.2701 
G01 X23.0605 Y15.2686 
G01 X23.1749 Y15.2026 
G01 X23.4781 Y14.8994 
G01 X23.9011 Y14.7242 
G01 X24.3589 Y14.7242 
G01 X24.7819 Y14.8994 
G01 X24.9896 Y15.1071 
G01 X25.0851 Y15.2026 
G01 X25.1583 Y15.2449 
G01 X25.2020 Y15.2701 
G01 X25.3325 Y15.3051 
G01 X25.4675 Y15.3051 
G01 X25.5924 Y15.2716 
G01 X25.5980 Y15.2701 
G01 X25.6005 Y15.2686 
G01 X25.7149 Y15.2026 
G01 X26.0181 Y14.8994 
G01 X26.4411 Y14.7242 
G01 X26.8989 Y14.7242 
G01 X27.3219 Y14.8994 
G01 X27.6676 Y15.2451 
G01 X27.6932 Y15.2767 
G01 X27.7152 Y15.2927 
G01 X27.7343 Y15.3119 
G01 X27.7696 Y15.3322 
G01 X27.8025 Y15.3561 
G01 X27.8278 Y15.3658 
G01 X27.8513 Y15.3794 
G01 X27.8906 Y15.3899 
G01 X27.9286 Y15.4045 
G01 X27.9555 Y15.4073 
G01 X27.9817 Y15.4143 
G01 X28.0224 Y15.4143 
G01 X28.0629 Y15.4186 
G01 X28.0897 Y15.4143 
G01 X28.1168 Y15.4143 
G01 X28.1561 Y15.4038 
G01 X28.1778 Y15.4004 
G01 X28.1580 Y15.4392 
G01 X28.1028 Y15.6092 
G01 X28.0748 Y15.7857 
G01 X28.0748 Y15.9643 
G01 X28.1028 Y16.1408 
G01 X28.1580 Y16.3108 
G01 X28.2391 Y16.4700 
G01 X28.3441 Y16.6145 
G01 X28.4705 Y16.7409 
G01 X28.6150 Y16.8459 
G01 X28.7742 Y16.9270 
G01 X28.9442 Y16.9822 
G01 X29.1207 Y17.0102 
G01 X29.2993 Y17.0102 
G01 X29.4758 Y16.9822 
G01 X29.6458 Y16.9270 
G01 X29.8050 Y16.8459 
G01 X29.9495 Y16.7409 
G01 X30.0759 Y16.6145 
G01 X30.1809 Y16.4700 
G01 X30.2620 Y16.3108 
G01 X30.3172 Y16.1408 
G01 X30.3452 Y15.9643 
G01 X30.3452 Y15.7857 
G01 X30.3172 Y15.6092 
G01 X30.2620 Y15.4392 
G01 X30.2422 Y15.4004 
G01 X30.2639 Y15.4038 
G01 X30.3032 Y15.4143 
G01 X30.3303 Y15.4143 
G01 X30.3571 Y15.4186 
G01 X30.3976 Y15.4143 
G01 X30.4383 Y15.4143 
G01 X30.4645 Y15.4073 
G01 X30.4914 Y15.4045 
G01 X30.5294 Y15.3899 
G01 X30.5687 Y15.3794 
G01 X30.5922 Y15.3658 
G01 X30.6175 Y15.3561 
G01 X30.6504 Y15.3322 
G01 X30.6857 Y15.3119 
G01 X30.7048 Y15.2927 
G01 X30.7268 Y15.2767 
G01 X30.7524 Y15.2451 
G01 X31.0981 Y14.8994 
G01 X31.5211 Y14.7242 
G01 X31.9789 Y14.7242 
G01 X32.4019 Y14.8994 
G01 X32.7256 Y15.2231 
G01 X32.7789 Y15.3518 
G01 X32.7974 Y15.3965 
G01 X32.8306 Y15.4766 
G01 X32.8543 Y15.5075 
G01 X32.9128 Y15.5837 
G01 X32.9861 Y15.6400 
G01 X33.0199 Y15.6660 
G01 X33.0857 Y15.6932 
G01 X33.1447 Y15.7176 
G01 X33.2066 Y15.7258 
G01 X33.2786 Y15.7353 
G01 X33.3476 Y15.7262 
G01 X33.4125 Y15.7176 
G01 X33.4678 Y15.6947 
G01 X33.5373 Y15.6660 
G01 X33.5420 Y15.6640 
G01 X35.0493 Y15.6640 
G01 X35.1170 Y15.6640 
G01 X35.1841 Y15.6640 
G01 X35.2496 Y15.6464 
G01 X35.3146 Y15.6290 
G01 X35.3736 Y15.5949 
G01 X35.4315 Y15.5615 
G01 X35.4802 Y15.5128 
G01 X35.5270 Y15.4660 
G01 X36.1093 Y14.8826 
G01 X36.1461 Y14.8188 
G01 X36.1767 Y14.7656 
G01 X36.2115 Y14.6352 
G01 X36.2114 Y14.5227 
G01 X36.2007 Y1.9229  
G01 X36.2007 Y1.8619  
G01 X36.1834 Y1.7976  
G01 X36.1656 Y1.7315  
G01 X36.1329 Y1.6749  
G01 X36.0980 Y1.6146  
G01 X36.0554 Y1.5720  
G01 X35.4778 Y0.9952  
G01 X35.4311 Y0.9485  
G01 X35.3725 Y0.9146  
G01 X35.3141 Y0.8810  
G01 X35.2497 Y0.8637  
G01 X35.1837 Y0.8460  
G01 X35.1158 Y0.8460  
G01 X33.5420 Y0.8460  
G01 X33.5373 Y0.8440  
G01 X33.4699 Y0.8161  
G01 X33.4125 Y0.7923  
G01 X33.3506 Y0.7842  
G01 X33.2786 Y0.7747  
G01 X33.2096 Y0.7838  
G01 X33.1447 Y0.7923  
G01 X33.0878 Y0.8159  
G01 X33.0200 Y0.8440  
G01 X32.9891 Y0.8677  
G01 X32.9128 Y0.9262  
G01 X32.8566 Y0.9995  
G01 X32.8306 Y1.0334  
G01 X32.7984 Y1.1110  
G01 X32.7789 Y1.1581  
G01 X32.7256 Y1.2869  
G01 X32.4019 Y1.6106  
G01 X31.9789 Y1.7858  
G01 X31.5211 Y1.7858  
G01 X31.0981 Y1.6106  
G01 X30.8904 Y1.4029  
G01 X30.7949 Y1.3074  
G01 X30.7217 Y1.2651  
G01 X30.6780 Y1.2399  
G01 X30.5475 Y1.2049  
G01 X30.4125 Y1.2049  
G01 X30.2876 Y1.2384  
G01 X30.2820 Y1.2399  
G01 X30.2794 Y1.2414  
G01 X30.1651 Y1.3074  
G01 X29.8619 Y1.6106  
G01 X29.4389 Y1.7858  
G01 X28.9811 Y1.7858  
G01 X28.5581 Y1.6106  
G01 X28.2124 Y1.2649  
G01 X28.1868 Y1.2332  
G01 X28.1648 Y1.2173  
G01 X28.1457 Y1.1981  
G01 X28.1104 Y1.1778  
G01 X28.0775 Y1.1539  
G01 X28.0522 Y1.1442  
G01 X28.0287 Y1.1306  
G01 X27.9894 Y1.1201  
G01 X27.9514 Y1.1055  
G01 X27.9245 Y1.1027  
G01 X27.8983 Y1.0957  
G01 X27.8576 Y1.0957  
G01 X27.8171 Y1.0914  
G01 X27.7903 Y1.0957  
G01 X27.7632 Y1.0957  
G01 X27.7239 Y1.1062  
G01 X27.7022 Y1.1096  
G01 X27.7220 Y1.0708  
G01 X27.7772 Y0.9008  
G01 X27.8052 Y0.7243  
G01 X27.8052 Y0.5457  
G01 X27.7772 Y0.3692  
G01 X27.7220 Y0.1992  
G01 X27.6409 Y0.0400  
G01 X27.5359 Y-0.1045 
G01 X27.4095 Y-0.2309 
G01 X27.2650 Y-0.3359 
G01 X27.1058 Y-0.4170 
G01 X26.9358 Y-0.4722 
G01 X26.7593 Y-0.5002 
G01 X26.5807 Y-0.5002 
G01 X26.4042 Y-0.4722 
G01 X26.2342 Y-0.4170 
G01 X26.0750 Y-0.3359 
G01 X25.9305 Y-0.2309 
G01 X25.8041 Y-0.1045 
G01 X25.6991 Y0.0400  
G01 X25.6573 Y0.1221  
G01 X25.1427 Y0.1221  
G01 X25.1009 Y0.0400  
G01 X24.9959 Y-0.1045 
G01 X24.8695 Y-0.2309 
G01 X24.7250 Y-0.3359 
G01 X24.5658 Y-0.4170 
G01 X24.3958 Y-0.4722 
G01 X24.2193 Y-0.5002 
G01 X24.0407 Y-0.5002 
G01 X23.8642 Y-0.4722 
G01 X23.6942 Y-0.4170 
G01 X23.5350 Y-0.3359 
G01 X23.3905 Y-0.2309 
G01 X23.2641 Y-0.1045 
G01 X23.1591 Y0.0400  
G01 X23.0780 Y0.1992  
G01 X23.0228 Y0.3692  
G01 X22.9948 Y0.5457  
G01 X22.9948 Y0.7243  
G01 X23.0228 Y0.9008  
G01 X23.0780 Y1.0708  
G01 X23.0978 Y1.1096  
G01 X23.0761 Y1.1062  
G01 X23.0368 Y1.0957  
G01 X23.0097 Y1.0957  
G01 X22.9830 Y1.0914  
G01 X22.9425 Y1.0957  
G01 X22.9017 Y1.0957  
G01 X22.8756 Y1.1027  
G01 X22.8486 Y1.1055  
G01 X22.8106 Y1.1201  
G01 X22.7713 Y1.1306  
G01 X22.7478 Y1.1442  
G01 X22.7225 Y1.1539  
G01 X22.6896 Y1.1778  
G01 X22.6543 Y1.1981  
G01 X22.6352 Y1.2173  
G01 X22.6133 Y1.2332  
G01 X22.5876 Y1.2648  
G01 X22.2419 Y1.6106  
G01 X21.8189 Y1.7858  
G01 X21.3611 Y1.7858  
G01 X20.9381 Y1.6106  
G01 X20.7304 Y1.4029  
G01 X20.6349 Y1.3074  
G01 X20.5617 Y1.2651  
G01 X20.5180 Y1.2399  
G01 X20.3875 Y1.2049  
G01 X20.2525 Y1.2049  
G01 X20.1276 Y1.2384  
G01 X20.1220 Y1.2399  
G01 X20.1194 Y1.2414  
G01 X20.0051 Y1.3074  
G01 X19.7019 Y1.6106  
G01 X19.2789 Y1.7858  
G01 X18.8211 Y1.7858  
G01 X18.3981 Y1.6106  
G01 X18.1904 Y1.4029  
G01 X18.0949 Y1.3074  
G01 X18.0217 Y1.2651  
G01 X17.9780 Y1.2399  
G01 X17.8475 Y1.2049  
G01 X17.7125 Y1.2049  
G01 X17.5876 Y1.2384  
G01 X17.5820 Y1.2399  
G01 X17.5794 Y1.2414  
G01 X17.4651 Y1.3074  
G01 X17.1619 Y1.6106  
G01 X16.7389 Y1.7858  
G01 X16.2811 Y1.7858  
G01 X15.8581 Y1.6106  
G01 X15.6504 Y1.4029  
G01 X15.5549 Y1.3074  
G01 X15.4817 Y1.2651  
G01 X15.4380 Y1.2399  
G01 X15.3075 Y1.2049  
G01 X15.1725 Y1.2049  
G01 X15.0476 Y1.2384  
G01 X15.0420 Y1.2399  
G01 X15.0394 Y1.2414  
G01 X14.9251 Y1.3074  
G01 X14.6219 Y1.6106  
G01 X14.1989 Y1.7858  
G01 X13.7411 Y1.7858  
G01 X13.3181 Y1.6106  
G01 X13.0149 Y1.3074  
G01 X12.8980 Y1.2399  
G01 X12.7675 Y1.2049  
G01 X12.6325 Y1.2049  
G01 X12.5020 Y1.2399  
G01 X12.4602 Y1.2641  
G01 X12.3851 Y1.3074  
G01 X12.2896 Y1.4029  
G01 X12.0819 Y1.6106  
G01 X11.6589 Y1.7858  
G01 X11.2011 Y1.7858  
G01 X10.7781 Y1.6106  
G01 X10.5704 Y1.4029  
G01 X10.4749 Y1.3074  
G01 X10.4017 Y1.2651  
G01 X10.3580 Y1.2399  
G01 X10.2275 Y1.2049  
G01 X10.0925 Y1.2049  
G01 X9.9676  Y1.2384  
G01 X9.9620  Y1.2399  
G01 X9.9594  Y1.2414  
G01 X9.8451  Y1.3074  
G01 X9.5419  Y1.6106  
G01 X9.1189  Y1.7858  
G01 X8.6611  Y1.7858  
G01 X8.2381  Y1.6106  
G01 X8.0304  Y1.4029  
G01 X7.9349  Y1.3074  
G01 X7.8617  Y1.2651  
G01 X7.8180  Y1.2399  
G01 X7.6875  Y1.2049  
G01 X7.5525  Y1.2049  
G01 X7.4276  Y1.2384  
G01 X7.4220  Y1.2399  
G01 X7.4194  Y1.2414  
G01 X7.3051  Y1.3074  
G01 X7.0019  Y1.6106  
G01 X6.5789  Y1.7858  
G01 X6.1211  Y1.7858  
G01 X5.6981  Y1.6106  
G01 X5.4904  Y1.4029  
G01 X5.3949  Y1.3074  
G01 X5.3217  Y1.2651  
G01 X5.2780  Y1.2399  
G01 X5.1475  Y1.2049  
G01 X5.0125  Y1.2049  
G01 X4.8876  Y1.2384  
G01 X4.8820  Y1.2399  
G01 X4.8794  Y1.2414  
G01 X4.7651  Y1.3074  
G01 X4.4619  Y1.6106  
G01 X4.0389  Y1.7858  
G01 X3.5811  Y1.7858  
G01 X3.5644  Y1.7789  
G01 X3.5354  Y1.7621  
G01 X3.5023  Y1.7531  
G01 X3.4706  Y1.7400  
G01 X3.4373  Y1.7356  
G01 X3.4050  Y1.7269  
G01 X3.3707  Y1.7269  
G01 X3.3367  Y1.7224  
G01 X3.3035  Y1.7268  
G01 X3.2699  Y1.7267  
G01 X3.2368  Y1.7355  
G01 X3.2028  Y1.7400  
G01 X3.1718  Y1.7528  
G01 X3.1394  Y1.7615  
G01 X3.1097  Y1.7786  
G01 X3.0780  Y1.7917  
G01 X3.0514  Y1.8121  
G01 X3.0224  Y1.8288  
G01 X2.9981  Y1.8530  
G01 X2.9709  Y1.8739  
G01 X2.9505  Y1.9005  
G01 X2.9267  Y1.9242  
G01 X2.9096  Y1.9538  
G01 X2.8887  Y1.9810  
G01 X2.8758  Y2.0120  
G01 X2.8590  Y2.0410  
G01 X2.8501  Y2.0741  
G01 X2.8370  Y2.1058  
G01 X2.8326  Y2.1390  
G01 X2.8239  Y2.1714  
G01 X2.8238  Y2.2057  
G01 X2.8194  Y2.2397  
G01 X2.8237  Y2.2729  
G01 X2.8236  Y2.3579  
G01 X2.8065  Y2.3874  
G01 X2.7796  Y2.4879  
G01 X2.7796  Y8.9421  
G01 X2.8065  Y9.0426  
G01 X2.8132  Y9.0542  
G01 X2.8100  Y11.1796 
G00 Z2.5400  
G00 X30.6148 Y15.7857 
G01 Z-0.1500 F50    
G01 X30.6148 Y15.9643 F250   
G01 X30.6428 Y16.1408 
G01 X30.6980 Y16.3108 
G01 X30.7791 Y16.4700 
G01 X30.8841 Y16.6145 
G01 X31.0105 Y16.7409 
G01 X31.1550 Y16.8459 
G01 X31.3142 Y16.9270 
G01 X31.4842 Y16.9822 
G01 X31.6607 Y17.0102 
G01 X31.8393 Y17.0102 
G01 X32.0158 Y16.9822 
G01 X32.1858 Y16.9270 
G01 X32.3450 Y16.8459 
G01 X32.4895 Y16.7409 
G01 X32.6159 Y16.6145 
G01 X32.7209 Y16.4700 
G01 X32.8020 Y16.3108 
G01 X32.8572 Y16.1408 
G01 X32.8852 Y15.9643 
G01 X32.8852 Y15.7857 
G01 X32.8572 Y15.6092 
G01 X32.8020 Y15.4392 
G01 X32.7209 Y15.2800 
G01 X32.6159 Y15.1355 
G01 X32.4895 Y15.0091 
G01 X32.3450 Y14.9041 
G01 X32.1858 Y14.8230 
G01 X32.0158 Y14.7678 
G01 X31.8393 Y14.7398 
G01 X31.6607 Y14.7398 
G01 X31.4842 Y14.7678 
G01 X31.3142 Y14.8230 
G01 X31.1550 Y14.9041 
G01 X31.0105 Y15.0091 
G01 X30.8841 Y15.1355 
G01 X30.7791 Y15.2800 
G01 X30.6980 Y15.4392 
G01 X30.6428 Y15.6092 
G01 X30.6148 Y15.7857 
G00 Z2.5400  
G00 X25.5348 Y15.7857 
G01 Z-0.1500 F50    
G01 X25.5348 Y15.9643 F250   
G01 X25.5628 Y16.1408 
G01 X25.6180 Y16.3108 
G01 X25.6991 Y16.4700 
G01 X25.8041 Y16.6145 
G01 X25.9305 Y16.7409 
G01 X26.0750 Y16.8459 
G01 X26.2342 Y16.9270 
G01 X26.4042 Y16.9822 
G01 X26.5807 Y17.0102 
G01 X26.7593 Y17.0102 
G01 X26.9358 Y16.9822 
G01 X27.1058 Y16.9270 
G01 X27.2650 Y16.8459 
G01 X27.4095 Y16.7409 
G01 X27.5359 Y16.6145 
G01 X27.6409 Y16.4700 
G01 X27.7220 Y16.3108 
G01 X27.7772 Y16.1408 
G01 X27.8052 Y15.9643 
G01 X27.8052 Y15.7857 
G01 X27.7772 Y15.6092 
G01 X27.7220 Y15.4392 
G01 X27.6409 Y15.2800 
G01 X27.5359 Y15.1355 
G01 X27.4095 Y15.0091 
G01 X27.2650 Y14.9041 
G01 X27.1058 Y14.8230 
G01 X26.9358 Y14.7678 
G01 X26.7593 Y14.7398 
G01 X26.5807 Y14.7398 
G01 X26.4042 Y14.7678 
G01 X26.2342 Y14.8230 
G01 X26.0750 Y14.9041 
G01 X25.9305 Y15.0091 
G01 X25.8041 Y15.1355 
G01 X25.6991 Y15.2800 
G01 X25.6180 Y15.4392 
G01 X25.5628 Y15.6092 
G01 X25.5348 Y15.7857 
G00 Z2.5400  
G00 X22.9948 Y15.7857 
G01 Z-0.1500 F50    
