(.../pcb-gcode.ulp)
(Copyright 2005 - 2012 by John Johnson)
(See readme.txt for licensing terms.)
(This file generated from the board:)
(.../GIT/Eagle/FSK_modem/FSKmodem2.brd)
(Current profile is .../profiles/mach.pp  )
(This file generated 25/11/2018 12:45 PM)
(Settings from pcb-machine.h)
(  Tool Size)
(0.1600  )
(Z Axis Settings)
(  High     Up        Down     Drill)
(12.7000 	2.5400  	-0.1500 	-1.0000 )
(spindle on time = 10.0000)
(milling depth = -2.0000)
(text depth = -0.1270)
(tool change at 0.0000  0.0000  50.0000 )
(feed rate xy = F250   )
(feed rate z  = F50    )
(Settings from pcb-defaults.h)
(isolate min = 0.0254)
(isolate max = 0.5080)
(isolate step = 0.0900)
(Generated top outlines, top drill, bottom outlines, bottom drill, )
(Unit of measure: mm)
( Tool|       Size       |  Min Sub |  Max Sub |   Count )
( T01 | 0.813mm 0.0320in | 0.0000in | 0.0000in |       0 )
( T02 | 1.016mm 0.0400in | 0.0000in | 0.0000in |       0 )
(Metric Mode)
G21
(Absolute Coordinates)
G90
M05
G00 Z50.0000 
G00 X0.0000  Y0.0000  
M06 T01  ; 0.8128  
G01 Z0.0000  F50    
M06 T01  ; 0.8128  
G00 Z2.5400  
M03
G04 P10.000000
G00 X-4.4450 Y4.4450  
G01 Z-1.0000 F50    
G00 Z2.5400  
G00 X-4.4450 Y12.0650 
G01 Z-1.0000 F50    
G00 Z2.5400  
G00 X-6.9850 Y4.4450  
G01 Z-1.0000 F50    
G00 Z2.5400  
G00 X-6.9850 Y12.0650 
G01 Z-1.0000 F50    
G00 Z2.5400  
G00 X-9.5250 Y4.4450  
G01 Z-1.0000 F50    
G00 Z2.5400  
G00 X-9.5250 Y12.0650 
G01 Z-1.0000 F50    
G00 Z2.5400  
G00 X-12.0650 Y4.4450  
G01 Z-1.0000 F50    
G00 Z2.5400  
G00 X-12.0650 Y12.0650 
G01 Z-1.0000 F50    
G00 Z2.5400  
G00 X-14.6050 Y4.4450  
G01 Z-1.0000 F50    
G00 Z2.5400  
G00 X-14.6050 Y12.0650 
G01 Z-1.0000 F50    
G00 Z2.5400  
G00 X-17.1450 Y4.4450  
G01 Z-1.0000 F50    
G00 Z2.5400  
G00 X-17.1450 Y12.0650 
G01 Z-1.0000 F50    
G00 Z2.5400  
G00 X-19.6850 Y4.4450  
G01 Z-1.0000 F50    
G00 Z2.5400  
G00 X-19.6850 Y12.0650 
G01 Z-1.0000 F50    
G00 Z2.5400  
G00 X-22.2250 Y4.4450  
G01 Z-1.0000 F50    
G00 Z2.5400  
G00 X-22.2250 Y12.0650 
G01 Z-1.0000 F50    
G00 Z2.5400  
G00 X-24.8558 Y11.8364 
G01 Z-1.0000 F50    
G00 Z2.5400  
G00 X-25.3492 Y4.2926  
G01 Z-1.0000 F50    
G00 Z2.5400  
G00 X-27.3558 Y11.8364 
G01 Z-1.0000 F50    
G00 Z2.5400  
G00 X-29.8558 Y11.8364 
G01 Z-1.0000 F50    
G00 Z2.5400  
G00 X-30.4292 Y4.2926  
G01 Z-1.0000 F50    
G00 Z2.5400  
M05
G00 Z50.0000 
G00 X0.0000  Y0.0000  
M06 T02  ; 1.0160  
G01 Z0.0000  F50    
M06 T02  ; 1.0160  
G00 Z2.5400  
M03
G04 P10.000000
G00 X-31.7500 Y0.6350  
G01 Z-1.0000 F50    
G00 Z2.5400  
G00 X-31.7500 Y15.8750 
G01 Z-1.0000 F50    
G00 Z2.5400  
G00 X-3.8100 Y0.6350  
G01 Z-1.0000 F50    
G00 Z2.5400  
G00 X-3.8100 Y15.8750 
G01 Z-1.0000 F50    
G00 Z2.5400  
G00 X-6.3500 Y0.6350  
G01 Z-1.0000 F50    
G00 Z2.5400  
G00 X-6.3500 Y15.8750 
G01 Z-1.0000 F50    
G00 Z2.5400  
G00 X-8.8900 Y0.6350  
G01 Z-1.0000 F50    
G00 Z2.5400  
G00 X-8.8900 Y15.8750 
G01 Z-1.0000 F50    
G00 Z2.5400  
G00 X-11.4300 Y0.6350  
G01 Z-1.0000 F50    
G00 Z2.5400  
G00 X-11.4300 Y15.8750 
G01 Z-1.0000 F50    
G00 Z2.5400  
G00 X-13.9700 Y0.6350  
G01 Z-1.0000 F50    
G00 Z2.5400  
G00 X-13.9700 Y15.8750 
G01 Z-1.0000 F50    
G00 Z2.5400  
G00 X-16.5100 Y0.6350  
G01 Z-1.0000 F50    
G00 Z2.5400  
G00 X-16.5100 Y15.8750 
G01 Z-1.0000 F50    
G00 Z2.5400  
G00 X-19.0500 Y0.6350  
G01 Z-1.0000 F50    
G00 Z2.5400  
G00 X-19.0500 Y15.8750 
G01 Z-1.0000 F50    
G00 Z2.5400  
G00 X-21.5900 Y0.6350  
G01 Z-1.0000 F50    
G00 Z2.5400  
G00 X-21.5900 Y15.8750 
G01 Z-1.0000 F50    
G00 Z2.5400  
G00 X-24.1300 Y0.6350  
G01 Z-1.0000 F50    
G00 Z2.5400  
G00 X-24.1300 Y15.8750 
G01 Z-1.0000 F50    
G00 Z2.5400  
G00 X-26.6700 Y0.6350  
G01 Z-1.0000 F50    
G00 Z2.5400  
G00 X-26.6700 Y15.8750 
G01 Z-1.0000 F50    
G00 Z2.5400  
G00 X-29.2100 Y0.6350  
G01 Z-1.0000 F50    
G00 Z2.5400  
G00 X-29.2100 Y15.8750 
G01 Z-1.0000 F50    
G00 Z2.5400  
T01 
G00 Z12.7000 
M05
M02
