(.../pcb-gcode.ulp)
(Copyright 2005 - 2012 by John Johnson)
(See readme.txt for licensing terms.)
(This file generated from the board:)
(.../GIT/Eagle/FSK_modem/FSKmodem2.brd)
(Current profile is .../profiles/mach.pp  )
(This file generated 25/11/2018 12:10 PM)
(Settings from pcb-machine.h)
(  Tool Size)
(2.0000  )
(Z Axis Settings)
(  High     Up        Down     Drill)
(12.7000 	2.5400  	-0.1500 	-1.0000 )
(spindle on time = 10.0000)
(milling depth = -2.0000)
(text depth = -0.1270)
(tool change at 0.0000  0.0000  50.0000 )
(feed rate xy = F250   )
(feed rate z  = F50    )
(Settings from pcb-defaults.h)
(isolate min = 0.0254)
(isolate max = 0.5080)
(isolate step = 0.0900)
(Generated )
(Unit of measure: mm)
(Metric Mode)
G21
(Absolute Coordinates)
G90
G00 X0.0000  Y0.0000  
M03
G04 P10.000000
G00 Z2.5400  
G00 X35.5854 Y15.8496 
G01 Z-2.0000 F50    
G01 X36.5252 Y14.9098 F250   
G01 X36.5252 Y1.6002  
G01 X35.4584 Y0.5334  
G01 X33.6042 Y0.5334  
G01 X32.3850 Y-0.6858 
G01 X3.2258  Y-0.6858 
G01 X2.5146  Y0.0254  
G01 X2.5146  Y16.4846 
G01 X3.2004  Y17.1704 
G01 X32.4104 Y17.1704 
G01 X33.6042 Y15.9766 
G01 X35.4584 Y15.9766 
G01 X35.5600 Y15.8750 
G00 Z2.5400  
G00 X35.5854 Y15.8496 
G01 Z-2.0000 F50    
G01 X35.5600 Y15.8750 F250   
G00 Z12.7000 
M05
M02
