(.../pcb-gcode.ulp)
(Copyright 2005 - 2012 by John Johnson)
(See readme.txt for licensing terms.)
(This file generated from the board:)
(.../GIT/Eagle/FSK_modem/FSKmodem2.brd)
(Current profile is .../profiles/mach.pp  )
(This file generated 25/11/2018 12:44 PM)
(Settings from pcb-machine.h)
(  Tool Size)
(0.1600  )
(Z Axis Settings)
(  High     Up        Down     Drill)
(12.7000 	2.5400  	-0.1500 	-1.0000 )
(spindle on time = 10.0000)
(milling depth = -2.0000)
(text depth = -0.1270)
(tool change at 0.0000  0.0000  50.0000 )
(feed rate xy = F250   )
(feed rate z  = F50    )
(Settings from pcb-defaults.h)
(isolate min = 0.0254)
(isolate max = 0.5080)
(isolate step = 0.0900)
(Generated top outlines, top drill, bottom outlines, bottom drill, )
(Unit of measure: mm)
(Metric Mode)
G21
(Absolute Coordinates)
G90
G00 X0.0000  Y0.0000  
M03
G04 P10.000000
G00 Z2.5400  
G00 X-18.6823 Y11.4886 
G01 Z-0.1500 F50    
G01 X-19.6898 Y10.4810 F250   
G01 X-24.4624 Y10.4810 
G01 X-24.5401 Y10.4602 
G01 X-24.6097 Y10.4200 
G01 X-24.6666 Y10.3631 
G01 X-24.8503 Y10.1794 
G01 X-26.2448 Y10.1794 
G01 X-26.2835 Y10.1634 
G01 X-26.3132 Y10.1337 
G01 X-26.3292 Y10.0950 
G01 X-26.3292 Y8.7005  
G01 X-26.9271 Y8.1026  
G01 X-26.9673 Y8.0330  
G01 X-26.9881 Y7.9553  
G01 X-26.9881 Y3.7063  
G01 X-26.9673 Y3.6286  
G01 X-26.9271 Y3.5590  
G01 X-26.8702 Y3.5021  
G01 X-26.0955 Y2.7274  
G01 X-26.0259 Y2.6872  
G01 X-25.9482 Y2.6664  
G01 X-24.7502 Y2.6664  
G01 X-24.6725 Y2.6872  
G01 X-24.6029 Y2.7274  
G01 X-24.5460 Y2.7843  
G01 X-23.1907 Y4.1396  
G01 X-23.0786 Y4.1396  
G01 X-23.0274 Y4.0161  
G01 X-22.9283 Y3.8678  
G01 X-22.8022 Y3.7417  
G01 X-22.6539 Y3.6426  
G01 X-22.4891 Y3.5743  
G01 X-22.3142 Y3.5395  
G01 X-22.1358 Y3.5395  
G01 X-21.9609 Y3.5743  
G01 X-21.7961 Y3.6426  
G01 X-21.6478 Y3.7417  
G01 X-21.5217 Y3.8678  
G01 X-21.4226 Y4.0161  
G01 X-21.3543 Y4.1809  
G01 X-21.3195 Y4.3558  
G01 X-21.3195 Y4.5342  
G01 X-21.3543 Y4.7091  
G01 X-21.4226 Y4.8739  
G01 X-21.5217 Y5.0222  
G01 X-21.6478 Y5.1483  
G01 X-21.7961 Y5.2474  
G01 X-21.9609 Y5.3157  
G01 X-22.1358 Y5.3505  
G01 X-22.3142 Y5.3505  
G01 X-22.4891 Y5.3157  
G01 X-22.6539 Y5.2474  
G01 X-22.8022 Y5.1483  
G01 X-22.9283 Y5.0222  
G01 X-23.0274 Y4.8739  
G01 X-23.0786 Y4.7504  
G01 X-23.3574 Y4.7504  
G01 X-23.4351 Y4.7296  
G01 X-23.5047 Y4.6894  
G01 X-24.9169 Y3.2772  
G01 X-25.7815 Y3.2772  
G01 X-26.3773 Y3.8730  
G01 X-26.3773 Y7.7886  
G01 X-25.7973 Y8.3686  
G01 X-24.4028 Y8.3686  
G01 X-24.3641 Y8.3846  
G01 X-24.3344 Y8.4143  
G01 X-24.3184 Y8.4530  
G01 X-24.3184 Y9.8475  
G01 X-24.2957 Y9.8702  
G01 X-19.5231 Y9.8702  
G01 X-19.4455 Y9.8910  
G01 X-19.3758 Y9.9312  
G01 X-18.1325 Y11.1745 
G01 X-18.0923 Y11.2442 
G01 X-18.0715 Y11.3218 
G01 X-18.0715 Y12.9098 
G01 X-18.0923 Y12.9874 
G01 X-18.1325 Y13.0571 
G01 X-19.6267 Y14.5512 
G01 X-19.6835 Y14.6081 
G01 X-19.7532 Y14.6483 
G01 X-19.8308 Y14.6691 
G01 X-24.9040 Y14.6691 
G01 X-24.6210 Y14.9521 
G01 X-24.5312 Y14.9064 
G01 X-24.3748 Y14.8555 
G01 X-24.2123 Y14.8298 
G01 X-24.0477 Y14.8298 
G01 X-23.8852 Y14.8555 
G01 X-23.7288 Y14.9064 
G01 X-23.5822 Y14.9811 
G01 X-23.4491 Y15.0778 
G01 X-23.3328 Y15.1941 
G01 X-23.2361 Y15.3272 
G01 X-23.1614 Y15.4738 
G01 X-23.1105 Y15.6302 
G01 X-23.0848 Y15.7927 
G01 X-23.0848 Y15.9573 
G01 X-23.1105 Y16.1197 
G01 X-23.1614 Y16.2762 
G01 X-23.2361 Y16.4228 
G01 X-23.3328 Y16.5559 
G01 X-23.4491 Y16.6722 
G01 X-23.5822 Y16.7689 
G01 X-23.7288 Y16.8436 
G01 X-23.8852 Y16.8945 
G01 X-24.0477 Y16.9202 
G01 X-24.2123 Y16.9202 
G01 X-24.3748 Y16.8945 
G01 X-24.5312 Y16.8436 
G01 X-24.6778 Y16.7689 
G01 X-24.8109 Y16.6722 
G01 X-24.9272 Y16.5559 
G01 X-25.0239 Y16.4228 
G01 X-25.0986 Y16.2762 
G01 X-25.1495 Y16.1197 
G01 X-25.1752 Y15.9573 
G01 X-25.1752 Y15.7927 
G01 X-25.1495 Y15.6302 
G01 X-25.0986 Y15.4738 
G01 X-25.0529 Y15.3840 
G01 X-25.7678 Y14.6691 
G01 X-30.3873 Y14.6691 
G01 X-30.4650 Y14.6483 
G01 X-30.5346 Y14.6081 
G01 X-30.5915 Y14.5512 
G01 X-32.0867 Y13.0560 
G01 X-33.4912 Y13.0560 
G01 X-33.5299 Y13.0400 
G01 X-33.5596 Y13.0103 
G01 X-33.5756 Y12.9716 
G01 X-33.5756 Y12.3296 
G01 X-33.5596 Y12.2909 
G01 X-33.5299 Y12.2612 
G01 X-33.4912 Y12.2452 
G01 X-31.8992 Y12.2452 
G01 X-31.8605 Y12.2612 
G01 X-31.8308 Y12.2909 
G01 X-31.8148 Y12.3296 
G01 X-31.8148 Y12.4641 
G01 X-30.2206 Y14.0583 
G01 X-19.9976 Y14.0583 
G01 X-18.6823 Y12.7430 
G01 X-18.6823 Y11.4886 
G00 Z2.5400  
G00 X-18.7264 Y5.8734  
G01 Z-0.1500 F50    
G01 X-16.8844 Y5.8734  F250   
G01 X-16.8457 Y5.8894  
G01 X-16.8160 Y5.9191  
G01 X-16.8000 Y5.9578  
G01 X-16.8000 Y6.4734  
G01 X-16.2454 Y6.4734  
G01 X-16.2454 Y5.9578  
G01 X-16.2294 Y5.9191  
G01 X-16.1997 Y5.8894  
G01 X-16.1610 Y5.8734  
G01 X-14.3190 Y5.8734  
G01 X-14.2803 Y5.8894  
G01 X-14.2506 Y5.9191  
G01 X-14.2346 Y5.9578  
G01 X-14.2346 Y7.5998  
G01 X-14.2506 Y7.6385  
G01 X-14.2803 Y7.6682  
G01 X-14.3190 Y7.6842  
G01 X-16.1610 Y7.6842  
G01 X-16.1997 Y7.6682  
G01 X-16.2294 Y7.6385  
G01 X-16.2454 Y7.5998  
G01 X-16.2454 Y7.0842  
G01 X-16.8000 Y7.0842  
G01 X-16.8000 Y7.5998  
G01 X-16.8160 Y7.6385  
G01 X-16.8457 Y7.6682  
G01 X-16.8844 Y7.6842  
G01 X-18.7264 Y7.6842  
G01 X-18.7651 Y7.6682  
G01 X-18.7948 Y7.6385  
G01 X-18.8108 Y7.5998  
G01 X-18.8108 Y5.9578  
G01 X-18.7948 Y5.9191  
G01 X-18.7651 Y5.8894  
G01 X-18.7264 Y5.8734  
G00 Z2.5400  
G00 X-18.7264 Y8.6734  
G01 Z-0.1500 F50    
G01 X-16.8844 Y8.6734  F250   
G01 X-16.8457 Y8.6894  
G01 X-16.8160 Y8.7191  
G01 X-16.8000 Y8.7578  
G01 X-16.8000 Y9.9534  
G01 X-15.2870 Y11.4664 
G01 X-14.9801 Y11.1595 
G01 X-14.2299 Y11.1595 
G01 X-13.6995 Y11.6899 
G01 X-13.6995 Y12.4401 
G01 X-14.2299 Y12.9705 
G01 X-14.9801 Y12.9705 
G01 X-15.5105 Y12.4401 
G01 X-15.5105 Y12.1067 
G01 X-17.1330 Y10.4842 
G01 X-18.7264 Y10.4842 
G01 X-18.7651 Y10.4681 
G01 X-18.7948 Y10.4385 
G01 X-18.8108 Y10.3998 
G01 X-18.8108 Y8.7578  
G01 X-18.7948 Y8.7191  
G01 X-18.7651 Y8.6894  
G01 X-18.7264 Y8.6734  
G00 Z2.5400  
G00 X-13.6210 Y8.6734  
G01 Z-0.1500 F50    
G01 X-11.7790 Y8.6734  F250   
G01 X-11.7403 Y8.6894  
G01 X-11.7106 Y8.7191  
G01 X-11.6946 Y8.7578  
G01 X-11.6946 Y10.3998 
G01 X-11.7106 Y10.4385 
G01 X-11.7403 Y10.4681 
G01 X-11.7790 Y10.4842 
G01 X-13.6210 Y10.4842 
G01 X-13.6597 Y10.4681 
G01 X-13.6894 Y10.4385 
G01 X-13.7054 Y10.3998 
G01 X-13.7054 Y9.8842  
G01 X-14.2346 Y9.8842  
G01 X-14.2346 Y10.3998 
G01 X-14.2506 Y10.4385 
G01 X-14.2803 Y10.4681 
G01 X-14.3190 Y10.4842 
G01 X-16.1610 Y10.4842 
G01 X-16.1997 Y10.4681 
G01 X-16.2294 Y10.4385 
G01 X-16.2454 Y10.3998 
G01 X-16.2454 Y8.7578  
G01 X-16.2294 Y8.7191  
G01 X-16.1997 Y8.6894  
G01 X-16.1610 Y8.6734  
G01 X-14.3190 Y8.6734  
G01 X-14.2803 Y8.6894  
G01 X-14.2506 Y8.7191  
G01 X-14.2346 Y8.7578  
G01 X-14.2346 Y9.2734  
G01 X-13.7054 Y9.2734  
G01 X-13.7054 Y8.7578  
G01 X-13.6894 Y8.7191  
G01 X-13.6597 Y8.6894  
G01 X-13.6210 Y8.6734  
G00 Z2.5400  
G00 X-9.2390 Y10.4588 
G01 Z-0.1500 F50    
G01 X-11.0810 Y10.4588 F250   
G01 X-11.1197 Y10.4428 
G01 X-11.1494 Y10.4131 
G01 X-11.1654 Y10.3744 
G01 X-11.1654 Y8.7324  
G01 X-11.1494 Y8.6937  
G01 X-11.1197 Y8.6640  
G01 X-11.0810 Y8.6480  
G01 X-9.2390 Y8.6480  
G01 X-9.2003 Y8.6640  
G01 X-9.1706 Y8.6937  
G01 X-9.1546 Y8.7324  
G01 X-9.1546 Y9.2196  
G01 X-8.6762 Y9.2196  
G01 X-8.6762 Y8.7324  
G01 X-8.6601 Y8.6937  
G01 X-8.6305 Y8.6640  
G01 X-8.5918 Y8.6480  
G01 X-6.7498 Y8.6480  
G01 X-6.7111 Y8.6640  
G01 X-6.6814 Y8.6937  
G01 X-6.6654 Y8.7324  
G01 X-6.6654 Y10.3744 
G01 X-6.6814 Y10.4131 
G01 X-6.7111 Y10.4428 
G01 X-6.7498 Y10.4588 
G01 X-8.5918 Y10.4588 
G01 X-8.6305 Y10.4428 
G01 X-8.6601 Y10.4131 
G01 X-8.6762 Y10.3744 
G01 X-8.6762 Y9.8304  
G01 X-9.1546 Y9.8304  
G01 X-9.1546 Y10.3744 
G01 X-9.1706 Y10.4131 
G01 X-9.2003 Y10.4428 
G01 X-9.2390 Y10.4588 
G00 Z2.5400  
G00 X-9.2390 Y7.6588  
G01 Z-0.1500 F50    
G01 X-11.0810 Y7.6588  F250   
G01 X-11.1197 Y7.6428  
G01 X-11.1494 Y7.6131  
G01 X-11.1654 Y7.5744  
G01 X-11.1654 Y7.2904  
G01 X-11.6946 Y7.2904  
G01 X-11.6946 Y7.5998  
G01 X-11.7106 Y7.6385  
G01 X-11.7403 Y7.6682  
G01 X-11.7790 Y7.6842  
G01 X-13.6210 Y7.6842  
G01 X-13.6597 Y7.6682  
G01 X-13.6894 Y7.6385  
G01 X-13.7054 Y7.5998  
G01 X-13.7054 Y5.9578  
G01 X-13.6894 Y5.9191  
G01 X-13.6597 Y5.8894  
G01 X-13.6210 Y5.8734  
G01 X-11.7790 Y5.8734  
G01 X-11.7403 Y5.8894  
G01 X-11.7106 Y5.9191  
G01 X-11.6946 Y5.9578  
G01 X-11.6946 Y6.6796  
G01 X-11.1654 Y6.6796  
G01 X-11.1654 Y5.9324  
G01 X-11.1494 Y5.8937  
G01 X-11.1197 Y5.8640  
G01 X-11.0810 Y5.8480  
G01 X-9.5618 Y5.8480  
G01 X-9.0098 Y5.2960  
G01 X-8.9530 Y5.2391  
G01 X-8.8833 Y5.1989  
G01 X-8.8056 Y5.1781  
G01 X-8.1500 Y5.1781  
G01 X-7.8412 Y4.8693  
G01 X-7.8905 Y4.8201  
G01 X-7.8905 Y4.0699  
G01 X-7.3601 Y3.5395  
G01 X-6.6099 Y3.5395  
G01 X-6.0795 Y4.0699  
G01 X-6.0795 Y4.8201  
G01 X-6.6099 Y5.3505  
G01 X-7.3601 Y5.3505  
G01 X-7.4093 Y5.3012  
G01 X-7.8360 Y5.7279  
G01 X-7.9056 Y5.7681  
G01 X-7.9833 Y5.7889  
G01 X-8.6389 Y5.7889  
G01 X-9.1546 Y6.3046  
G01 X-9.1546 Y7.5744  
G01 X-9.1706 Y7.6131  
G01 X-9.2003 Y7.6428  
G01 X-9.2390 Y7.6588  
G00 Z2.5400  
G00 X-8.5918 Y5.8480  
G01 Z-0.1500 F50    
G01 X-6.7498 Y5.8480  F250   
G01 X-6.7111 Y5.8640  
G01 X-6.6814 Y5.8937  
G01 X-6.6654 Y5.9324  
G01 X-6.6654 Y6.0446  
G01 X-5.0398 Y6.0446  
G01 X-4.9621 Y6.0654  
G01 X-4.8925 Y6.1056  
G01 X-4.8356 Y6.1625  
G01 X-4.7954 Y6.2321  
G01 X-4.7746 Y6.3098  
G01 X-4.7746 Y10.2002 
G01 X-4.7954 Y10.2779 
G01 X-4.8356 Y10.3475 
G01 X-4.8925 Y10.4044 
G01 X-6.1288 Y11.6407 
G01 X-6.0795 Y11.6899 
G01 X-6.0795 Y12.4401 
G01 X-6.6099 Y12.9705 
G01 X-7.3601 Y12.9705 
G01 X-7.8905 Y12.4401 
G01 X-7.8905 Y11.6899 
G01 X-7.3601 Y11.1595 
G01 X-6.6099 Y11.1595 
G01 X-6.5607 Y11.2088 
G01 X-5.3854 Y10.0335 
G01 X-5.3854 Y8.5096  
G01 X-19.0125 Y8.5096  
G01 X-19.0266 Y8.5120  
G01 X-19.0525 Y8.5096  
G01 X-19.0786 Y8.5096  
G01 X-19.0924 Y8.5059  
G01 X-19.1066 Y8.5046  
G01 X-19.1311 Y8.4955  
G01 X-19.1563 Y8.4888  
G01 X-19.1686 Y8.4816  
G01 X-19.1820 Y8.4767  
G01 X-19.2033 Y8.4616  
G01 X-19.2259 Y8.4486  
G01 X-19.2360 Y8.4385  
G01 X-19.2477 Y8.4302  
G01 X-19.2643 Y8.4101  
G01 X-19.2828 Y8.3917  
G01 X-19.2899 Y8.3793  
G01 X-19.6761 Y7.9142  
G01 X-20.9348 Y7.9142  
G01 X-20.9735 Y7.8982  
G01 X-21.0032 Y7.8685  
G01 X-21.0192 Y7.8298  
G01 X-21.0192 Y5.9878  
G01 X-21.0032 Y5.9491  
G01 X-20.9735 Y5.9194  
G01 X-20.9348 Y5.9034  
G01 X-19.2928 Y5.9034  
G01 X-19.2541 Y5.9194  
G01 X-19.2244 Y5.9491  
G01 X-19.2084 Y5.9878  
G01 X-19.2084 Y7.5213  
G01 X-18.8950 Y7.8988  
G01 X-5.3854 Y7.8988  
G01 X-5.3854 Y6.6554  
G01 X-6.6654 Y6.6554  
G01 X-6.6654 Y7.5744  
G01 X-6.6814 Y7.6131  
G01 X-6.7111 Y7.6428  
G01 X-6.7498 Y7.6588  
G01 X-8.5918 Y7.6588  
G01 X-8.6305 Y7.6428  
G01 X-8.6601 Y7.6131  
G01 X-8.6762 Y7.5744  
G01 X-8.6762 Y5.9324  
G01 X-8.6601 Y5.8937  
G01 X-8.6305 Y5.8640  
G01 X-8.5918 Y5.8480  
G00 Z2.5400  
G00 X-24.4028 Y7.3794  
G01 Z-0.1500 F50    
G01 X-26.2448 Y7.3794  F250   
G01 X-26.2835 Y7.3634  
G01 X-26.3132 Y7.3337  
G01 X-26.3292 Y7.2950  
G01 X-26.3292 Y5.6530  
G01 X-26.3132 Y5.6143  
G01 X-26.2835 Y5.5846  
G01 X-26.2448 Y5.5686  
G01 X-24.4028 Y5.5686  
G01 X-24.3641 Y5.5846  
G01 X-24.3344 Y5.6143  
G01 X-24.3184 Y5.6530  
G01 X-24.3184 Y6.6034  
G01 X-23.8192 Y6.6034  
G01 X-23.8192 Y5.9878  
G01 X-23.8032 Y5.9491  
G01 X-23.7735 Y5.9194  
G01 X-23.7348 Y5.9034  
G01 X-22.0928 Y5.9034  
G01 X-22.0541 Y5.9194  
G01 X-22.0244 Y5.9491  
G01 X-22.0084 Y5.9878  
G01 X-22.0084 Y7.8298  
G01 X-22.0244 Y7.8685  
G01 X-22.0541 Y7.8982  
G01 X-22.0928 Y7.9142  
G01 X-23.7348 Y7.9142  
G01 X-23.7735 Y7.8982  
G01 X-23.8032 Y7.8685  
G01 X-23.8192 Y7.8298  
G01 X-23.8192 Y7.2142  
G01 X-24.3184 Y7.2142  
G01 X-24.3184 Y7.2950  
G01 X-24.3344 Y7.3337  
G01 X-24.3641 Y7.3634  
G01 X-24.4028 Y7.3794  
G00 Z2.5400  
G00 X-36.4412 Y7.3452  
G01 Z-0.1500 F50    
G01 X-34.5992 Y7.3452  F250   
G01 X-34.5605 Y7.3612  
G01 X-34.5308 Y7.3909  
G01 X-34.5148 Y7.4296  
G01 X-34.5148 Y8.6716  
G01 X-34.5308 Y8.7103  
G01 X-34.5605 Y8.7400  
G01 X-34.5992 Y8.7560  
G01 X-36.4412 Y8.7560  
G01 X-36.4799 Y8.7400  
G01 X-36.5096 Y8.7103  
G01 X-36.5256 Y8.6716  
G01 X-36.5256 Y7.4296  
G01 X-36.5096 Y7.3909  
G01 X-36.4799 Y7.3612  
G01 X-36.4412 Y7.3452  
G00 Z2.5400  
G00 X-36.4412 Y13.5452 
G01 Z-0.1500 F50    
G01 X-34.5992 Y13.5452 F250   
G01 X-34.5605 Y13.5612 
G01 X-34.5308 Y13.5909 
G01 X-34.5148 Y13.6296 
G01 X-34.5148 Y14.8716 
G01 X-34.5308 Y14.9103 
G01 X-34.5605 Y14.9400 
G01 X-34.5992 Y14.9560 
G01 X-36.4412 Y14.9560 
G01 X-36.4799 Y14.9400 
G01 X-36.5096 Y14.9103 
G01 X-36.5256 Y14.8716 
G01 X-36.5256 Y13.6296 
G01 X-36.5096 Y13.5909 
G01 X-36.4799 Y13.5612 
G01 X-36.4412 Y13.5452 
G00 Z2.5400  
G00 X-33.4912 Y9.2452  
G01 Z-0.1500 F50    
G01 X-32.1053 Y9.2452  F250   
G01 X-32.0391 Y9.1790  
G01 X-31.0866 Y8.2265  
G01 X-30.7691 Y7.9090  
G01 X-29.5154 Y6.6553  
G01 X-29.5154 Y3.3015  
G01 X-31.2590 Y1.5579  
G01 X-31.3488 Y1.6036  
G01 X-31.5052 Y1.6545  
G01 X-31.6677 Y1.6802  
G01 X-31.8323 Y1.6802  
G01 X-31.9947 Y1.6545  
G01 X-32.1512 Y1.6036  
G01 X-32.2978 Y1.5289  
G01 X-32.4309 Y1.4322  
G01 X-32.5472 Y1.3159  
G01 X-32.6439 Y1.1828  
G01 X-32.7186 Y1.0362  
G01 X-32.7695 Y0.8798  
G01 X-32.7952 Y0.7173  
G01 X-32.7952 Y0.5527  
G01 X-32.7695 Y0.3902  
G01 X-32.7186 Y0.2338  
G01 X-32.6439 Y0.0872  
G01 X-32.5472 Y-0.0459 
G01 X-32.4309 Y-0.1622 
G01 X-32.2978 Y-0.2589 
G01 X-32.1512 Y-0.3336 
G01 X-31.9947 Y-0.3845 
G01 X-31.8323 Y-0.4102 
G01 X-31.6677 Y-0.4102 
G01 X-31.5052 Y-0.3845 
G01 X-31.3488 Y-0.3336 
G01 X-31.2022 Y-0.2589 
G01 X-31.0691 Y-0.1622 
G01 X-30.9528 Y-0.0459 
G01 X-30.8561 Y0.0872  
G01 X-30.7814 Y0.2338  
G01 X-30.7305 Y0.3902  
G01 X-30.7048 Y0.5527  
G01 X-30.7048 Y0.7173  
G01 X-30.7305 Y0.8798  
G01 X-30.7814 Y1.0362  
G01 X-30.8271 Y1.1260  
G01 X-28.9656 Y2.9875  
G01 X-28.9254 Y3.0571  
G01 X-28.9046 Y3.1348  
G01 X-28.9046 Y6.8220  
G01 X-28.9254 Y6.8997  
G01 X-28.9656 Y6.9693  
G01 X-30.3372 Y8.3409  
G01 X-30.6547 Y8.6584  
G01 X-31.6072 Y9.6109  
G01 X-31.8148 Y9.8185  
G01 X-31.8148 Y9.9716  
G01 X-31.8308 Y10.0103 
G01 X-31.8605 Y10.0400 
G01 X-31.8992 Y10.0560 
G01 X-33.4912 Y10.0560 
G01 X-33.5299 Y10.0400 
G01 X-33.5596 Y10.0103 
G01 X-33.5756 Y9.9716  
G01 X-33.5756 Y9.3296  
G01 X-33.5596 Y9.2909  
G01 X-33.5299 Y9.2612  
G01 X-33.4912 Y9.2452  
G00 Z2.5400  
G00 X-36.4412 Y1.5380  
G01 Z-0.1500 F50    
G01 X-34.5992 Y1.5380  F250   
G01 X-34.5605 Y1.5540  
G01 X-34.5308 Y1.5837  
G01 X-34.5148 Y1.6224  
G01 X-34.5148 Y2.8644  
G01 X-34.5308 Y2.9031  
G01 X-34.5605 Y2.9327  
G01 X-34.5992 Y2.9488  
G01 X-36.4412 Y2.9488  
G01 X-36.4799 Y2.9327  
G01 X-36.5096 Y2.9031  
G01 X-36.5256 Y2.8644  
G01 X-36.5256 Y1.6224  
G01 X-36.5096 Y1.5837  
G01 X-36.4799 Y1.5540  
G01 X-36.4412 Y1.5380  
G00 Z2.5400  
G00 X-36.4412 Y5.7380  
G01 Z-0.1500 F50    
G01 X-34.5992 Y5.7380  F250   
G01 X-34.5605 Y5.7540  
G01 X-34.5308 Y5.7837  
G01 X-34.5148 Y5.8224  
G01 X-34.5148 Y7.0644  
G01 X-34.5308 Y7.1031  
G01 X-34.5605 Y7.1328  
G01 X-34.5992 Y7.1488  
G01 X-36.4412 Y7.1488  
G01 X-36.4799 Y7.1328  
G01 X-36.5096 Y7.1031  
G01 X-36.5256 Y7.0644  
G01 X-36.5256 Y5.8224  
G01 X-36.5096 Y5.7837  
G01 X-36.4799 Y5.7540  
G01 X-36.4412 Y5.7380  
G00 Z2.5400  
G00 X-33.4912 Y3.4380  
G01 Z-0.1500 F50    
G01 X-31.8992 Y3.4380  F250   
G01 X-31.8605 Y3.4540  
G01 X-31.8308 Y3.4837  
G01 X-31.8148 Y3.5224  
G01 X-31.8148 Y3.5380  
G01 X-30.8382 Y3.5380  
G01 X-30.7746 Y3.5550  
G01 X-30.7464 Y3.5268  
G01 X-30.1120 Y3.5268  
G01 X-29.6634 Y3.9754  
G01 X-29.6634 Y4.6098  
G01 X-30.1120 Y5.0584  
G01 X-30.7464 Y5.0584  
G01 X-31.1950 Y4.6098  
G01 X-31.1950 Y4.1488  
G01 X-31.8148 Y4.1488  
G01 X-31.8148 Y4.1644  
G01 X-31.8308 Y4.2031  
G01 X-31.8605 Y4.2328  
G01 X-31.8992 Y4.2488  
G01 X-33.4912 Y4.2488  
G01 X-33.5299 Y4.2328  
G01 X-33.5596 Y4.2031  
G01 X-33.5756 Y4.1644  
G01 X-33.5756 Y3.5224  
G01 X-33.5596 Y3.4837  
G01 X-33.5299 Y3.4540  
G01 X-33.4912 Y3.4380  
G00 Z2.5400  
G00 X-33.4912 Y4.4380  
G01 Z-0.1500 F50    
G01 X-31.8992 Y4.4380  F250   
G01 X-31.8605 Y4.4540  
G01 X-31.8308 Y4.4837  
G01 X-31.8148 Y4.5224  
G01 X-31.8148 Y5.1644  
G01 X-31.8308 Y5.2031  
G01 X-31.8605 Y5.2328  
G01 X-31.8992 Y5.2488  
G01 X-33.1633 Y5.2488  
G01 X-33.7560 Y5.8415  
G01 X-33.7560 Y10.8076 
G01 X-33.5639 Y10.9997 
G01 X-33.5756 Y10.9716 
G01 X-33.5756 Y10.3296 
G01 X-33.5596 Y10.2909 
G01 X-33.5299 Y10.2612 
G01 X-33.4912 Y10.2452 
G01 X-31.9623 Y10.2452 
G01 X-28.7026 Y6.9855  
G01 X-28.7026 Y2.8951  
G01 X-29.3975 Y2.2002  
G01 X-29.4544 Y2.1433  
G01 X-29.4946 Y2.0737  
G01 X-29.5154 Y1.9960  
G01 X-29.5154 Y1.6348  
G01 X-29.6112 Y1.6036  
G01 X-29.7578 Y1.5289  
G01 X-29.8909 Y1.4322  
G01 X-30.0072 Y1.3159  
G01 X-30.1039 Y1.1828  
G01 X-30.1786 Y1.0362  
G01 X-30.2295 Y0.8798  
G01 X-30.2552 Y0.7173  
G01 X-30.2552 Y0.5527  
G01 X-30.2295 Y0.3902  
G01 X-30.1786 Y0.2338  
G01 X-30.1039 Y0.0872  
G01 X-30.0072 Y-0.0459 
G01 X-29.8909 Y-0.1622 
G01 X-29.7578 Y-0.2589 
G01 X-29.6112 Y-0.3336 
G01 X-29.4548 Y-0.3845 
G01 X-29.2923 Y-0.4102 
G01 X-29.1277 Y-0.4102 
G01 X-28.9652 Y-0.3845 
G01 X-28.8088 Y-0.3336 
G01 X-28.6622 Y-0.2589 
G01 X-28.5291 Y-0.1622 
G01 X-28.4128 Y-0.0459 
G01 X-28.3161 Y0.0872  
G01 X-28.2414 Y0.2338  
G01 X-28.1905 Y0.3902  
G01 X-28.1648 Y0.5527  
G01 X-28.1648 Y0.7173  
G01 X-28.1905 Y0.8798  
G01 X-28.2414 Y1.0362  
G01 X-28.3161 Y1.1828  
G01 X-28.4128 Y1.3159  
G01 X-28.5291 Y1.4322  
G01 X-28.6622 Y1.5289  
G01 X-28.8088 Y1.6036  
G01 X-28.9046 Y1.6348  
G01 X-28.9046 Y1.8293  
G01 X-28.1528 Y2.5811  
G01 X-28.1126 Y2.6507  
G01 X-28.0918 Y2.7284  
G01 X-28.0918 Y7.1522  
G01 X-28.1126 Y7.2299  
G01 X-28.1528 Y7.2995  
G01 X-28.2097 Y7.3564  
G01 X-31.6914 Y10.8381 
G01 X-31.7483 Y10.8950 
G01 X-31.8148 Y10.9334 
G01 X-31.8148 Y10.9716 
G01 X-31.8308 Y11.0103 
G01 X-31.8605 Y11.0400 
G01 X-31.8992 Y11.0560 
G01 X-33.4912 Y11.0560 
G01 X-33.5193 Y11.0443 
G01 X-33.3184 Y11.2452 
G01 X-31.9385 Y11.2452 
G01 X-30.5328 Y9.8394  
G01 X-30.4631 Y9.7992  
G01 X-30.3855 Y9.7784  
G01 X-28.2046 Y9.7784  
G01 X-28.1269 Y9.7992  
G01 X-28.0573 Y9.8394  
G01 X-27.4773 Y10.4194 
G01 X-27.4312 Y10.4102 
G01 X-27.2804 Y10.4102 
G01 X-27.1324 Y10.4396 
G01 X-26.9931 Y10.4974 
G01 X-26.8676 Y10.5812 
G01 X-26.7610 Y10.6878 
G01 X-26.6772 Y10.8133 
G01 X-26.6194 Y10.9526 
G01 X-26.5900 Y11.1006 
G01 X-26.5900 Y12.5722 
G01 X-26.6194 Y12.7202 
G01 X-26.6772 Y12.8595 
G01 X-26.7610 Y12.9850 
G01 X-26.8676 Y13.0916 
G01 X-26.9931 Y13.1754 
G01 X-27.1324 Y13.2332 
G01 X-27.2804 Y13.2626 
G01 X-27.4312 Y13.2626 
G01 X-27.5792 Y13.2332 
G01 X-27.7185 Y13.1754 
G01 X-27.8440 Y13.0916 
G01 X-27.9506 Y12.9850 
G01 X-28.0344 Y12.8595 
G01 X-28.0922 Y12.7202 
G01 X-28.1216 Y12.5722 
G01 X-28.1216 Y11.1006 
G01 X-28.0922 Y10.9526 
G01 X-28.0344 Y10.8133 
G01 X-27.9995 Y10.7610 
G01 X-28.3713 Y10.3892 
G01 X-30.2187 Y10.3892 
G01 X-31.6710 Y11.8414 
G01 X-31.7278 Y11.8983 
G01 X-31.7975 Y11.9385 
G01 X-31.8148 Y11.9431 
G01 X-31.8148 Y11.9716 
G01 X-31.8308 Y12.0103 
G01 X-31.8605 Y12.0400 
G01 X-31.8992 Y12.0560 
G01 X-33.4912 Y12.0560 
G01 X-33.5299 Y12.0400 
G01 X-33.5596 Y12.0103 
G01 X-33.5756 Y11.9716 
G01 X-33.5756 Y11.8518 
G01 X-34.3058 Y11.1217 
G01 X-34.3460 Y11.0520 
G01 X-34.3668 Y10.9743 
G01 X-34.3668 Y5.6748  
G01 X-34.3460 Y5.5971  
G01 X-34.3058 Y5.5275  
G01 X-33.5756 Y4.7973  
G01 X-33.5756 Y4.5224  
G01 X-33.5596 Y4.4837  
G01 X-33.5299 Y4.4540  
G01 X-33.4912 Y4.4380  
G00 Z2.5400  
G00 X-25.6248 Y0.5527  
G01 Z-0.1500 F50    
G01 X-25.6248 Y0.7173  F250   
G01 X-25.6505 Y0.8798  
G01 X-25.7014 Y1.0362  
G01 X-25.7761 Y1.1828  
G01 X-25.8728 Y1.3159  
G01 X-25.9891 Y1.4322  
G01 X-26.1222 Y1.5289  
G01 X-26.2688 Y1.6036  
G01 X-26.4252 Y1.6545  
G01 X-26.5877 Y1.6802  
G01 X-26.7523 Y1.6802  
G01 X-26.9148 Y1.6545  
G01 X-27.0712 Y1.6036  
G01 X-27.2178 Y1.5289  
G01 X-27.3509 Y1.4322  
G01 X-27.4672 Y1.3159  
G01 X-27.5639 Y1.1828  
G01 X-27.6386 Y1.0362  
G01 X-27.6895 Y0.8798  
G01 X-27.7152 Y0.7173  
G01 X-27.7152 Y0.5527  
G01 X-27.6895 Y0.3902  
G01 X-27.6386 Y0.2338  
G01 X-27.5639 Y0.0872  
G01 X-27.4672 Y-0.0459 
G01 X-27.3509 Y-0.1622 
G01 X-27.2178 Y-0.2589 
G01 X-27.0712 Y-0.3336 
G01 X-26.9148 Y-0.3845 
G01 X-26.7523 Y-0.4102 
G01 X-26.5877 Y-0.4102 
G01 X-26.4252 Y-0.3845 
G01 X-26.2688 Y-0.3336 
G01 X-26.1222 Y-0.2589 
G01 X-25.9891 Y-0.1622 
G01 X-25.8728 Y-0.0459 
G01 X-25.7761 Y0.0872  
G01 X-25.7014 Y0.2338  
G01 X-25.6505 Y0.3902  
G01 X-25.6248 Y0.5527  
G00 Z2.5400  
G00 X-23.0848 Y0.5527  
G01 Z-0.1500 F50    
G01 X-23.0848 Y0.7173  F250   
G01 X-23.1105 Y0.8798  
G01 X-23.1614 Y1.0362  
G01 X-23.2361 Y1.1828  
G01 X-23.3328 Y1.3159  
G01 X-23.4491 Y1.4322  
G01 X-23.5822 Y1.5289  
G01 X-23.7288 Y1.6036  
G01 X-23.8852 Y1.6545  
G01 X-24.0477 Y1.6802  
G01 X-24.2123 Y1.6802  
G01 X-24.3748 Y1.6545  
G01 X-24.5312 Y1.6036  
G01 X-24.6778 Y1.5289  
G01 X-24.8109 Y1.4322  
G01 X-24.9272 Y1.3159  
G01 X-25.0239 Y1.1828  
G01 X-25.0986 Y1.0362  
G01 X-25.1495 Y0.8798  
G01 X-25.1752 Y0.7173  
G01 X-25.1752 Y0.5527  
G01 X-25.1495 Y0.3902  
G01 X-25.0986 Y0.2338  
G01 X-25.0239 Y0.0872  
G01 X-24.9272 Y-0.0459 
G01 X-24.8109 Y-0.1622 
G01 X-24.6778 Y-0.2589 
G01 X-24.5312 Y-0.3336 
G01 X-24.3748 Y-0.3845 
G01 X-24.2123 Y-0.4102 
G01 X-24.0477 Y-0.4102 
G01 X-23.8852 Y-0.3845 
G01 X-23.7288 Y-0.3336 
G01 X-23.5822 Y-0.2589 
G01 X-23.4491 Y-0.1622 
G01 X-23.3328 Y-0.0459 
G01 X-23.2361 Y0.0872  
G01 X-23.1614 Y0.2338  
G01 X-23.1105 Y0.3902  
G01 X-23.0848 Y0.5527  
G00 Z2.5400  
G00 X-20.5448 Y0.5527  
G01 Z-0.1500 F50    
G01 X-20.5448 Y0.7173  F250   
G01 X-20.5705 Y0.8798  
G01 X-20.6214 Y1.0362  
G01 X-20.6961 Y1.1828  
G01 X-20.7928 Y1.3159  
G01 X-20.9091 Y1.4322  
G01 X-21.0422 Y1.5289  
G01 X-21.1888 Y1.6036  
G01 X-21.3452 Y1.6545  
G01 X-21.5077 Y1.6802  
G01 X-21.6723 Y1.6802  
G01 X-21.8347 Y1.6545  
G01 X-21.9912 Y1.6036  
G01 X-22.1378 Y1.5289  
G01 X-22.2709 Y1.4322  
G01 X-22.3872 Y1.3159  
G01 X-22.4839 Y1.1828  
G01 X-22.5586 Y1.0362  
G01 X-22.6095 Y0.8798  
G01 X-22.6352 Y0.7173  
G01 X-22.6352 Y0.5527  
G01 X-22.6095 Y0.3902  
G01 X-22.5586 Y0.2338  
G01 X-22.4839 Y0.0872  
G01 X-22.3872 Y-0.0459 
G01 X-22.2709 Y-0.1622 
G01 X-22.1378 Y-0.2589 
G01 X-21.9912 Y-0.3336 
G01 X-21.8347 Y-0.3845 
G01 X-21.6723 Y-0.4102 
G01 X-21.5077 Y-0.4102 
G01 X-21.3452 Y-0.3845 
G01 X-21.1888 Y-0.3336 
G01 X-21.0422 Y-0.2589 
G01 X-20.9091 Y-0.1622 
G01 X-20.7928 Y-0.0459 
G01 X-20.6961 Y0.0872  
G01 X-20.6214 Y0.2338  
G01 X-20.5705 Y0.3902  
G01 X-20.5448 Y0.5527  
G00 Z2.5400  
G00 X-15.4648 Y0.5527  
G01 Z-0.1500 F50    
G01 X-15.4648 Y0.7173  F250   
G01 X-15.4905 Y0.8798  
G01 X-15.5414 Y1.0362  
G01 X-15.6161 Y1.1828  
G01 X-15.7128 Y1.3159  
G01 X-15.8291 Y1.4322  
G01 X-15.9622 Y1.5289  
G01 X-16.1088 Y1.6036  
G01 X-16.2652 Y1.6545  
G01 X-16.4277 Y1.6802  
G01 X-16.5923 Y1.6802  
G01 X-16.7548 Y1.6545  
G01 X-16.9112 Y1.6036  
G01 X-17.0578 Y1.5289  
G01 X-17.1909 Y1.4322  
G01 X-17.3072 Y1.3159  
G01 X-17.4039 Y1.1828  
G01 X-17.4786 Y1.0362  
G01 X-17.5295 Y0.8798  
G01 X-17.5552 Y0.7173  
G01 X-17.5552 Y0.5527  
G01 X-17.5295 Y0.3902  
G01 X-17.4786 Y0.2338  
G01 X-17.4039 Y0.0872  
G01 X-17.3072 Y-0.0459 
G01 X-17.1909 Y-0.1622 
G01 X-17.0578 Y-0.2589 
G01 X-16.9112 Y-0.3336 
G01 X-16.7548 Y-0.3845 
G01 X-16.5923 Y-0.4102 
G01 X-16.4277 Y-0.4102 
G01 X-16.2652 Y-0.3845 
G01 X-16.1088 Y-0.3336 
G01 X-15.9622 Y-0.2589 
G01 X-15.8291 Y-0.1622 
G01 X-15.7128 Y-0.0459 
G01 X-15.6161 Y0.0872  
G01 X-15.5414 Y0.2338  
G01 X-15.4905 Y0.3902  
G01 X-15.4648 Y0.5527  
G00 Z2.5400  
G00 X-12.9248 Y0.5527  
G01 Z-0.1500 F50    
G01 X-12.9248 Y0.7173  F250   
G01 X-12.9505 Y0.8798  
G01 X-13.0014 Y1.0362  
G01 X-13.0761 Y1.1828  
G01 X-13.1728 Y1.3159  
G01 X-13.2891 Y1.4322  
G01 X-13.4222 Y1.5289  
G01 X-13.5688 Y1.6036  
G01 X-13.7252 Y1.6545  
G01 X-13.8877 Y1.6802  
G01 X-14.0523 Y1.6802  
G01 X-14.2148 Y1.6545  
G01 X-14.3712 Y1.6036  
G01 X-14.5178 Y1.5289  
G01 X-14.6509 Y1.4322  
G01 X-14.7672 Y1.3159  
G01 X-14.8639 Y1.1828  
G01 X-14.9386 Y1.0362  
G01 X-14.9895 Y0.8798  
G01 X-15.0152 Y0.7173  
G01 X-15.0152 Y0.5527  
G01 X-14.9895 Y0.3902  
G01 X-14.9386 Y0.2338  
G01 X-14.8639 Y0.0872  
G01 X-14.7672 Y-0.0459 
G01 X-14.6509 Y-0.1622 
G01 X-14.5178 Y-0.2589 
G01 X-14.3712 Y-0.3336 
G01 X-14.2148 Y-0.3845 
G01 X-14.0523 Y-0.4102 
G01 X-13.8877 Y-0.4102 
G01 X-13.7252 Y-0.3845 
G01 X-13.5688 Y-0.3336 
G01 X-13.4222 Y-0.2589 
G01 X-13.2891 Y-0.1622 
G01 X-13.1728 Y-0.0459 
G01 X-13.0761 Y0.0872  
G01 X-13.0014 Y0.2338  
G01 X-12.9505 Y0.3902  
G01 X-12.9248 Y0.5527  
G00 Z2.5400  
G00 X-10.3848 Y0.5527  
G01 Z-0.1500 F50    
G01 X-10.3848 Y0.7173  F250   
G01 X-10.4105 Y0.8798  
G01 X-10.4614 Y1.0362  
G01 X-10.5361 Y1.1828  
G01 X-10.6328 Y1.3159  
G01 X-10.7491 Y1.4322  
G01 X-10.8822 Y1.5289  
G01 X-11.0288 Y1.6036  
G01 X-11.1852 Y1.6545  
G01 X-11.3477 Y1.6802  
G01 X-11.5123 Y1.6802  
G01 X-11.6748 Y1.6545  
G01 X-11.8312 Y1.6036  
G01 X-11.9778 Y1.5289  
G01 X-12.1109 Y1.4322  
G01 X-12.2272 Y1.3159  
G01 X-12.3239 Y1.1828  
G01 X-12.3986 Y1.0362  
G01 X-12.4495 Y0.8798  
G01 X-12.4752 Y0.7173  
G01 X-12.4752 Y0.5527  
G01 X-12.4495 Y0.3902  
G01 X-12.3986 Y0.2338  
G01 X-12.3239 Y0.0872  
G01 X-12.2272 Y-0.0459 
G01 X-12.1109 Y-0.1622 
G01 X-11.9778 Y-0.2589 
G01 X-11.8312 Y-0.3336 
G01 X-11.6748 Y-0.3845 
G01 X-11.5123 Y-0.4102 
G01 X-11.3477 Y-0.4102 
G01 X-11.1852 Y-0.3845 
G01 X-11.0288 Y-0.3336 
G01 X-10.8822 Y-0.2589 
G01 X-10.7491 Y-0.1622 
G01 X-10.6328 Y-0.0459 
G01 X-10.5361 Y0.0872  
G01 X-10.4614 Y0.2338  
G01 X-10.4105 Y0.3902  
G01 X-10.3848 Y0.5527  
G00 Z2.5400  
G00 X-7.8448 Y0.5527  
G01 Z-0.1500 F50    
G01 X-7.8448 Y0.7173  F250   
G01 X-7.8705 Y0.8798  
G01 X-7.9214 Y1.0362  
G01 X-7.9961 Y1.1828  
G01 X-8.0928 Y1.3159  
G01 X-8.2091 Y1.4322  
G01 X-8.3422 Y1.5289  
G01 X-8.4888 Y1.6036  
G01 X-8.6452 Y1.6545  
G01 X-8.8077 Y1.6802  
G01 X-8.9723 Y1.6802  
G01 X-9.1348 Y1.6545  
G01 X-9.2912 Y1.6036  
G01 X-9.4378 Y1.5289  
G01 X-9.5709 Y1.4322  
G01 X-9.6872 Y1.3159  
G01 X-9.7839 Y1.1828  
G01 X-9.8586 Y1.0362  
G01 X-9.9095 Y0.8798  
G01 X-9.9352 Y0.7173  
G01 X-9.9352 Y0.5527  
G01 X-9.9095 Y0.3902  
G01 X-9.8586 Y0.2338  
G01 X-9.7839 Y0.0872  
G01 X-9.6872 Y-0.0459 
G01 X-9.5709 Y-0.1622 
G01 X-9.4378 Y-0.2589 
G01 X-9.2912 Y-0.3336 
G01 X-9.1348 Y-0.3845 
G01 X-8.9723 Y-0.4102 
G01 X-8.8077 Y-0.4102 
G01 X-8.6452 Y-0.3845 
G01 X-8.4888 Y-0.3336 
G01 X-8.3422 Y-0.2589 
G01 X-8.2091 Y-0.1622 
G01 X-8.0928 Y-0.0459 
G01 X-7.9961 Y0.0872  
G01 X-7.9214 Y0.2338  
G01 X-7.8705 Y0.3902  
G01 X-7.8448 Y0.5527  
G00 Z2.5400  
G00 X-5.3048 Y0.5527  
G01 Z-0.1500 F50    
G01 X-5.3048 Y0.7173  F250   
G01 X-5.3305 Y0.8798  
G01 X-5.3814 Y1.0362  
G01 X-5.4561 Y1.1828  
G01 X-5.5528 Y1.3159  
G01 X-5.6691 Y1.4322  
G01 X-5.8022 Y1.5289  
G01 X-5.9488 Y1.6036  
G01 X-6.1052 Y1.6545  
G01 X-6.2677 Y1.6802  
G01 X-6.4323 Y1.6802  
G01 X-6.5948 Y1.6545  
G01 X-6.7512 Y1.6036  
G01 X-6.8978 Y1.5289  
G01 X-7.0309 Y1.4322  
G01 X-7.1472 Y1.3159  
G01 X-7.2439 Y1.1828  
G01 X-7.3186 Y1.0362  
G01 X-7.3695 Y0.8798  
G01 X-7.3952 Y0.7173  
G01 X-7.3952 Y0.5527  
G01 X-7.3695 Y0.3902  
G01 X-7.3186 Y0.2338  
G01 X-7.2439 Y0.0872  
G01 X-7.1472 Y-0.0459 
G01 X-7.0309 Y-0.1622 
G01 X-6.8978 Y-0.2589 
G01 X-6.7512 Y-0.3336 
G01 X-6.5948 Y-0.3845 
G01 X-6.4323 Y-0.4102 
G01 X-6.2677 Y-0.4102 
G01 X-6.1052 Y-0.3845 
G01 X-5.9488 Y-0.3336 
G01 X-5.8022 Y-0.2589 
G01 X-5.6691 Y-0.1622 
G01 X-5.5528 Y-0.0459 
G01 X-5.4561 Y0.0872  
G01 X-5.3814 Y0.2338  
G01 X-5.3305 Y0.3902  
G01 X-5.3048 Y0.5527  
G00 Z2.5400  
G00 X-2.7648 Y0.5527  
G01 Z-0.1500 F50    
G01 X-2.7648 Y0.7173  F250   
G01 X-2.7905 Y0.8798  
G01 X-2.8414 Y1.0362  
G01 X-2.9161 Y1.1828  
G01 X-3.0128 Y1.3159  
G01 X-3.1291 Y1.4322  
G01 X-3.2622 Y1.5289  
G01 X-3.4088 Y1.6036  
G01 X-3.5652 Y1.6545  
G01 X-3.7277 Y1.6802  
G01 X-3.8923 Y1.6802  
G01 X-4.0548 Y1.6545  
G01 X-4.2112 Y1.6036  
G01 X-4.3578 Y1.5289  
G01 X-4.4909 Y1.4322  
G01 X-4.6072 Y1.3159  
G01 X-4.7039 Y1.1828  
G01 X-4.7786 Y1.0362  
G01 X-4.8295 Y0.8798  
G01 X-4.8552 Y0.7173  
G01 X-4.8552 Y0.5527  
G01 X-4.8295 Y0.3902  
G01 X-4.7786 Y0.2338  
G01 X-4.7039 Y0.0872  
G01 X-4.6072 Y-0.0459 
G01 X-4.4909 Y-0.1622 
G01 X-4.3578 Y-0.2589 
G01 X-4.2112 Y-0.3336 
G01 X-4.0548 Y-0.3845 
G01 X-3.8923 Y-0.4102 
G01 X-3.7277 Y-0.4102 
G01 X-3.5652 Y-0.3845 
G01 X-3.4088 Y-0.3336 
G01 X-3.2622 Y-0.2589 
G01 X-3.1291 Y-0.1622 
G01 X-3.0128 Y-0.0459 
G01 X-2.9161 Y0.0872  
G01 X-2.8414 Y0.2338  
G01 X-2.7905 Y0.3902  
G01 X-2.7648 Y0.5527  
G00 Z2.5400  
G00 X-2.7648 Y15.7927 
G01 Z-0.1500 F50    
G01 X-2.7648 Y15.9573 F250   
G01 X-2.7905 Y16.1197 
G01 X-2.8414 Y16.2762 
G01 X-2.9161 Y16.4228 
G01 X-3.0128 Y16.5559 
G01 X-3.1291 Y16.6722 
G01 X-3.2622 Y16.7689 
G01 X-3.4088 Y16.8436 
G01 X-3.5652 Y16.8945 
G01 X-3.7277 Y16.9202 
G01 X-3.8923 Y16.9202 
G01 X-4.0548 Y16.8945 
G01 X-4.2112 Y16.8436 
G01 X-4.3578 Y16.7689 
G01 X-4.4909 Y16.6722 
G01 X-4.6072 Y16.5559 
G01 X-4.7039 Y16.4228 
G01 X-4.7786 Y16.2762 
G01 X-4.8295 Y16.1197 
G01 X-4.8552 Y15.9573 
G01 X-4.8552 Y15.7927 
G01 X-4.8295 Y15.6302 
G01 X-4.7786 Y15.4738 
G01 X-4.7039 Y15.3272 
G01 X-4.6072 Y15.1941 
G01 X-4.4909 Y15.0778 
G01 X-4.3578 Y14.9811 
G01 X-4.2112 Y14.9064 
G01 X-4.0548 Y14.8555 
G01 X-3.8923 Y14.8298 
G01 X-3.7277 Y14.8298 
G01 X-3.5652 Y14.8555 
G01 X-3.4088 Y14.9064 
G01 X-3.2622 Y14.9811 
G01 X-3.1291 Y15.0778 
G01 X-3.0128 Y15.1941 
G01 X-2.9161 Y15.3272 
G01 X-2.8414 Y15.4738 
G01 X-2.7905 Y15.6302 
G01 X-2.7648 Y15.7927 
G00 Z2.5400  
G00 X-5.3048 Y15.7927 
G01 Z-0.1500 F50    
G01 X-5.3048 Y15.9573 F250   
G01 X-5.3305 Y16.1197 
G01 X-5.3814 Y16.2762 
G01 X-5.4561 Y16.4228 
G01 X-5.5528 Y16.5559 
G01 X-5.6691 Y16.6722 
G01 X-5.8022 Y16.7689 
G01 X-5.9488 Y16.8436 
G01 X-6.1052 Y16.8945 
G01 X-6.2677 Y16.9202 
G01 X-6.4323 Y16.9202 
G01 X-6.5948 Y16.8945 
G01 X-6.7512 Y16.8436 
G01 X-6.8978 Y16.7689 
G01 X-7.0309 Y16.6722 
G01 X-7.1472 Y16.5559 
G01 X-7.2439 Y16.4228 
G01 X-7.3186 Y16.2762 
G01 X-7.3695 Y16.1197 
G01 X-7.3952 Y15.9573 
G01 X-7.3952 Y15.7927 
G01 X-7.3695 Y15.6302 
G01 X-7.3186 Y15.4738 
G01 X-7.2439 Y15.3272 
G01 X-7.1472 Y15.1941 
G01 X-7.0309 Y15.0778 
G01 X-6.8978 Y14.9811 
G01 X-6.7512 Y14.9064 
G01 X-6.5948 Y14.8555 
G01 X-6.4323 Y14.8298 
G01 X-6.2677 Y14.8298 
G01 X-6.1052 Y14.8555 
G01 X-5.9488 Y14.9064 
G01 X-5.8022 Y14.9811 
G01 X-5.6691 Y15.0778 
G01 X-5.5528 Y15.1941 
G01 X-5.4561 Y15.3272 
G01 X-5.3814 Y15.4738 
G01 X-5.3305 Y15.6302 
G01 X-5.3048 Y15.7927 
G00 Z2.5400  
G00 X-7.8448 Y15.7927 
G01 Z-0.1500 F50    
G01 X-7.8448 Y15.9573 F250   
G01 X-7.8705 Y16.1197 
G01 X-7.9214 Y16.2762 
G01 X-7.9961 Y16.4228 
G01 X-8.0928 Y16.5559 
G01 X-8.2091 Y16.6722 
G01 X-8.3422 Y16.7689 
G01 X-8.4888 Y16.8436 
G01 X-8.6452 Y16.8945 
G01 X-8.8077 Y16.9202 
G01 X-8.9723 Y16.9202 
G01 X-9.1348 Y16.8945 
G01 X-9.2912 Y16.8436 
G01 X-9.4378 Y16.7689 
G01 X-9.5709 Y16.6722 
G01 X-9.6872 Y16.5559 
G01 X-9.7839 Y16.4228 
G01 X-9.8586 Y16.2762 
G01 X-9.9095 Y16.1197 
G01 X-9.9352 Y15.9573 
G01 X-9.9352 Y15.7927 
G01 X-9.9095 Y15.6302 
G01 X-9.8586 Y15.4738 
G01 X-9.7839 Y15.3272 
G01 X-9.6872 Y15.1941 
G01 X-9.5709 Y15.0778 
G01 X-9.4378 Y14.9811 
G01 X-9.2912 Y14.9064 
G01 X-9.1348 Y14.8555 
G01 X-8.9723 Y14.8298 
G01 X-8.8077 Y14.8298 
G01 X-8.6452 Y14.8555 
G01 X-8.4888 Y14.9064 
G01 X-8.3422 Y14.9811 
G01 X-8.2091 Y15.0778 
G01 X-8.0928 Y15.1941 
G01 X-7.9961 Y15.3272 
G01 X-7.9214 Y15.4738 
G01 X-7.8705 Y15.6302 
G01 X-7.8448 Y15.7927 
G00 Z2.5400  
G00 X-10.3848 Y15.7927 
G01 Z-0.1500 F50    
G01 X-10.3848 Y15.9573 F250   
G01 X-10.4105 Y16.1197 
G01 X-10.4614 Y16.2762 
G01 X-10.5361 Y16.4228 
G01 X-10.6328 Y16.5559 
G01 X-10.7491 Y16.6722 
G01 X-10.8822 Y16.7689 
G01 X-11.0288 Y16.8436 
G01 X-11.1852 Y16.8945 
G01 X-11.3477 Y16.9202 
G01 X-11.5123 Y16.9202 
G01 X-11.6748 Y16.8945 
G01 X-11.8312 Y16.8436 
G01 X-11.9778 Y16.7689 
G01 X-12.1109 Y16.6722 
G01 X-12.2272 Y16.5559 
G01 X-12.3239 Y16.4228 
G01 X-12.3986 Y16.2762 
G01 X-12.4495 Y16.1197 
G01 X-12.4752 Y15.9573 
G01 X-12.4752 Y15.7927 
G01 X-12.4495 Y15.6302 
G01 X-12.3986 Y15.4738 
G01 X-12.3239 Y15.3272 
G01 X-12.2272 Y15.1941 
G01 X-12.1109 Y15.0778 
G01 X-11.9778 Y14.9811 
G01 X-11.8312 Y14.9064 
G01 X-11.6748 Y14.8555 
G01 X-11.5123 Y14.8298 
G01 X-11.3477 Y14.8298 
G01 X-11.1852 Y14.8555 
G01 X-11.0288 Y14.9064 
G01 X-10.8822 Y14.9811 
G01 X-10.7491 Y15.0778 
G01 X-10.6328 Y15.1941 
G01 X-10.5361 Y15.3272 
G01 X-10.4614 Y15.4738 
G01 X-10.4105 Y15.6302 
G01 X-10.3848 Y15.7927 
G00 Z2.5400  
G00 X-12.9248 Y15.7927 
G01 Z-0.1500 F50    
G01 X-12.9248 Y15.9573 F250   
G01 X-12.9505 Y16.1197 
G01 X-13.0014 Y16.2762 
G01 X-13.0761 Y16.4228 
G01 X-13.1728 Y16.5559 
G01 X-13.2891 Y16.6722 
G01 X-13.4222 Y16.7689 
G01 X-13.5688 Y16.8436 
G01 X-13.7252 Y16.8945 
G01 X-13.8877 Y16.9202 
G01 X-14.0523 Y16.9202 
G01 X-14.2148 Y16.8945 
G01 X-14.3712 Y16.8436 
G01 X-14.5178 Y16.7689 
G01 X-14.6509 Y16.6722 
G01 X-14.7672 Y16.5559 
G01 X-14.8639 Y16.4228 
G01 X-14.9386 Y16.2762 
G01 X-14.9895 Y16.1197 
G01 X-15.0152 Y15.9573 
G01 X-15.0152 Y15.7927 
G01 X-14.9895 Y15.6302 
G01 X-14.9386 Y15.4738 
G01 X-14.8639 Y15.3272 
G01 X-14.7672 Y15.1941 
G01 X-14.6509 Y15.0778 
G01 X-14.5178 Y14.9811 
G01 X-14.3712 Y14.9064 
G01 X-14.2148 Y14.8555 
G01 X-14.0523 Y14.8298 
G01 X-13.8877 Y14.8298 
G01 X-13.7252 Y14.8555 
G01 X-13.5688 Y14.9064 
G01 X-13.4222 Y14.9811 
G01 X-13.2891 Y15.0778 
G01 X-13.1728 Y15.1941 
G01 X-13.0761 Y15.3272 
G01 X-13.0014 Y15.4738 
G01 X-12.9505 Y15.6302 
G01 X-12.9248 Y15.7927 
G00 Z2.5400  
G00 X-15.4648 Y15.7927 
G01 Z-0.1500 F50    
G01 X-15.4648 Y15.9573 F250   
G01 X-15.4905 Y16.1197 
G01 X-15.5414 Y16.2762 
G01 X-15.6161 Y16.4228 
G01 X-15.7128 Y16.5559 
G01 X-15.8291 Y16.6722 
G01 X-15.9622 Y16.7689 
G01 X-16.1088 Y16.8436 
G01 X-16.2652 Y16.8945 
G01 X-16.4277 Y16.9202 
G01 X-16.5923 Y16.9202 
G01 X-16.7548 Y16.8945 
G01 X-16.9112 Y16.8436 
G01 X-17.0578 Y16.7689 
G01 X-17.1909 Y16.6722 
G01 X-17.3072 Y16.5559 
G01 X-17.4039 Y16.4228 
G01 X-17.4786 Y16.2762 
G01 X-17.5295 Y16.1197 
G01 X-17.5552 Y15.9573 
G01 X-17.5552 Y15.7927 
G01 X-17.5295 Y15.6302 
G01 X-17.4786 Y15.4738 
G01 X-17.4039 Y15.3272 
G01 X-17.3072 Y15.1941 
G01 X-17.1909 Y15.0778 
G01 X-17.0578 Y14.9811 
G01 X-16.9112 Y14.9064 
G01 X-16.7548 Y14.8555 
G01 X-16.5923 Y14.8298 
G01 X-16.4277 Y14.8298 
G01 X-16.2652 Y14.8555 
G01 X-16.1088 Y14.9064 
G01 X-15.9622 Y14.9811 
G01 X-15.8291 Y15.0778 
G01 X-15.7128 Y15.1941 
G01 X-15.6161 Y15.3272 
G01 X-15.5414 Y15.4738 
G01 X-15.4905 Y15.6302 
G01 X-15.4648 Y15.7927 
G00 Z2.5400  
G00 X-18.0048 Y15.7927 
G01 Z-0.1500 F50    
G01 X-18.0048 Y15.9573 F250   
G01 X-18.0305 Y16.1197 
G01 X-18.0814 Y16.2762 
G01 X-18.1561 Y16.4228 
G01 X-18.2528 Y16.5559 
G01 X-18.3691 Y16.6722 
G01 X-18.5022 Y16.7689 
G01 X-18.6488 Y16.8436 
G01 X-18.8052 Y16.8945 
G01 X-18.9677 Y16.9202 
G01 X-19.1323 Y16.9202 
G01 X-19.2948 Y16.8945 
G01 X-19.4512 Y16.8436 
G01 X-19.5978 Y16.7689 
G01 X-19.7309 Y16.6722 
G01 X-19.8472 Y16.5559 
G01 X-19.9439 Y16.4228 
G01 X-20.0186 Y16.2762 
G01 X-20.0695 Y16.1197 
G01 X-20.0952 Y15.9573 
G01 X-20.0952 Y15.7927 
G01 X-20.0695 Y15.6302 
G01 X-20.0186 Y15.4738 
G01 X-19.9439 Y15.3272 
G01 X-19.8472 Y15.1941 
G01 X-19.7309 Y15.0778 
G01 X-19.5978 Y14.9811 
G01 X-19.4512 Y14.9064 
G01 X-19.2948 Y14.8555 
G01 X-19.1323 Y14.8298 
G01 X-18.9677 Y14.8298 
G01 X-18.8052 Y14.8555 
G01 X-18.6488 Y14.9064 
G01 X-18.5022 Y14.9811 
G01 X-18.3691 Y15.0778 
G01 X-18.2528 Y15.1941 
G01 X-18.1561 Y15.3272 
G01 X-18.0814 Y15.4738 
G01 X-18.0305 Y15.6302 
G01 X-18.0048 Y15.7927 
G00 Z2.5400  
G00 X-20.5448 Y15.7927 
G01 Z-0.1500 F50    
G01 X-20.5448 Y15.9573 F250   
G01 X-20.5705 Y16.1197 
G01 X-20.6214 Y16.2762 
G01 X-20.6961 Y16.4228 
G01 X-20.7928 Y16.5559 
G01 X-20.9091 Y16.6722 
G01 X-21.0422 Y16.7689 
G01 X-21.1888 Y16.8436 
G01 X-21.3452 Y16.8945 
G01 X-21.5077 Y16.9202 
G01 X-21.6723 Y16.9202 
G01 X-21.8347 Y16.8945 
G01 X-21.9912 Y16.8436 
G01 X-22.1378 Y16.7689 
G01 X-22.2709 Y16.6722 
G01 X-22.3872 Y16.5559 
G01 X-22.4839 Y16.4228 
G01 X-22.5586 Y16.2762 
G01 X-22.6095 Y16.1197 
G01 X-22.6352 Y15.9573 
G01 X-22.6352 Y15.7927 
G01 X-22.6095 Y15.6302 
G01 X-22.5586 Y15.4738 
G01 X-22.4839 Y15.3272 
G01 X-22.3872 Y15.1941 
G01 X-22.2709 Y15.0778 
G01 X-22.1378 Y14.9811 
G01 X-21.9912 Y14.9064 
G01 X-21.8347 Y14.8555 
G01 X-21.6723 Y14.8298 
G01 X-21.5077 Y14.8298 
G01 X-21.3452 Y14.8555 
G01 X-21.1888 Y14.9064 
G01 X-21.0422 Y14.9811 
G01 X-20.9091 Y15.0778 
G01 X-20.7928 Y15.1941 
G01 X-20.6961 Y15.3272 
G01 X-20.6214 Y15.4738 
G01 X-20.5705 Y15.6302 
G01 X-20.5448 Y15.7927 
G00 Z2.5400  
G00 X-25.6248 Y15.7927 
G01 Z-0.1500 F50    
G01 X-25.6248 Y15.9573 F250   
G01 X-25.6505 Y16.1197 
G01 X-25.7014 Y16.2762 
G01 X-25.7761 Y16.4228 
G01 X-25.8728 Y16.5559 
G01 X-25.9891 Y16.6722 
G01 X-26.1222 Y16.7689 
G01 X-26.2688 Y16.8436 
G01 X-26.4252 Y16.8945 
G01 X-26.5877 Y16.9202 
G01 X-26.7523 Y16.9202 
G01 X-26.9148 Y16.8945 
G01 X-27.0712 Y16.8436 
G01 X-27.2178 Y16.7689 
G01 X-27.3509 Y16.6722 
G01 X-27.4672 Y16.5559 
G01 X-27.5639 Y16.4228 
G01 X-27.6386 Y16.2762 
G01 X-27.6895 Y16.1197 
G01 X-27.7152 Y15.9573 
G01 X-27.7152 Y15.7927 
G01 X-27.6895 Y15.6302 
G01 X-27.6386 Y15.4738 
G01 X-27.5639 Y15.3272 
G01 X-27.4672 Y15.1941 
G01 X-27.3509 Y15.0778 
G01 X-27.2178 Y14.9811 
G01 X-27.0712 Y14.9064 
G01 X-26.9148 Y14.8555 
G01 X-26.7523 Y14.8298 
G01 X-26.5877 Y14.8298 
G01 X-26.4252 Y14.8555 
G01 X-26.2688 Y14.9064 
G01 X-26.1222 Y14.9811 
G01 X-25.9891 Y15.0778 
G01 X-25.8728 Y15.1941 
G01 X-25.7761 Y15.3272 
G01 X-25.7014 Y15.4738 
G01 X-25.6505 Y15.6302 
G01 X-25.6248 Y15.7927 
G00 Z2.5400  
G00 X-28.1648 Y15.7927 
G01 Z-0.1500 F50    
G01 X-28.1648 Y15.9573 F250   
G01 X-28.1905 Y16.1197 
G01 X-28.2414 Y16.2762 
G01 X-28.3161 Y16.4228 
G01 X-28.4128 Y16.5559 
G01 X-28.5291 Y16.6722 
G01 X-28.6622 Y16.7689 
G01 X-28.8088 Y16.8436 
G01 X-28.9652 Y16.8945 
G01 X-29.1277 Y16.9202 
G01 X-29.2923 Y16.9202 
G01 X-29.4548 Y16.8945 
G01 X-29.6112 Y16.8436 
G01 X-29.7578 Y16.7689 
G01 X-29.8909 Y16.6722 
G01 X-30.0072 Y16.5559 
G01 X-30.1039 Y16.4228 
G01 X-30.1786 Y16.2762 
G01 X-30.2295 Y16.1197 
G01 X-30.2552 Y15.9573 
G01 X-30.2552 Y15.7927 
G01 X-30.2295 Y15.6302 
G01 X-30.1786 Y15.4738 
G01 X-30.1039 Y15.3272 
G01 X-30.0072 Y15.1941 
G01 X-29.8909 Y15.0778 
G01 X-29.7578 Y14.9811 
G01 X-29.6112 Y14.9064 
G01 X-29.4548 Y14.8555 
G01 X-29.2923 Y14.8298 
G01 X-29.1277 Y14.8298 
G01 X-28.9652 Y14.8555 
G01 X-28.8088 Y14.9064 
G01 X-28.6622 Y14.9811 
G01 X-28.5291 Y15.0778 
G01 X-28.4128 Y15.1941 
G01 X-28.3161 Y15.3272 
G01 X-28.2414 Y15.4738 
G01 X-28.1905 Y15.6302 
G01 X-28.1648 Y15.7927 
G00 Z2.5400  
G00 X-30.7048 Y15.7927 
G01 Z-0.1500 F50    
G01 X-30.7048 Y15.9573 F250   
G01 X-30.7305 Y16.1197 
G01 X-30.7814 Y16.2762 
G01 X-30.8561 Y16.4228 
G01 X-30.9528 Y16.5559 
G01 X-31.0691 Y16.6722 
G01 X-31.2022 Y16.7689 
G01 X-31.3488 Y16.8436 
G01 X-31.5052 Y16.8945 
G01 X-31.6677 Y16.9202 
G01 X-31.8323 Y16.9202 
G01 X-31.9947 Y16.8945 
G01 X-32.1512 Y16.8436 
G01 X-32.2978 Y16.7689 
G01 X-32.4309 Y16.6722 
G01 X-32.5472 Y16.5559 
G01 X-32.6439 Y16.4228 
G01 X-32.7186 Y16.2762 
G01 X-32.7695 Y16.1197 
G01 X-32.7952 Y15.9573 
G01 X-32.7952 Y15.7927 
G01 X-32.7695 Y15.6302 
G01 X-32.7186 Y15.4738 
G01 X-32.6439 Y15.3272 
G01 X-32.5472 Y15.1941 
G01 X-32.4309 Y15.0778 
G01 X-32.2978 Y14.9811 
G01 X-32.1512 Y14.9064 
G01 X-31.9947 Y14.8555 
G01 X-31.8323 Y14.8298 
G01 X-31.6677 Y14.8298 
G01 X-31.5052 Y14.8555 
G01 X-31.3488 Y14.9064 
G01 X-31.2022 Y14.9811 
G01 X-31.0691 Y15.0778 
G01 X-30.9528 Y15.1941 
G01 X-30.8561 Y15.3272 
G01 X-30.7814 Y15.4738 
G01 X-30.7305 Y15.6302 
G01 X-30.7048 Y15.7927 
G00 Z2.5400  
G00 X-24.5834 Y3.9754  
G01 Z-0.1500 F50    
G01 X-24.5834 Y4.6098  F250   
G01 X-25.0320 Y5.0584  
G01 X-25.6664 Y5.0584  
G01 X-26.1150 Y4.6098  
G01 X-26.1150 Y3.9754  
G01 X-25.6664 Y3.5268  
G01 X-25.0320 Y3.5268  
G01 X-24.5834 Y3.9754  
G00 Z2.5400  
G00 X-24.0900 Y12.5722 
G01 Z-0.1500 F50    
G01 X-24.1194 Y12.7202 F250   
G01 X-24.1772 Y12.8595 
G01 X-24.2610 Y12.9850 
G01 X-24.3676 Y13.0916 
G01 X-24.4931 Y13.1754 
G01 X-24.6324 Y13.2332 
G01 X-24.7804 Y13.2626 
G01 X-24.9312 Y13.2626 
G01 X-25.0792 Y13.2332 
G01 X-25.2185 Y13.1754 
G01 X-25.3440 Y13.0916 
G01 X-25.4506 Y12.9850 
G01 X-25.5344 Y12.8595 
G01 X-25.5922 Y12.7202 
G01 X-25.6216 Y12.5722 
G01 X-25.6216 Y11.1006 
G01 X-25.5922 Y10.9526 
G01 X-25.5344 Y10.8133 
G01 X-25.4506 Y10.6878 
G01 X-25.3440 Y10.5812 
G01 X-25.2185 Y10.4974 
G01 X-25.0792 Y10.4396 
G01 X-24.9312 Y10.4102 
G01 X-24.7804 Y10.4102 
G01 X-24.6324 Y10.4396 
G01 X-24.4931 Y10.4974 
G01 X-24.3676 Y10.5812 
G01 X-24.2610 Y10.6878 
G01 X-24.1772 Y10.8133 
G01 X-24.1194 Y10.9526 
G01 X-24.1136 Y10.9817 
G01 X-23.7804 Y10.6485 
G01 X-23.7235 Y10.5916 
G01 X-23.6539 Y10.5514 
G01 X-23.5762 Y10.5306 
G01 X-20.8738 Y10.5306 
G01 X-20.7961 Y10.5514 
G01 X-20.7265 Y10.5916 
G01 X-20.6696 Y10.6485 
G01 X-20.1093 Y11.2088 
G01 X-20.0601 Y11.1595 
G01 X-19.3099 Y11.1595 
G01 X-18.7795 Y11.6899 
G01 X-18.7795 Y12.4401 
G01 X-19.3099 Y12.9705 
G01 X-20.0601 Y12.9705 
G01 X-20.5905 Y12.4401 
G01 X-20.5905 Y11.6899 
G01 X-20.5412 Y11.6407 
G01 X-21.0405 Y11.1414 
G01 X-23.4095 Y11.1414 
G01 X-24.0900 Y11.8219 
G01 X-24.0900 Y12.5722 
G00 Z2.5400  
G00 X-21.3195 Y11.6899 
G01 Z-0.1500 F50    
G01 X-21.3195 Y12.4401 F250   
G01 X-21.8499 Y12.9705 
G01 X-22.6001 Y12.9705 
G01 X-22.6493 Y12.9212 
G01 X-23.6123 Y13.8842 
G01 X-23.6819 Y13.9244 
G01 X-23.7596 Y13.9452 
G01 X-28.0926 Y13.9452 
G01 X-28.1703 Y13.9244 
G01 X-28.2399 Y13.8842 
G01 X-29.2122 Y12.9119 
G01 X-29.2610 Y12.9850 
G01 X-29.3676 Y13.0916 
G01 X-29.4931 Y13.1754 
G01 X-29.6324 Y13.2332 
G01 X-29.7804 Y13.2626 
G01 X-29.9312 Y13.2626 
G01 X-30.0792 Y13.2332 
G01 X-30.2185 Y13.1754 
G01 X-30.3440 Y13.0916 
G01 X-30.4506 Y12.9850 
G01 X-30.5344 Y12.8595 
G01 X-30.5922 Y12.7202 
G01 X-30.6216 Y12.5722 
G01 X-30.6216 Y11.1006 
G01 X-30.5922 Y10.9526 
G01 X-30.5344 Y10.8133 
G01 X-30.4506 Y10.6878 
G01 X-30.3440 Y10.5812 
G01 X-30.2185 Y10.4974 
G01 X-30.0792 Y10.4396 
G01 X-29.9312 Y10.4102 
G01 X-29.7804 Y10.4102 
G01 X-29.6324 Y10.4396 
G01 X-29.4931 Y10.4974 
G01 X-29.3676 Y10.5812 
G01 X-29.2610 Y10.6878 
G01 X-29.1772 Y10.8133 
G01 X-29.1194 Y10.9526 
G01 X-29.0900 Y11.1006 
G01 X-29.0900 Y12.1703 
G01 X-27.9259 Y13.3344 
G01 X-23.9263 Y13.3344 
G01 X-23.0812 Y12.4893 
G01 X-23.1305 Y12.4401 
G01 X-23.1305 Y11.6899 
G01 X-22.6001 Y11.1595 
G01 X-21.8499 Y11.1595 
G01 X-21.3195 Y11.6899 
G00 Z2.5400  
G00 X-16.2395 Y11.6899 
G01 Z-0.1500 F50    
G01 X-16.2395 Y12.4401 F250   
G01 X-16.7699 Y12.9705 
G01 X-17.5201 Y12.9705 
G01 X-18.0505 Y12.4401 
G01 X-18.0505 Y11.6899 
G01 X-17.5201 Y11.1595 
G01 X-16.7699 Y11.1595 
G01 X-16.2395 Y11.6899 
G00 Z2.5400  
G00 X-11.1595 Y11.6899 
G01 Z-0.1500 F50    
G01 X-11.1595 Y12.4401 F250   
G01 X-11.6899 Y12.9705 
G01 X-12.4401 Y12.9705 
G01 X-12.9705 Y12.4401 
G01 X-12.9705 Y11.6899 
G01 X-12.4401 Y11.1595 
G01 X-11.6899 Y11.1595 
G01 X-11.1595 Y11.6899 
G00 Z2.5400  
G00 X-8.6195 Y11.6899 
G01 Z-0.1500 F50    
G01 X-8.6195 Y12.4401 F250   
G01 X-9.1499 Y12.9705 
G01 X-9.9001 Y12.9705 
G01 X-10.4305 Y12.4401 
G01 X-10.4305 Y11.6899 
G01 X-9.9001 Y11.1595 
G01 X-9.1499 Y11.1595 
G01 X-8.6195 Y11.6899 
G00 Z2.5400  
G00 X-3.5395 Y11.6899 
G01 Z-0.1500 F50    
G01 X-3.5395 Y12.4401 F250   
G01 X-4.0699 Y12.9705 
G01 X-4.8201 Y12.9705 
G01 X-5.3505 Y12.4401 
G01 X-5.3505 Y11.6899 
G01 X-4.8201 Y11.1595 
G01 X-4.0699 Y11.1595 
G01 X-3.5395 Y11.6899 
G00 Z2.5400  
G00 X-3.5395 Y4.0699  
G01 Z-0.1500 F50    
G01 X-3.5395 Y4.8201  F250   
G01 X-4.0699 Y5.3505  
G01 X-4.8201 Y5.3505  
G01 X-5.3505 Y4.8201  
G01 X-5.3505 Y4.0699  
G01 X-5.3012 Y4.0207  
G01 X-6.3495 Y2.9724  
G01 X-17.0582 Y2.9724  
G01 X-17.1359 Y2.9516  
G01 X-17.2055 Y2.9114  
G01 X-18.5590 Y1.5579  
G01 X-18.6488 Y1.6036  
G01 X-18.8052 Y1.6545  
G01 X-18.9677 Y1.6802  
G01 X-19.1323 Y1.6802  
G01 X-19.2948 Y1.6545  
G01 X-19.4512 Y1.6036  
G01 X-19.5978 Y1.5289  
G01 X-19.7309 Y1.4322  
G01 X-19.8472 Y1.3159  
G01 X-19.9439 Y1.1828  
G01 X-20.0186 Y1.0362  
G01 X-20.0695 Y0.8798  
G01 X-20.0952 Y0.7173  
G01 X-20.0952 Y0.5527  
G01 X-20.0695 Y0.3902  
G01 X-20.0186 Y0.2338  
G01 X-19.9439 Y0.0872  
G01 X-19.8472 Y-0.0459 
G01 X-19.7309 Y-0.1622 
G01 X-19.5978 Y-0.2589 
G01 X-19.4512 Y-0.3336 
G01 X-19.2948 Y-0.3845 
G01 X-19.1323 Y-0.4102 
G01 X-18.9677 Y-0.4102 
G01 X-18.8052 Y-0.3845 
G01 X-18.6488 Y-0.3336 
G01 X-18.5022 Y-0.2589 
G01 X-18.3691 Y-0.1622 
G01 X-18.2528 Y-0.0459 
G01 X-18.1561 Y0.0872  
G01 X-18.0814 Y0.2338  
G01 X-18.0305 Y0.3902  
G01 X-18.0048 Y0.5527  
G01 X-18.0048 Y0.7173  
G01 X-18.0305 Y0.8798  
G01 X-18.0814 Y1.0362  
G01 X-18.1271 Y1.1260  
G01 X-16.8915 Y2.3616  
G01 X-6.1828 Y2.3616  
G01 X-6.1051 Y2.3824  
G01 X-6.0355 Y2.4226  
G01 X-5.9786 Y2.4795  
G01 X-4.8693 Y3.5888  
G01 X-4.8201 Y3.5395  
G01 X-4.0699 Y3.5395  
G01 X-3.5395 Y4.0699  
G00 Z2.5400  
G00 X-8.6195 Y4.0699  
G01 Z-0.1500 F50    
G01 X-8.6195 Y4.8201  F250   
G01 X-9.1499 Y5.3505  
G01 X-9.9001 Y5.3505  
G01 X-10.4305 Y4.8201  
G01 X-10.4305 Y4.0699  
G01 X-9.9001 Y3.5395  
G01 X-9.1499 Y3.5395  
G01 X-8.6195 Y4.0699  
G00 Z2.5400  
G00 X-11.1595 Y4.0699  
G01 Z-0.1500 F50    
G01 X-11.1595 Y4.8201  F250   
G01 X-11.6899 Y5.3505  
G01 X-12.4401 Y5.3505  
G01 X-12.9705 Y4.8201  
G01 X-12.9705 Y4.0699  
G01 X-12.4401 Y3.5395  
G01 X-11.6899 Y3.5395  
G01 X-11.1595 Y4.0699  
G00 Z2.5400  
G00 X-13.6995 Y4.0699  
G01 Z-0.1500 F50    
G01 X-13.6995 Y4.8201  F250   
G01 X-14.2299 Y5.3505  
G01 X-14.9801 Y5.3505  
G01 X-15.5105 Y4.8201  
G01 X-15.5105 Y4.0699  
G01 X-14.9801 Y3.5395  
G01 X-14.2299 Y3.5395  
G01 X-13.6995 Y4.0699  
G00 Z2.5400  
G00 X-16.2395 Y4.0699  
G01 Z-0.1500 F50    
G01 X-16.2395 Y4.8201  F250   
G01 X-16.7699 Y5.3505  
G01 X-17.5201 Y5.3505  
G01 X-18.0505 Y4.8201  
G01 X-18.0505 Y4.0699  
G01 X-17.5201 Y3.5395  
G01 X-16.7699 Y3.5395  
G01 X-16.2395 Y4.0699  
G00 Z2.5400  
G00 X-18.7795 Y4.0699  
G01 Z-0.1500 F50    
G01 X-18.7795 Y4.8201  F250   
G01 X-19.3099 Y5.3505  
G01 X-20.0601 Y5.3505  
G01 X-20.5905 Y4.8201  
G01 X-20.5905 Y4.0699  
G01 X-20.0601 Y3.5395  
G01 X-19.3099 Y3.5395  
G01 X-18.7795 Y4.0699  
G00 Z2.5400  
G00 X-8.7662 Y8.7145  
G01 Z-0.1500 F50    
G01 X-8.7364 Y8.6427  F250   
G01 X-8.6933 Y8.5996  
G01 X-9.1375 Y8.5996  
G01 X-9.0943 Y8.6427  
G01 X-9.0646 Y8.7145  
G01 X-9.0646 Y9.1296  
G01 X-8.7662 Y9.1296  
G01 X-8.7662 Y8.7145  
G00 Z2.5400  
G00 X-13.7954 Y8.7399  
G01 Z-0.1500 F50    
G01 X-13.7657 Y8.6681  F250   
G01 X-13.7107 Y8.6131  
G01 X-13.6780 Y8.5996  
G01 X-14.2620 Y8.5996  
G01 X-14.2293 Y8.6131  
G01 X-14.1743 Y8.6681  
G01 X-14.1446 Y8.7399  
G01 X-14.1446 Y9.1834  
G01 X-13.7954 Y9.1834  
G01 X-13.7954 Y8.7399  
G00 Z2.5400  
G00 X-31.9758 Y11.1552 
G01 Z-0.1500 F50    
G01 X-31.9666 Y11.1460 F250   
G01 X-33.2904 Y11.1460 
G01 X-33.2812 Y11.1552 
G01 X-31.9758 Y11.1552 
G00 Z2.5400  
G00 X-24.1911 Y10.6305 
G01 Z-0.1500 F50    
G01 X-24.0974 Y10.7706 F250   
G01 X-24.0776 Y10.8184 
G01 X-23.8524 Y10.5932 
G01 X-23.8302 Y10.5710 
G01 X-24.2505 Y10.5710 
G01 X-24.1911 Y10.6305 
G00 Z2.5400  
G00 X-24.0000 Y12.5811 
G01 Z-0.1500 F50    
G01 X-24.0329 Y12.7464 F250   
G01 X-24.0974 Y12.9022 
G01 X-24.1911 Y13.0423 
G01 X-24.3103 Y13.1615 
G01 X-24.4343 Y13.2444 
G01 X-23.9636 Y13.2444 
G01 X-23.2085 Y12.4893 
G01 X-23.2205 Y12.4773 
G01 X-23.2205 Y11.6527 
G01 X-22.7992 Y11.2314 
G01 X-23.3722 Y11.2314 
G01 X-24.0000 Y11.8592 
G01 X-24.0000 Y12.5811 
G00 Z2.5400  
G00 X-27.7773 Y13.2444 
G01 Z-0.1500 F50    
G01 X-27.9013 Y13.1615 F250   
G01 X-28.0205 Y13.0423 
G01 X-28.1142 Y12.9022 
G01 X-28.1787 Y12.7464 
G01 X-28.2116 Y12.5811 
G01 X-28.2116 Y11.0917 
G01 X-28.1787 Y10.9264 
G01 X-28.1151 Y10.7727 
G01 X-28.4086 Y10.4792 
G01 X-29.3582 Y10.4792 
G01 X-29.3103 Y10.5113 
G01 X-29.1911 Y10.6305 
G01 X-29.0974 Y10.7706 
G01 X-29.0329 Y10.9264 
G01 X-29.0000 Y11.0917 
G01 X-29.0000 Y12.1330 
G01 X-27.8886 Y13.2444 
G01 X-27.7773 Y13.2444 
G00 Z2.5400  
G00 X-16.7947 Y8.6131  
G01 Z-0.1500 F50    
G01 X-16.7397 Y8.6681  F250   
G01 X-16.7100 Y8.7399  
G01 X-16.7100 Y9.9162  
G01 X-16.3354 Y10.2908 
G01 X-16.3354 Y8.7399  
G01 X-16.3056 Y8.6681  
G01 X-16.2507 Y8.6131  
G01 X-16.2180 Y8.5996  
G01 X-16.8274 Y8.5996  
G01 X-16.7947 Y8.6131  
G00 Z2.5400  
G00 X-20.6198 Y10.5710 
G01 Z-0.1500 F50    
G01 X-20.5976 Y10.5932 F250   
G01 X-20.1093 Y11.0815 
G01 X-20.0973 Y11.0695 
G01 X-19.2727 Y11.0695 
G01 X-18.7723 Y11.5699 
G01 X-18.7723 Y11.5258 
G01 X-19.7271 Y10.5710 
G01 X-20.6198 Y10.5710 
G00 Z2.5400  
G00 X-24.6036 Y14.8422 
G01 Z-0.1500 F50    
G01 X-24.5658 Y14.8230 F250   
G01 X-24.3958 Y14.7678 
G01 X-24.3412 Y14.7591 
G01 X-24.6867 Y14.7591 
G01 X-24.6036 Y14.8422 
G00 Z2.5400  
G00 X-18.7723 Y12.7058 
G01 Z-0.1500 F50    
G01 X-18.7723 Y12.5601 F250   
G01 X-19.2727 Y13.0605 
G01 X-20.0973 Y13.0605 
G01 X-20.6805 Y12.4773 
G01 X-20.6805 Y11.6527 
G01 X-20.6685 Y11.6407 
G01 X-21.0778 Y11.2314 
G01 X-21.6508 Y11.2314 
G01 X-21.2295 Y11.6527 
G01 X-21.2295 Y12.4773 
G01 X-21.8127 Y13.0605 
G01 X-22.6373 Y13.0605 
G01 X-22.6493 Y13.0485 
G01 X-23.5570 Y13.9562 
G01 X-23.5780 Y13.9683 
G01 X-20.0348 Y13.9683 
G01 X-18.7723 Y12.7058 
G00 Z2.5400  
G00 X-18.6895 Y4.0327  
G01 Z-0.1500 F50    
G01 X-18.6895 Y4.8573  F250   
G01 X-19.2727 Y5.4405  
G01 X-20.0973 Y5.4405  
G01 X-20.6805 Y4.8573  
G01 X-20.6805 Y4.0327  
G01 X-20.0973 Y3.4495  
G01 X-19.2727 Y3.4495  
G01 X-18.6895 Y4.0327  
G00 Z2.5400  
G00 X-16.1495 Y4.0327  
G01 Z-0.1500 F50    
G01 X-16.1495 Y4.8573  F250   
G01 X-16.7326 Y5.4405  
G01 X-17.5573 Y5.4405  
G01 X-18.1405 Y4.8573  
G01 X-18.1405 Y4.0327  
G01 X-17.5573 Y3.4495  
G01 X-16.7326 Y3.4495  
G01 X-16.1495 Y4.0327  
G00 Z2.5400  
G00 X-13.6095 Y4.0327  
G01 Z-0.1500 F50    
G01 X-13.6095 Y4.8573  F250   
G01 X-14.1927 Y5.4405  
G01 X-15.0173 Y5.4405  
G01 X-15.6005 Y4.8573  
G01 X-15.6005 Y4.0327  
G01 X-15.0173 Y3.4495  
G01 X-14.1927 Y3.4495  
G01 X-13.6095 Y4.0327  
G00 Z2.5400  
G00 X-11.0695 Y4.0327  
G01 Z-0.1500 F50    
G01 X-11.0695 Y4.8573  F250   
G01 X-11.6527 Y5.4405  
G01 X-12.4773 Y5.4405  
G01 X-13.0605 Y4.8573  
G01 X-13.0605 Y4.0327  
G01 X-12.4773 Y3.4495  
G01 X-11.6527 Y3.4495  
G01 X-11.0695 Y4.0327  
G00 Z2.5400  
G00 X-3.4495 Y4.0327  
G01 Z-0.1500 F50    
G01 X-3.4495 Y4.8573  F250   
G01 X-4.0327 Y5.4405  
G01 X-4.8573 Y5.4405  
G01 X-5.4405 Y4.8573  
G01 X-5.4405 Y4.0327  
G01 X-5.4285 Y4.0207  
G01 X-6.3868 Y3.0624  
G01 X-17.0701 Y3.0624  
G01 X-17.1706 Y3.0354  
G01 X-17.2608 Y2.9834  
G01 X-18.5764 Y1.6678  
G01 X-18.6142 Y1.6870  
G01 X-18.7842 Y1.7422  
G01 X-18.9607 Y1.7702  
G01 X-19.1393 Y1.7702  
G01 X-19.3158 Y1.7422  
G01 X-19.4858 Y1.6870  
G01 X-19.6450 Y1.6059  
G01 X-19.7895 Y1.5009  
G01 X-19.9159 Y1.3745  
G01 X-20.0209 Y1.2300  
G01 X-20.1020 Y1.0708  
G01 X-20.1572 Y0.9008  
G01 X-20.1852 Y0.7243  
G01 X-20.1852 Y0.5457  
G01 X-20.1572 Y0.3692  
G01 X-20.1020 Y0.1992  
G01 X-20.0209 Y0.0400  
G01 X-19.9159 Y-0.1045 
G01 X-19.7895 Y-0.2309 
G01 X-19.6450 Y-0.3359 
G01 X-19.4858 Y-0.4170 
G01 X-19.3158 Y-0.4722 
G01 X-19.1393 Y-0.5002 
G01 X-18.9607 Y-0.5002 
G01 X-18.7842 Y-0.4722 
G01 X-18.6142 Y-0.4170 
G01 X-18.4550 Y-0.3359 
G01 X-18.3105 Y-0.2309 
G01 X-18.1841 Y-0.1045 
G01 X-18.0791 Y0.0400  
G01 X-17.9980 Y0.1992  
G01 X-17.9428 Y0.3692  
G01 X-17.9148 Y0.5457  
G01 X-17.9148 Y0.7243  
G01 X-17.9428 Y0.9008  
G01 X-17.9980 Y1.0708  
G01 X-18.0172 Y1.1086  
G01 X-16.8542 Y2.2716  
G01 X-6.1709 Y2.2716  
G01 X-6.0704 Y2.2985  
G01 X-5.9802 Y2.3506  
G01 X-5.9066 Y2.4242  
G01 X-4.8693 Y3.4615  
G01 X-4.8573 Y3.4495  
G01 X-4.0327 Y3.4495  
G01 X-3.4495 Y4.0327  
G00 Z2.5400  
G00 X-3.4495 Y11.6527 
G01 Z-0.1500 F50    
G01 X-3.4495 Y12.4773 F250   
G01 X-4.0327 Y13.0605 
G01 X-4.8573 Y13.0605 
G01 X-5.4405 Y12.4773 
G01 X-5.4405 Y11.6527 
G01 X-4.8573 Y11.0695 
G01 X-4.0327 Y11.0695 
G01 X-3.4495 Y11.6527 
G00 Z2.5400  
G00 X-8.5295 Y11.6527 
G01 Z-0.1500 F50    
G01 X-8.5295 Y12.4773 F250   
G01 X-9.1127 Y13.0605 
G01 X-9.9373 Y13.0605 
G01 X-10.5205 Y12.4773 
G01 X-10.5205 Y11.6527 
G01 X-9.9373 Y11.0695 
G01 X-9.1127 Y11.0695 
G01 X-8.5295 Y11.6527 
G00 Z2.5400  
G00 X-11.0695 Y11.6527 
G01 Z-0.1500 F50    
G01 X-11.0695 Y12.4773 F250   
G01 X-11.6527 Y13.0605 
G01 X-12.4773 Y13.0605 
G01 X-13.0605 Y12.4773 
G01 X-13.0605 Y11.6527 
G01 X-12.4773 Y11.0695 
G01 X-11.6527 Y11.0695 
G01 X-11.0695 Y11.6527 
G00 Z2.5400  
G00 X-24.4934 Y3.9381  
G01 Z-0.1500 F50    
G01 X-24.4934 Y4.6471  F250   
G01 X-24.9947 Y5.1484  
G01 X-25.7037 Y5.1484  
G01 X-26.2050 Y4.6471  
G01 X-26.2050 Y3.9381  
G01 X-25.7037 Y3.4368  
G01 X-24.9947 Y3.4368  
G01 X-24.4934 Y3.9381  
G00 Z2.5400  
G00 X-30.6148 Y15.7857 
G01 Z-0.1500 F50    
G01 X-30.6148 Y15.9643 F250   
G01 X-30.6428 Y16.1408 
G01 X-30.6980 Y16.3108 
G01 X-30.7791 Y16.4700 
G01 X-30.8841 Y16.6145 
G01 X-31.0105 Y16.7409 
G01 X-31.1550 Y16.8459 
G01 X-31.3142 Y16.9270 
G01 X-31.4842 Y16.9822 
G01 X-31.6607 Y17.0102 
G01 X-31.8393 Y17.0102 
G01 X-32.0158 Y16.9822 
G01 X-32.1858 Y16.9270 
G01 X-32.3450 Y16.8459 
G01 X-32.4895 Y16.7409 
G01 X-32.6159 Y16.6145 
G01 X-32.7209 Y16.4700 
G01 X-32.8020 Y16.3108 
G01 X-32.8572 Y16.1408 
G01 X-32.8852 Y15.9643 
G01 X-32.8852 Y15.7857 
G01 X-32.8572 Y15.6092 
G01 X-32.8020 Y15.4392 
G01 X-32.7209 Y15.2800 
G01 X-32.6159 Y15.1355 
G01 X-32.4895 Y15.0091 
G01 X-32.3450 Y14.9041 
G01 X-32.1858 Y14.8230 
G01 X-32.0158 Y14.7678 
G01 X-31.8393 Y14.7398 
G01 X-31.6607 Y14.7398 
G01 X-31.4842 Y14.7678 
G01 X-31.3142 Y14.8230 
G01 X-31.1550 Y14.9041 
G01 X-31.0105 Y15.0091 
G01 X-30.8841 Y15.1355 
G01 X-30.7791 Y15.2800 
G01 X-30.6980 Y15.4392 
G01 X-30.6428 Y15.6092 
G01 X-30.6148 Y15.7857 
G00 Z2.5400  
G00 X-17.9148 Y15.7857 
G01 Z-0.1500 F50    
G01 X-17.9148 Y15.9643 F250   
G01 X-17.9428 Y16.1408 
G01 X-17.9980 Y16.3108 
G01 X-18.0791 Y16.4700 
G01 X-18.1841 Y16.6145 
G01 X-18.3105 Y16.7409 
G01 X-18.4550 Y16.8459 
G01 X-18.6142 Y16.9270 
G01 X-18.7842 Y16.9822 
G01 X-18.9607 Y17.0102 
G01 X-19.1393 Y17.0102 
G01 X-19.3158 Y16.9822 
G01 X-19.4858 Y16.9270 
G01 X-19.6450 Y16.8459 
G01 X-19.7895 Y16.7409 
G01 X-19.9159 Y16.6145 
G01 X-20.0209 Y16.4700 
G01 X-20.1020 Y16.3108 
G01 X-20.1572 Y16.1408 
G01 X-20.1852 Y15.9643 
G01 X-20.1852 Y15.7857 
G01 X-20.1572 Y15.6092 
G01 X-20.1020 Y15.4392 
G01 X-20.0209 Y15.2800 
G01 X-19.9159 Y15.1355 
G01 X-19.7895 Y15.0091 
G01 X-19.6450 Y14.9041 
G01 X-19.4858 Y14.8230 
G01 X-19.3158 Y14.7678 
G01 X-19.1393 Y14.7398 
G01 X-18.9607 Y14.7398 
G01 X-18.7842 Y14.7678 
G01 X-18.6142 Y14.8230 
G01 X-18.4550 Y14.9041 
G01 X-18.3105 Y15.0091 
G01 X-18.1841 Y15.1355 
G01 X-18.0791 Y15.2800 
G01 X-17.9980 Y15.4392 
G01 X-17.9428 Y15.6092 
G01 X-17.9148 Y15.7857 
G00 Z2.5400  
G00 X-15.3748 Y15.7857 
G01 Z-0.1500 F50    
G01 X-15.3748 Y15.9643 F250   
G01 X-15.4028 Y16.1408 
G01 X-15.4580 Y16.3108 
G01 X-15.5391 Y16.4700 
G01 X-15.6441 Y16.6145 
G01 X-15.7705 Y16.7409 
G01 X-15.9150 Y16.8459 
G01 X-16.0742 Y16.9270 
G01 X-16.2442 Y16.9822 
G01 X-16.4207 Y17.0102 
G01 X-16.5993 Y17.0102 
G01 X-16.7758 Y16.9822 
G01 X-16.9458 Y16.9270 
G01 X-17.1050 Y16.8459 
G01 X-17.2495 Y16.7409 
G01 X-17.3759 Y16.6145 
G01 X-17.4809 Y16.4700 
G01 X-17.5620 Y16.3108 
G01 X-17.6172 Y16.1408 
G01 X-17.6452 Y15.9643 
G01 X-17.6452 Y15.7857 
G01 X-17.6172 Y15.6092 
G01 X-17.5620 Y15.4392 
G01 X-17.4809 Y15.2800 
G01 X-17.3759 Y15.1355 
G01 X-17.2495 Y15.0091 
G01 X-17.1050 Y14.9041 
G01 X-16.9458 Y14.8230 
G01 X-16.7758 Y14.7678 
G01 X-16.5993 Y14.7398 
G01 X-16.4207 Y14.7398 
G01 X-16.2442 Y14.7678 
G01 X-16.0742 Y14.8230 
G01 X-15.9150 Y14.9041 
G01 X-15.7705 Y15.0091 
G01 X-15.6441 Y15.1355 
G01 X-15.5391 Y15.2800 
G01 X-15.4580 Y15.4392 
G01 X-15.4028 Y15.6092 
G01 X-15.3748 Y15.7857 
G00 Z2.5400  
G00 X-12.8348 Y15.7857 
G01 Z-0.1500 F50    
G01 X-12.8348 Y15.9643 F250   
G01 X-12.8628 Y16.1408 
G01 X-12.9180 Y16.3108 
G01 X-12.9991 Y16.4700 
G01 X-13.1041 Y16.6145 
G01 X-13.2305 Y16.7409 
G01 X-13.3750 Y16.8459 
G01 X-13.5342 Y16.9270 
G01 X-13.7042 Y16.9822 
G01 X-13.8807 Y17.0102 
G01 X-14.0593 Y17.0102 
G01 X-14.2358 Y16.9822 
G01 X-14.4058 Y16.9270 
G01 X-14.5650 Y16.8459 
G01 X-14.7095 Y16.7409 
G01 X-14.8359 Y16.6145 
G01 X-14.9409 Y16.4700 
G01 X-15.0220 Y16.3108 
G01 X-15.0772 Y16.1408 
G01 X-15.1052 Y15.9643 
G01 X-15.1052 Y15.7857 
G01 X-15.0772 Y15.6092 
G01 X-15.0220 Y15.4392 
G01 X-14.9409 Y15.2800 
G01 X-14.8359 Y15.1355 
G01 X-14.7095 Y15.0091 
G01 X-14.5650 Y14.9041 
G01 X-14.4058 Y14.8230 
G01 X-14.2358 Y14.7678 
G01 X-14.0593 Y14.7398 
G01 X-13.8807 Y14.7398 
G01 X-13.7042 Y14.7678 
G01 X-13.5342 Y14.8230 
G01 X-13.3750 Y14.9041 
G01 X-13.2305 Y15.0091 
G01 X-13.1041 Y15.1355 
G01 X-12.9991 Y15.2800 
G01 X-12.9180 Y15.4392 
G01 X-12.8628 Y15.6092 
G01 X-12.8348 Y15.7857 
G00 Z2.5400  
G00 X-10.2948 Y15.7857 
G01 Z-0.1500 F50    
G01 X-10.2948 Y15.9643 F250   
G01 X-10.3228 Y16.1408 
G01 X-10.3780 Y16.3108 
G01 X-10.4591 Y16.4700 
G01 X-10.5641 Y16.6145 
G01 X-10.6905 Y16.7409 
G01 X-10.8350 Y16.8459 
G01 X-10.9942 Y16.9270 
G01 X-11.1642 Y16.9822 
G01 X-11.3407 Y17.0102 
G01 X-11.5193 Y17.0102 
G01 X-11.6958 Y16.9822 
G01 X-11.8658 Y16.9270 
G01 X-12.0250 Y16.8459 
G01 X-12.1695 Y16.7409 
G01 X-12.2959 Y16.6145 
G01 X-12.4009 Y16.4700 
G01 X-12.4820 Y16.3108 
G01 X-12.5372 Y16.1408 
G01 X-12.5652 Y15.9643 
G01 X-12.5652 Y15.7857 
G01 X-12.5372 Y15.6092 
G01 X-12.4820 Y15.4392 
G01 X-12.4009 Y15.2800 
G01 X-12.2959 Y15.1355 
G01 X-12.1695 Y15.0091 
G01 X-12.0250 Y14.9041 
G01 X-11.8658 Y14.8230 
G01 X-11.6958 Y14.7678 
G01 X-11.5193 Y14.7398 
G01 X-11.3407 Y14.7398 
G01 X-11.1642 Y14.7678 
G01 X-10.9942 Y14.8230 
G01 X-10.8350 Y14.9041 
G01 X-10.6905 Y15.0091 
G01 X-10.5641 Y15.1355 
G01 X-10.4591 Y15.2800 
G01 X-10.3780 Y15.4392 
G01 X-10.3228 Y15.6092 
G01 X-10.2948 Y15.7857 
G00 Z2.5400  
G00 X-7.7548 Y15.7857 
G01 Z-0.1500 F50    
G01 X-7.7548 Y15.9643 F250   
G01 X-7.7828 Y16.1408 
G01 X-7.8380 Y16.3108 
G01 X-7.9191 Y16.4700 
G01 X-8.0241 Y16.6145 
G01 X-8.1505 Y16.7409 
G01 X-8.2950 Y16.8459 
G01 X-8.4542 Y16.9270 
G01 X-8.6242 Y16.9822 
G01 X-8.8007 Y17.0102 
G01 X-8.9793 Y17.0102 
G01 X-9.1558 Y16.9822 
G01 X-9.3258 Y16.9270 
G01 X-9.4850 Y16.8459 
G01 X-9.6295 Y16.7409 
G01 X-9.7559 Y16.6145 
G01 X-9.8609 Y16.4700 
G01 X-9.9420 Y16.3108 
G01 X-9.9972 Y16.1408 
G01 X-10.0252 Y15.9643 
G01 X-10.0252 Y15.7857 
G01 X-9.9972 Y15.6092 
G01 X-9.9420 Y15.4392 
G01 X-9.8609 Y15.2800 
G01 X-9.7559 Y15.1355 
G01 X-9.6295 Y15.0091 
G01 X-9.4850 Y14.9041 
G01 X-9.3258 Y14.8230 
G01 X-9.1558 Y14.7678 
G01 X-8.9793 Y14.7398 
G01 X-8.8007 Y14.7398 
G01 X-8.6242 Y14.7678 
G01 X-8.4542 Y14.8230 
G01 X-8.2950 Y14.9041 
G01 X-8.1505 Y15.0091 
G01 X-8.0241 Y15.1355 
G01 X-7.9191 Y15.2800 
G01 X-7.8380 Y15.4392 
G01 X-7.7828 Y15.6092 
G01 X-7.7548 Y15.7857 
G00 Z2.5400  
G00 X-5.2148 Y15.7857 
G01 Z-0.1500 F50    
G01 X-5.2148 Y15.9643 F250   
G01 X-5.2428 Y16.1408 
G01 X-5.2980 Y16.3108 
G01 X-5.3791 Y16.4700 
G01 X-5.4841 Y16.6145 
G01 X-5.6105 Y16.7409 
G01 X-5.7550 Y16.8459 
G01 X-5.9142 Y16.9270 
G01 X-6.0842 Y16.9822 
G01 X-6.2607 Y17.0102 
G01 X-6.4393 Y17.0102 
G01 X-6.6158 Y16.9822 
G01 X-6.7858 Y16.9270 
G01 X-6.9450 Y16.8459 
G01 X-7.0895 Y16.7409 
G01 X-7.2159 Y16.6145 
G01 X-7.3209 Y16.4700 
G01 X-7.4020 Y16.3108 
G01 X-7.4572 Y16.1408 
G01 X-7.4852 Y15.9643 
G01 X-7.4852 Y15.7857 
G01 X-7.4572 Y15.6092 
G01 X-7.4020 Y15.4392 
G01 X-7.3209 Y15.2800 
G01 X-7.2159 Y15.1355 
G01 X-7.0895 Y15.0091 
G01 X-6.9450 Y14.9041 
G01 X-6.7858 Y14.8230 
G01 X-6.6158 Y14.7678 
G01 X-6.4393 Y14.7398 
G01 X-6.2607 Y14.7398 
G01 X-6.0842 Y14.7678 
G01 X-5.9142 Y14.8230 
G01 X-5.7550 Y14.9041 
G01 X-5.6105 Y15.0091 
G01 X-5.4841 Y15.1355 
G01 X-5.3791 Y15.2800 
G01 X-5.2980 Y15.4392 
G01 X-5.2428 Y15.6092 
G01 X-5.2148 Y15.7857 
G00 Z2.5400  
G00 X-2.6748 Y15.7857 
G01 Z-0.1500 F50    
G01 X-2.6748 Y15.9643 F250   
G01 X-2.7028 Y16.1408 
G01 X-2.7580 Y16.3108 
G01 X-2.8391 Y16.4700 
G01 X-2.9441 Y16.6145 
G01 X-3.0705 Y16.7409 
G01 X-3.2150 Y16.8459 
G01 X-3.3742 Y16.9270 
G01 X-3.5442 Y16.9822 
G01 X-3.7207 Y17.0102 
G01 X-3.8993 Y17.0102 
G01 X-4.0758 Y16.9822 
G01 X-4.2458 Y16.9270 
G01 X-4.4050 Y16.8459 
G01 X-4.5495 Y16.7409 
G01 X-4.6759 Y16.6145 
G01 X-4.7809 Y16.4700 
G01 X-4.8620 Y16.3108 
G01 X-4.9172 Y16.1408 
G01 X-4.9452 Y15.9643 
G01 X-4.9452 Y15.7857 
G01 X-4.9172 Y15.6092 
G01 X-4.8620 Y15.4392 
G01 X-4.7809 Y15.2800 
G01 X-4.6759 Y15.1355 
G01 X-4.5495 Y15.0091 
G01 X-4.4050 Y14.9041 
G01 X-4.2458 Y14.8230 
G01 X-4.0758 Y14.7678 
G01 X-3.8993 Y14.7398 
G01 X-3.7207 Y14.7398 
G01 X-3.5442 Y14.7678 
G01 X-3.3742 Y14.8230 
G01 X-3.2150 Y14.9041 
G01 X-3.0705 Y15.0091 
G01 X-2.9441 Y15.1355 
G01 X-2.8391 Y15.2800 
G01 X-2.7580 Y15.4392 
G01 X-2.7028 Y15.6092 
G01 X-2.6748 Y15.7857 
G00 Z2.5400  
G00 X-2.6748 Y0.5457  
G01 Z-0.1500 F50    
G01 X-2.6748 Y0.7243  F250   
G01 X-2.7028 Y0.9008  
G01 X-2.7580 Y1.0708  
G01 X-2.8391 Y1.2300  
G01 X-2.9441 Y1.3745  
G01 X-3.0705 Y1.5009  
G01 X-3.2150 Y1.6059  
G01 X-3.3742 Y1.6870  
G01 X-3.5442 Y1.7422  
G01 X-3.7207 Y1.7702  
G01 X-3.8993 Y1.7702  
G01 X-4.0758 Y1.7422  
G01 X-4.2458 Y1.6870  
G01 X-4.4050 Y1.6059  
G01 X-4.5495 Y1.5009  
G01 X-4.6759 Y1.3745  
G01 X-4.7809 Y1.2300  
G01 X-4.8620 Y1.0708  
G01 X-4.9172 Y0.9008  
G01 X-4.9452 Y0.7243  
G01 X-4.9452 Y0.5457  
G01 X-4.9172 Y0.3692  
G01 X-4.8620 Y0.1992  
G01 X-4.7809 Y0.0400  
G01 X-4.6759 Y-0.1045 
G01 X-4.5495 Y-0.2309 
G01 X-4.4050 Y-0.3359 
G01 X-4.2458 Y-0.4170 
G01 X-4.0758 Y-0.4722 
G01 X-3.8993 Y-0.5002 
G01 X-3.7207 Y-0.5002 
G01 X-3.5442 Y-0.4722 
G01 X-3.3742 Y-0.4170 
G01 X-3.2150 Y-0.3359 
G01 X-3.0705 Y-0.2309 
G01 X-2.9441 Y-0.1045 
G01 X-2.8391 Y0.0400  
G01 X-2.7580 Y0.1992  
G01 X-2.7028 Y0.3692  
G01 X-2.6748 Y0.5457  
G00 Z2.5400  
G00 X-5.2148 Y0.5457  
G01 Z-0.1500 F50    
G01 X-5.2148 Y0.7243  F250   
G01 X-5.2428 Y0.9008  
G01 X-5.2980 Y1.0708  
G01 X-5.3791 Y1.2300  
G01 X-5.4841 Y1.3745  
G01 X-5.6105 Y1.5009  
G01 X-5.7550 Y1.6059  
G01 X-5.9142 Y1.6870  
G01 X-6.0842 Y1.7422  
G01 X-6.2607 Y1.7702  
G01 X-6.4393 Y1.7702  
G01 X-6.6158 Y1.7422  
G01 X-6.7858 Y1.6870  
G01 X-6.9450 Y1.6059  
G01 X-7.0895 Y1.5009  
G01 X-7.2159 Y1.3745  
G01 X-7.3209 Y1.2300  
G01 X-7.4020 Y1.0708  
G01 X-7.4572 Y0.9008  
G01 X-7.4852 Y0.7243  
G01 X-7.4852 Y0.5457  
G01 X-7.4572 Y0.3692  
G01 X-7.4020 Y0.1992  
G01 X-7.3209 Y0.0400  
G01 X-7.2159 Y-0.1045 
G01 X-7.0895 Y-0.2309 
G01 X-6.9450 Y-0.3359 
G01 X-6.7858 Y-0.4170 
G01 X-6.6158 Y-0.4722 
G01 X-6.4393 Y-0.5002 
G01 X-6.2607 Y-0.5002 
G01 X-6.0842 Y-0.4722 
G01 X-5.9142 Y-0.4170 
G01 X-5.7550 Y-0.3359 
G01 X-5.6105 Y-0.2309 
G01 X-5.4841 Y-0.1045 
G01 X-5.3791 Y0.0400  
G01 X-5.2980 Y0.1992  
G01 X-5.2428 Y0.3692  
G01 X-5.2148 Y0.5457  
G00 Z2.5400  
G00 X-7.7548 Y0.5457  
G01 Z-0.1500 F50    
G01 X-7.7548 Y0.7243  F250   
G01 X-7.7828 Y0.9008  
G01 X-7.8380 Y1.0708  
G01 X-7.9191 Y1.2300  
G01 X-8.0241 Y1.3745  
G01 X-8.1505 Y1.5009  
G01 X-8.2950 Y1.6059  
G01 X-8.4542 Y1.6870  
G01 X-8.6242 Y1.7422  
G01 X-8.8007 Y1.7702  
G01 X-8.9793 Y1.7702  
G01 X-9.1558 Y1.7422  
G01 X-9.3258 Y1.6870  
G01 X-9.4850 Y1.6059  
G01 X-9.6295 Y1.5009  
G01 X-9.7559 Y1.3745  
G01 X-9.8609 Y1.2300  
G01 X-9.9420 Y1.0708  
G01 X-9.9972 Y0.9008  
G01 X-10.0252 Y0.7243  
G01 X-10.0252 Y0.5457  
G01 X-9.9972 Y0.3692  
G01 X-9.9420 Y0.1992  
G01 X-9.8609 Y0.0400  
G01 X-9.7559 Y-0.1045 
G01 X-9.6295 Y-0.2309 
G01 X-9.4850 Y-0.3359 
G01 X-9.3258 Y-0.4170 
G01 X-9.1558 Y-0.4722 
G01 X-8.9793 Y-0.5002 
G01 X-8.8007 Y-0.5002 
G01 X-8.6242 Y-0.4722 
G01 X-8.4542 Y-0.4170 
G01 X-8.2950 Y-0.3359 
G01 X-8.1505 Y-0.2309 
G01 X-8.0241 Y-0.1045 
G01 X-7.9191 Y0.0400  
G01 X-7.8380 Y0.1992  
G01 X-7.7828 Y0.3692  
G01 X-7.7548 Y0.5457  
G00 Z2.5400  
G00 X-10.2948 Y0.5457  
G01 Z-0.1500 F50    
G01 X-10.2948 Y0.7243  F250   
G01 X-10.3228 Y0.9008  
G01 X-10.3780 Y1.0708  
G01 X-10.4591 Y1.2300  
G01 X-10.5641 Y1.3745  
G01 X-10.6905 Y1.5009  
G01 X-10.8350 Y1.6059  
G01 X-10.9942 Y1.6870  
G01 X-11.1642 Y1.7422  
G01 X-11.3407 Y1.7702  
G01 X-11.5193 Y1.7702  
G01 X-11.6958 Y1.7422  
G01 X-11.8658 Y1.6870  
G01 X-12.0250 Y1.6059  
G01 X-12.1695 Y1.5009  
G01 X-12.2959 Y1.3745  
G01 X-12.4009 Y1.2300  
G01 X-12.4820 Y1.0708  
G01 X-12.5372 Y0.9008  
G01 X-12.5652 Y0.7243  
G01 X-12.5652 Y0.5457  
G01 X-12.5372 Y0.3692  
G01 X-12.4820 Y0.1992  
G01 X-12.4009 Y0.0400  
G01 X-12.2959 Y-0.1045 
G01 X-12.1695 Y-0.2309 
G01 X-12.0250 Y-0.3359 
G01 X-11.8658 Y-0.4170 
G01 X-11.6958 Y-0.4722 
G01 X-11.5193 Y-0.5002 
G01 X-11.3407 Y-0.5002 
G01 X-11.1642 Y-0.4722 
G01 X-10.9942 Y-0.4170 
G01 X-10.8350 Y-0.3359 
G01 X-10.6905 Y-0.2309 
G01 X-10.5641 Y-0.1045 
G01 X-10.4591 Y0.0400  
G01 X-10.3780 Y0.1992  
G01 X-10.3228 Y0.3692  
G01 X-10.2948 Y0.5457  
G00 Z2.5400  
G00 X-12.8348 Y0.5457  
G01 Z-0.1500 F50    
G01 X-12.8348 Y0.7243  F250   
G01 X-12.8628 Y0.9008  
G01 X-12.9180 Y1.0708  
G01 X-12.9991 Y1.2300  
G01 X-13.1041 Y1.3745  
G01 X-13.2305 Y1.5009  
G01 X-13.3750 Y1.6059  
G01 X-13.5342 Y1.6870  
G01 X-13.7042 Y1.7422  
G01 X-13.8807 Y1.7702  
G01 X-14.0593 Y1.7702  
G01 X-14.2358 Y1.7422  
G01 X-14.4058 Y1.6870  
G01 X-14.5650 Y1.6059  
G01 X-14.7095 Y1.5009  
G01 X-14.8359 Y1.3745  
G01 X-14.9409 Y1.2300  
G01 X-15.0220 Y1.0708  
G01 X-15.0772 Y0.9008  
G01 X-15.1052 Y0.7243  
G01 X-15.1052 Y0.5457  
G01 X-15.0772 Y0.3692  
G01 X-15.0220 Y0.1992  
G01 X-14.9409 Y0.0400  
G01 X-14.8359 Y-0.1045 
G01 X-14.7095 Y-0.2309 
G01 X-14.5650 Y-0.3359 
G01 X-14.4058 Y-0.4170 
G01 X-14.2358 Y-0.4722 
G01 X-14.0593 Y-0.5002 
G01 X-13.8807 Y-0.5002 
G01 X-13.7042 Y-0.4722 
G01 X-13.5342 Y-0.4170 
G01 X-13.3750 Y-0.3359 
G01 X-13.2305 Y-0.2309 
G01 X-13.1041 Y-0.1045 
G01 X-12.9991 Y0.0400  
G01 X-12.9180 Y0.1992  
G01 X-12.8628 Y0.3692  
G01 X-12.8348 Y0.5457  
G00 Z2.5400  
G00 X-15.3748 Y0.5457  
G01 Z-0.1500 F50    
G01 X-15.3748 Y0.7243  F250   
G01 X-15.4028 Y0.9008  
G01 X-15.4580 Y1.0708  
G01 X-15.5391 Y1.2300  
G01 X-15.6441 Y1.3745  
G01 X-15.7705 Y1.5009  
G01 X-15.9150 Y1.6059  
G01 X-16.0742 Y1.6870  
G01 X-16.2442 Y1.7422  
G01 X-16.4207 Y1.7702  
G01 X-16.5993 Y1.7702  
G01 X-16.7758 Y1.7422  
G01 X-16.9458 Y1.6870  
G01 X-17.1050 Y1.6059  
G01 X-17.2495 Y1.5009  
G01 X-17.3759 Y1.3745  
G01 X-17.4809 Y1.2300  
G01 X-17.5620 Y1.0708  
G01 X-17.6172 Y0.9008  
G01 X-17.6452 Y0.7243  
G01 X-17.6452 Y0.5457  
G01 X-17.6172 Y0.3692  
G01 X-17.5620 Y0.1992  
G01 X-17.4809 Y0.0400  
G01 X-17.3759 Y-0.1045 
G01 X-17.2495 Y-0.2309 
G01 X-17.1050 Y-0.3359 
G01 X-16.9458 Y-0.4170 
G01 X-16.7758 Y-0.4722 
G01 X-16.5993 Y-0.5002 
G01 X-16.4207 Y-0.5002 
G01 X-16.2442 Y-0.4722 
G01 X-16.0742 Y-0.4170 
G01 X-15.9150 Y-0.3359 
G01 X-15.7705 Y-0.2309 
G01 X-15.6441 Y-0.1045 
G01 X-15.5391 Y0.0400  
G01 X-15.4580 Y0.1992  
G01 X-15.4028 Y0.3692  
G01 X-15.3748 Y0.5457  
G00 Z2.5400  
G00 X-20.4548 Y0.5457  
G01 Z-0.1500 F50    
G01 X-20.4548 Y0.7243  F250   
G01 X-20.4828 Y0.9008  
G01 X-20.5380 Y1.0708  
G01 X-20.6191 Y1.2300  
G01 X-20.7241 Y1.3745  
G01 X-20.8505 Y1.5009  
G01 X-20.9950 Y1.6059  
G01 X-21.1542 Y1.6870  
G01 X-21.3242 Y1.7422  
G01 X-21.5007 Y1.7702  
G01 X-21.6793 Y1.7702  
G01 X-21.8558 Y1.7422  
G01 X-22.0258 Y1.6870  
G01 X-22.1850 Y1.6059  
G01 X-22.3295 Y1.5009  
G01 X-22.4559 Y1.3745  
G01 X-22.5609 Y1.2300  
G01 X-22.6420 Y1.0708  
G01 X-22.6972 Y0.9008  
G01 X-22.7252 Y0.7243  
G01 X-22.7252 Y0.5457  
G01 X-22.6972 Y0.3692  
G01 X-22.6420 Y0.1992  
G01 X-22.5609 Y0.0400  
G01 X-22.4559 Y-0.1045 
G01 X-22.3295 Y-0.2309 
G01 X-22.1850 Y-0.3359 
G01 X-22.0258 Y-0.4170 
G01 X-21.8558 Y-0.4722 
G01 X-21.6793 Y-0.5002 
G01 X-21.5007 Y-0.5002 
G01 X-21.3242 Y-0.4722 
G01 X-21.1542 Y-0.4170 
G01 X-20.9950 Y-0.3359 
G01 X-20.8505 Y-0.2309 
G01 X-20.7241 Y-0.1045 
G01 X-20.6191 Y0.0400  
G01 X-20.5380 Y0.1992  
G01 X-20.4828 Y0.3692  
G01 X-20.4548 Y0.5457  
G00 Z2.5400  
G00 X-22.9948 Y0.5457  
G01 Z-0.1500 F50    
G01 X-22.9948 Y0.7243  F250   
G01 X-23.0228 Y0.9008  
G01 X-23.0780 Y1.0708  
G01 X-23.1591 Y1.2300  
G01 X-23.2641 Y1.3745  
G01 X-23.3905 Y1.5009  
G01 X-23.5350 Y1.6059  
G01 X-23.6942 Y1.6870  
G01 X-23.8642 Y1.7422  
G01 X-24.0407 Y1.7702  
G01 X-24.2193 Y1.7702  
G01 X-24.3958 Y1.7422  
G01 X-24.5658 Y1.6870  
G01 X-24.7250 Y1.6059  
G01 X-24.8695 Y1.5009  
G01 X-24.9959 Y1.3745  
G01 X-25.1009 Y1.2300  
G01 X-25.1820 Y1.0708  
G01 X-25.2372 Y0.9008  
G01 X-25.2652 Y0.7243  
G01 X-25.2652 Y0.5457  
G01 X-25.2372 Y0.3692  
G01 X-25.1820 Y0.1992  
G01 X-25.1009 Y0.0400  
G01 X-24.9959 Y-0.1045 
G01 X-24.8695 Y-0.2309 
G01 X-24.7250 Y-0.3359 
G01 X-24.5658 Y-0.4170 
G01 X-24.3958 Y-0.4722 
G01 X-24.2193 Y-0.5002 
G01 X-24.0407 Y-0.5002 
G01 X-23.8642 Y-0.4722 
G01 X-23.6942 Y-0.4170 
G01 X-23.5350 Y-0.3359 
G01 X-23.3905 Y-0.2309 
G01 X-23.2641 Y-0.1045 
G01 X-23.1591 Y0.0400  
G01 X-23.0780 Y0.1992  
G01 X-23.0228 Y0.3692  
G01 X-22.9948 Y0.5457  
G00 Z2.5400  
G00 X-25.5348 Y0.5457  
G01 Z-0.1500 F50    
G01 X-25.5348 Y0.7243  F250   
G01 X-25.5628 Y0.9008  
G01 X-25.6180 Y1.0708  
G01 X-25.6991 Y1.2300  
G01 X-25.8041 Y1.3745  
G01 X-25.9305 Y1.5009  
G01 X-26.0750 Y1.6059  
G01 X-26.2342 Y1.6870  
G01 X-26.4042 Y1.7422  
G01 X-26.5807 Y1.7702  
G01 X-26.7593 Y1.7702  
G01 X-26.9358 Y1.7422  
G01 X-27.1058 Y1.6870  
G01 X-27.2650 Y1.6059  
G01 X-27.4095 Y1.5009  
G01 X-27.5359 Y1.3745  
G01 X-27.6409 Y1.2300  
G01 X-27.7220 Y1.0708  
G01 X-27.7772 Y0.9008  
G01 X-27.8052 Y0.7243  
G01 X-27.8052 Y0.5457  
G01 X-27.7772 Y0.3692  
G01 X-27.7220 Y0.1992  
G01 X-27.6409 Y0.0400  
G01 X-27.5359 Y-0.1045 
G01 X-27.4095 Y-0.2309 
G01 X-27.2650 Y-0.3359 
G01 X-27.1058 Y-0.4170 
G01 X-26.9358 Y-0.4722 
G01 X-26.7593 Y-0.5002 
G01 X-26.5807 Y-0.5002 
G01 X-26.4042 Y-0.4722 
G01 X-26.2342 Y-0.4170 
G01 X-26.0750 Y-0.3359 
G01 X-25.9305 Y-0.2309 
G01 X-25.8041 Y-0.1045 
G01 X-25.6991 Y0.0400  
G01 X-25.6180 Y0.1992  
G01 X-25.5628 Y0.3692  
G01 X-25.5348 Y0.5457  
G00 Z2.5400  
G00 X-36.4591 Y1.4480  
G01 Z-0.1500 F50    
G01 X-34.5813 Y1.4480  F250   
G01 X-34.5095 Y1.4777  
G01 X-34.4545 Y1.5327  
G01 X-34.4248 Y1.6045  
G01 X-34.4248 Y2.8823  
G01 X-34.4545 Y2.9541  
G01 X-34.5095 Y3.0091  
G01 X-34.5813 Y3.0388  
G01 X-36.4591 Y3.0388  
G01 X-36.5309 Y3.0091  
G01 X-36.5859 Y2.9541  
G01 X-36.6156 Y2.8823  
G01 X-36.6156 Y1.6045  
G01 X-36.5859 Y1.5327  
G01 X-36.5309 Y1.4777  
G01 X-36.4591 Y1.4480  
G00 Z2.5400  
G00 X-36.4591 Y13.4552 
G01 Z-0.1500 F50    
G01 X-34.5813 Y13.4552 F250   
G01 X-34.5095 Y13.4849 
G01 X-34.4545 Y13.5399 
G01 X-34.4248 Y13.6117 
G01 X-34.4248 Y14.8895 
G01 X-34.4545 Y14.9613 
G01 X-34.5095 Y15.0163 
G01 X-34.5813 Y15.0460 
G01 X-36.4591 Y15.0460 
G01 X-36.5309 Y15.0163 
G01 X-36.5859 Y14.9613 
G01 X-36.6156 Y14.8895 
G01 X-36.6156 Y13.6117 
G01 X-36.5859 Y13.5399 
G01 X-36.5309 Y13.4849 
G01 X-36.4591 Y13.4552 
G00 Z2.5400  
G00 X-23.9092 Y7.8477  
G01 Z-0.1500 F50    
G01 X-23.9092 Y7.3042  F250   
G01 X-24.2284 Y7.3042  
G01 X-24.2284 Y7.3129  
G01 X-24.2581 Y7.3847  
G01 X-24.3131 Y7.4397  
G01 X-24.3849 Y7.4694  
G01 X-26.2627 Y7.4694  
G01 X-26.2873 Y7.4592  
G01 X-26.2873 Y7.7513  
G01 X-25.7600 Y8.2786  
G01 X-24.3849 Y8.2786  
G01 X-24.3131 Y8.3083  
G01 X-24.2581 Y8.3633  
G01 X-24.2284 Y8.4351  
G01 X-24.2284 Y9.7802  
G01 X-19.5113 Y9.7802  
G01 X-19.4107 Y9.8071  
G01 X-19.3206 Y9.8592  
G01 X-18.9008 Y10.2790 
G01 X-18.9008 Y8.7399  
G01 X-18.8711 Y8.6681  
G01 X-18.8161 Y8.6131  
G01 X-18.7834 Y8.5996  
G01 X-19.0048 Y8.5996  
G01 X-19.0231 Y8.6027  
G01 X-19.0567 Y8.5996  
G01 X-19.0904 Y8.5996  
G01 X-19.1083 Y8.5948  
G01 X-19.1267 Y8.5931  
G01 X-19.1584 Y8.5814  
G01 X-19.1910 Y8.5727  
G01 X-19.2070 Y8.5634  
G01 X-19.2244 Y8.5570  
G01 X-19.2519 Y8.5375  
G01 X-19.2812 Y8.5206  
G01 X-19.2942 Y8.5075  
G01 X-19.3093 Y8.4968  
G01 X-19.3309 Y8.4708  
G01 X-19.3548 Y8.4470  
G01 X-19.3640 Y8.4309  
G01 X-19.7183 Y8.0042  
G01 X-20.9527 Y8.0042  
G01 X-21.0245 Y7.9745  
G01 X-21.0795 Y7.9195  
G01 X-21.1092 Y7.8477  
G01 X-21.1092 Y5.9699  
G01 X-21.0795 Y5.8981  
G01 X-21.0245 Y5.8431  
G01 X-20.9527 Y5.8134  
G01 X-19.2749 Y5.8134  
G01 X-19.2031 Y5.8431  
G01 X-19.1481 Y5.8981  
G01 X-19.1184 Y5.9699  
G01 X-19.1184 Y7.4888  
G01 X-18.8527 Y7.8088  
G01 X-5.4754 Y7.8088  
G01 X-5.4754 Y6.7454  
G01 X-6.5754 Y6.7454  
G01 X-6.5754 Y7.5923  
G01 X-6.6051 Y7.6641  
G01 X-6.6601 Y7.7191  
G01 X-6.7319 Y7.7488  
G01 X-8.6097 Y7.7488  
G01 X-8.6815 Y7.7191  
G01 X-8.7364 Y7.6641  
G01 X-8.7662 Y7.5923  
G01 X-8.7662 Y6.0434  
G01 X-9.0646 Y6.3418  
G01 X-9.0646 Y7.5923  
G01 X-9.0943 Y7.6641  
G01 X-9.1493 Y7.7191  
G01 X-9.2211 Y7.7488  
G01 X-11.0989 Y7.7488  
G01 X-11.1707 Y7.7191  
G01 X-11.2256 Y7.6641  
G01 X-11.2554 Y7.5923  
G01 X-11.2554 Y7.3804  
G01 X-11.6046 Y7.3804  
G01 X-11.6046 Y7.6177  
G01 X-11.6343 Y7.6895  
G01 X-11.6893 Y7.7445  
G01 X-11.7611 Y7.7742  
G01 X-13.6389 Y7.7742  
G01 X-13.7107 Y7.7445  
G01 X-13.7657 Y7.6895  
G01 X-13.7954 Y7.6177  
G01 X-13.7954 Y5.9399  
G01 X-13.7657 Y5.8681  
G01 X-13.7107 Y5.8131  
G01 X-13.6389 Y5.7834  
G01 X-11.7611 Y5.7834  
G01 X-11.6893 Y5.8131  
G01 X-11.6343 Y5.8681  
G01 X-11.6046 Y5.9399  
G01 X-11.6046 Y6.5896  
G01 X-11.2554 Y6.5896  
G01 X-11.2554 Y5.9145  
G01 X-11.2256 Y5.8427  
G01 X-11.1707 Y5.7877  
G01 X-11.0989 Y5.7580  
G01 X-9.5991 Y5.7580  
G01 X-9.2816 Y5.4405  
G01 X-9.9373 Y5.4405  
G01 X-10.5205 Y4.8573  
G01 X-10.5205 Y4.0327  
G01 X-9.9373 Y3.4495  
G01 X-9.1127 Y3.4495  
G01 X-8.5295 Y4.0327  
G01 X-8.5295 Y4.8573  
G01 X-8.7603 Y5.0881  
G01 X-8.1873 Y5.0881  
G01 X-7.9685 Y4.8693  
G01 X-7.9805 Y4.8573  
G01 X-7.9805 Y4.0327  
G01 X-7.3973 Y3.4495  
G01 X-6.5727 Y3.4495  
G01 X-5.9895 Y4.0327  
G01 X-5.9895 Y4.8573  
G01 X-6.5727 Y5.4405  
G01 X-7.3973 Y5.4405  
G01 X-7.4093 Y5.4285  
G01 X-7.7388 Y5.7580  
G01 X-6.7319 Y5.7580  
G01 X-6.6601 Y5.7877  
G01 X-6.6051 Y5.8427  
G01 X-6.5754 Y5.9145  
G01 X-6.5754 Y5.9546  
G01 X-5.0279 Y5.9546  
G01 X-4.9274 Y5.9815  
G01 X-4.8372 Y6.0336  
G01 X-4.7636 Y6.1072  
G01 X-4.7115 Y6.1974  
G01 X-4.6846 Y6.2979  
G01 X-4.6846 Y10.2121 
G01 X-4.7115 Y10.3126 
G01 X-4.7636 Y10.4028 
G01 X-4.8372 Y10.4764 
G01 X-6.0015 Y11.6407 
G01 X-5.9895 Y11.6527 
G01 X-5.9895 Y12.4773 
G01 X-6.5727 Y13.0605 
G01 X-7.3973 Y13.0605 
G01 X-7.9805 Y12.4773 
G01 X-7.9805 Y11.6527 
G01 X-7.3973 Y11.0695 
G01 X-6.5727 Y11.0695 
G01 X-6.5607 Y11.0815 
G01 X-5.4754 Y9.9962  
G01 X-5.4754 Y8.5996  
G01 X-6.6483 Y8.5996  
G01 X-6.6051 Y8.6427  
G01 X-6.5754 Y8.7145  
G01 X-6.5754 Y10.3923 
G01 X-6.6051 Y10.4641 
G01 X-6.6601 Y10.5191 
G01 X-6.7319 Y10.5488 
G01 X-8.6097 Y10.5488 
G01 X-8.6815 Y10.5191 
G01 X-8.7364 Y10.4641 
G01 X-8.7662 Y10.3923 
G01 X-8.7662 Y9.9204  
G01 X-9.0646 Y9.9204  
G01 X-9.0646 Y10.3923 
G01 X-9.0943 Y10.4641 
G01 X-9.1493 Y10.5191 
G01 X-9.2211 Y10.5488 
G01 X-11.0989 Y10.5488 
G01 X-11.1707 Y10.5191 
G01 X-11.2256 Y10.4641 
G01 X-11.2554 Y10.3923 
G01 X-11.2554 Y8.7145  
G01 X-11.2256 Y8.6427  
G01 X-11.1825 Y8.5996  
G01 X-11.7220 Y8.5996  
G01 X-11.6893 Y8.6131  
G01 X-11.6343 Y8.6681  
G01 X-11.6046 Y8.7399  
G01 X-11.6046 Y10.4177 
G01 X-11.6343 Y10.4895 
G01 X-11.6893 Y10.5445 
G01 X-11.7611 Y10.5742 
G01 X-13.6389 Y10.5742 
G01 X-13.7107 Y10.5445 
G01 X-13.7657 Y10.4895 
G01 X-13.7954 Y10.4177 
G01 X-13.7954 Y9.9742  
G01 X-14.1446 Y9.9742  
G01 X-14.1446 Y10.4177 
G01 X-14.1743 Y10.4895 
G01 X-14.2293 Y10.5445 
G01 X-14.3011 Y10.5742 
G01 X-16.0520 Y10.5742 
G01 X-15.2870 Y11.3392 
G01 X-15.0173 Y11.0695 
G01 X-14.1927 Y11.0695 
G01 X-13.6095 Y11.6527 
G01 X-13.6095 Y12.4773 
G01 X-14.1927 Y13.0605 
G01 X-15.0173 Y13.0605 
G01 X-15.6005 Y12.4773 
G01 X-15.6005 Y12.1440 
G01 X-17.1703 Y10.5742 
G01 X-18.6056 Y10.5742 
G01 X-18.0605 Y11.1193 
G01 X-18.0084 Y11.2094 
G01 X-17.9815 Y11.3100 
G01 X-17.9815 Y11.4937 
G01 X-17.5573 Y11.0695 
G01 X-16.7326 Y11.0695 
G01 X-16.1495 Y11.6527 
G01 X-16.1495 Y12.4773 
G01 X-16.7326 Y13.0605 
G01 X-17.5573 Y13.0605 
G01 X-17.9815 Y12.6363 
G01 X-17.9815 Y12.9216 
G01 X-18.0084 Y13.0222 
G01 X-18.0605 Y13.1123 
G01 X-19.5547 Y14.6065 
G01 X-19.6283 Y14.6801 
G01 X-19.7184 Y14.7322 
G01 X-19.8190 Y14.7591 
G01 X-21.3788 Y14.7591 
G01 X-21.3242 Y14.7678 
G01 X-21.1542 Y14.8230 
G01 X-20.9950 Y14.9041 
G01 X-20.8505 Y15.0091 
G01 X-20.7241 Y15.1355 
G01 X-20.6191 Y15.2800 
G01 X-20.5380 Y15.4392 
G01 X-20.4828 Y15.6092 
G01 X-20.4548 Y15.7857 
G01 X-20.4548 Y15.9643 
G01 X-20.4828 Y16.1408 
G01 X-20.5380 Y16.3108 
G01 X-20.6191 Y16.4700 
G01 X-20.7241 Y16.6145 
G01 X-20.8505 Y16.7409 
G01 X-20.9950 Y16.8459 
G01 X-21.1542 Y16.9270 
G01 X-21.3242 Y16.9822 
G01 X-21.5007 Y17.0102 
G01 X-21.6793 Y17.0102 
G01 X-21.8558 Y16.9822 
G01 X-22.0258 Y16.9270 
G01 X-22.1850 Y16.8459 
G01 X-22.3295 Y16.7409 
G01 X-22.4559 Y16.6145 
G01 X-22.5609 Y16.4700 
G01 X-22.6420 Y16.3108 
G01 X-22.6972 Y16.1408 
G01 X-22.7252 Y15.9643 
G01 X-22.7252 Y15.7857 
G01 X-22.6972 Y15.6092 
G01 X-22.6420 Y15.4392 
G01 X-22.5609 Y15.2800 
G01 X-22.4559 Y15.1355 
G01 X-22.3295 Y15.0091 
G01 X-22.1850 Y14.9041 
G01 X-22.0258 Y14.8230 
G01 X-21.8558 Y14.7678 
G01 X-21.8012 Y14.7591 
G01 X-23.9188 Y14.7591 
G01 X-23.8642 Y14.7678 
G01 X-23.6942 Y14.8230 
G01 X-23.5350 Y14.9041 
G01 X-23.3905 Y15.0091 
G01 X-23.2641 Y15.1355 
G01 X-23.1591 Y15.2800 
G01 X-23.0780 Y15.4392 
G01 X-23.0228 Y15.6092 
G01 X-22.9948 Y15.7857 
G01 X-22.9948 Y15.9643 
G01 X-23.0228 Y16.1408 
G01 X-23.0780 Y16.3108 
G01 X-23.1591 Y16.4700 
G01 X-23.2641 Y16.6145 
G01 X-23.3905 Y16.7409 
G01 X-23.5350 Y16.8459 
G01 X-23.6942 Y16.9270 
G01 X-23.8642 Y16.9822 
G01 X-24.0407 Y17.0102 
G01 X-24.2193 Y17.0102 
G01 X-24.3958 Y16.9822 
G01 X-24.5658 Y16.9270 
G01 X-24.7250 Y16.8459 
G01 X-24.8695 Y16.7409 
G01 X-24.9959 Y16.6145 
G01 X-25.1009 Y16.4700 
G01 X-25.1820 Y16.3108 
G01 X-25.2372 Y16.1408 
G01 X-25.2652 Y15.9643 
G01 X-25.2652 Y15.7857 
G01 X-25.2372 Y15.6092 
G01 X-25.1820 Y15.4392 
G01 X-25.1628 Y15.4014 
G01 X-25.8051 Y14.7591 
G01 X-26.4588 Y14.7591 
G01 X-26.4042 Y14.7678 
G01 X-26.2342 Y14.8230 
G01 X-26.0750 Y14.9041 
G01 X-25.9305 Y15.0091 
G01 X-25.8041 Y15.1355 
G01 X-25.6991 Y15.2800 
G01 X-25.6180 Y15.4392 
G01 X-25.5628 Y15.6092 
G01 X-25.5348 Y15.7857 
G01 X-25.5348 Y15.9643 
G01 X-25.5628 Y16.1408 
G01 X-25.6180 Y16.3108 
G01 X-25.6991 Y16.4700 
G01 X-25.8041 Y16.6145 
G01 X-25.9305 Y16.7409 
G01 X-26.0750 Y16.8459 
G01 X-26.2342 Y16.9270 
G01 X-26.4042 Y16.9822 
G01 X-26.5807 Y17.0102 
G01 X-26.7593 Y17.0102 
G01 X-26.9358 Y16.9822 
G01 X-27.1058 Y16.9270 
G01 X-27.2650 Y16.8459 
G01 X-27.4095 Y16.7409 
G01 X-27.5359 Y16.6145 
G01 X-27.6409 Y16.4700 
G01 X-27.7220 Y16.3108 
G01 X-27.7772 Y16.1408 
G01 X-27.8052 Y15.9643 
G01 X-27.8052 Y15.7857 
G01 X-27.7772 Y15.6092 
G01 X-27.7220 Y15.4392 
G01 X-27.6409 Y15.2800 
G01 X-27.5359 Y15.1355 
G01 X-27.4095 Y15.0091 
G01 X-27.2650 Y14.9041 
G01 X-27.1058 Y14.8230 
G01 X-26.9358 Y14.7678 
G01 X-26.8812 Y14.7591 
G01 X-28.9988 Y14.7591 
G01 X-28.9442 Y14.7678 
G01 X-28.7742 Y14.8230 
G01 X-28.6150 Y14.9041 
G01 X-28.4705 Y15.0091 
G01 X-28.3441 Y15.1355 
G01 X-28.2391 Y15.2800 
G01 X-28.1580 Y15.4392 
G01 X-28.1028 Y15.6092 
G01 X-28.0748 Y15.7857 
G01 X-28.0748 Y15.9643 
G01 X-28.1028 Y16.1408 
G01 X-28.1580 Y16.3108 
G01 X-28.2391 Y16.4700 
G01 X-28.3441 Y16.6145 
G01 X-28.4705 Y16.7409 
G01 X-28.6150 Y16.8459 
G01 X-28.7742 Y16.9270 
G01 X-28.9442 Y16.9822 
G01 X-29.1207 Y17.0102 
G01 X-29.2993 Y17.0102 
G01 X-29.4758 Y16.9822 
G01 X-29.6458 Y16.9270 
G01 X-29.8050 Y16.8459 
G01 X-29.9495 Y16.7409 
G01 X-30.0759 Y16.6145 
G01 X-30.1809 Y16.4700 
G01 X-30.2620 Y16.3108 
G01 X-30.3172 Y16.1408 
G01 X-30.3452 Y15.9643 
G01 X-30.3452 Y15.7857 
G01 X-30.3172 Y15.6092 
G01 X-30.2620 Y15.4392 
G01 X-30.1809 Y15.2800 
G01 X-30.0759 Y15.1355 
G01 X-29.9495 Y15.0091 
G01 X-29.8050 Y14.9041 
G01 X-29.6458 Y14.8230 
G01 X-29.4758 Y14.7678 
G01 X-29.4212 Y14.7591 
G01 X-30.3992 Y14.7591 
G01 X-30.4997 Y14.7322 
G01 X-30.5899 Y14.6801 
G01 X-30.6635 Y14.6065 
G01 X-32.1240 Y13.1460 
G01 X-33.5091 Y13.1460 
G01 X-33.5809 Y13.1163 
G01 X-33.6359 Y13.0613 
G01 X-33.6656 Y12.9895 
G01 X-33.6656 Y12.3117 
G01 X-33.6359 Y12.2399 
G01 X-33.5809 Y12.1849 
G01 X-33.5091 Y12.1552 
G01 X-31.8813 Y12.1552 
G01 X-31.8095 Y12.1849 
G01 X-31.7545 Y12.2399 
G01 X-31.7248 Y12.3117 
G01 X-31.7248 Y12.4268 
G01 X-30.1833 Y13.9683 
G01 X-28.2742 Y13.9683 
G01 X-28.2952 Y13.9562 
G01 X-29.2000 Y13.0513 
G01 X-29.3103 Y13.1615 
G01 X-29.4504 Y13.2552 
G01 X-29.6062 Y13.3197 
G01 X-29.7715 Y13.3526 
G01 X-29.9401 Y13.3526 
G01 X-30.1054 Y13.3197 
G01 X-30.2612 Y13.2552 
G01 X-30.4013 Y13.1615 
G01 X-30.5205 Y13.0423 
G01 X-30.6142 Y12.9022 
G01 X-30.6787 Y12.7464 
G01 X-30.7116 Y12.5811 
G01 X-30.7116 Y11.0917 
G01 X-30.6911 Y10.9889 
G01 X-31.5989 Y11.8967 
G01 X-31.6726 Y11.9703 
G01 X-31.7308 Y12.0039 
G01 X-31.7545 Y12.0613 
G01 X-31.8095 Y12.1163 
G01 X-31.8813 Y12.1460 
G01 X-33.5091 Y12.1460 
G01 X-33.5809 Y12.1163 
G01 X-33.6359 Y12.0613 
G01 X-33.6656 Y11.9895 
G01 X-33.6656 Y11.8891 
G01 X-34.3778 Y11.1769 
G01 X-34.4299 Y11.0868 
G01 X-34.4568 Y10.9862 
G01 X-34.4568 Y8.7635  
G01 X-34.5095 Y8.8163  
G01 X-34.5813 Y8.8460  
G01 X-36.4591 Y8.8460  
G01 X-36.5309 Y8.8163  
G01 X-36.5859 Y8.7613  
G01 X-36.6156 Y8.6895  
G01 X-36.6156 Y7.4117  
G01 X-36.5859 Y7.3399  
G01 X-36.5309 Y7.2849  
G01 X-36.4591 Y7.2552  
G01 X-34.5813 Y7.2552  
G01 X-34.5095 Y7.2849  
G01 X-34.4568 Y7.3377  
G01 X-34.4568 Y7.1563  
G01 X-34.5095 Y7.2091  
G01 X-34.5813 Y7.2388  
G01 X-36.4591 Y7.2388  
G01 X-36.5309 Y7.2091  
G01 X-36.5859 Y7.1541  
G01 X-36.6156 Y7.0823  
G01 X-36.6156 Y5.8045  
G01 X-36.5859 Y5.7327  
G01 X-36.5309 Y5.6777  
G01 X-36.4591 Y5.6480  
G01 X-34.5813 Y5.6480  
G01 X-34.5095 Y5.6777  
G01 X-34.4568 Y5.7305  
G01 X-34.4568 Y5.6629  
G01 X-34.4299 Y5.5624  
G01 X-34.3778 Y5.4722  
G01 X-33.6656 Y4.7600  
G01 X-33.6656 Y4.5045  
G01 X-33.6359 Y4.4327  
G01 X-33.5809 Y4.3777  
G01 X-33.5091 Y4.3480  
G01 X-31.8813 Y4.3480  
G01 X-31.8095 Y4.3777  
G01 X-31.7545 Y4.4327  
G01 X-31.7248 Y4.5045  
G01 X-31.7248 Y5.1823  
G01 X-31.7545 Y5.2541  
G01 X-31.8095 Y5.3091  
G01 X-31.8813 Y5.3388  
G01 X-33.1260 Y5.3388  
G01 X-33.6660 Y5.8788  
G01 X-33.6660 Y10.7704 
G01 X-33.6656 Y10.3117 
G01 X-33.6359 Y10.2399 
G01 X-33.5809 Y10.1849 
G01 X-33.5091 Y10.1552 
G01 X-31.9996 Y10.1552 
G01 X-31.9904 Y10.1460 
G01 X-33.5091 Y10.1460 
G01 X-33.5809 Y10.1163 
G01 X-33.6359 Y10.0613 
G01 X-33.6656 Y9.9895  
G01 X-33.6656 Y9.3117  
G01 X-33.6359 Y9.2399  
G01 X-33.5809 Y9.1849  
G01 X-33.5091 Y9.1552  
G01 X-32.1426 Y9.1552  
G01 X-32.0944 Y9.1070  
G01 X-31.1419 Y8.1545  
G01 X-30.8244 Y7.8370  
G01 X-29.6054 Y6.6180  
G01 X-29.6054 Y4.6791  
G01 X-30.0747 Y5.1484  
G01 X-30.7837 Y5.1484  
G01 X-31.2850 Y4.6471  
G01 X-31.2850 Y4.2388  
G01 X-31.7482 Y4.2388  
G01 X-31.7545 Y4.2541  
G01 X-31.8095 Y4.3091  
G01 X-31.8813 Y4.3388  
G01 X-33.5091 Y4.3388  
G01 X-33.5809 Y4.3091  
G01 X-33.6359 Y4.2541  
G01 X-33.6656 Y4.1823  
G01 X-33.6656 Y3.5045  
G01 X-33.6359 Y3.4327  
G01 X-33.5809 Y3.3777  
G01 X-33.5091 Y3.3480  
G01 X-31.8813 Y3.3480  
G01 X-31.8095 Y3.3777  
G01 X-31.7545 Y3.4327  
G01 X-31.7482 Y3.4480  
G01 X-30.8263 Y3.4480  
G01 X-30.8015 Y3.4546  
G01 X-30.7837 Y3.4368  
G01 X-30.0747 Y3.4368  
G01 X-29.6054 Y3.9061  
G01 X-29.6054 Y3.3388  
G01 X-31.2764 Y1.6678  
G01 X-31.3142 Y1.6870  
G01 X-31.4842 Y1.7422  
G01 X-31.6607 Y1.7702  
G01 X-31.8393 Y1.7702  
G01 X-32.0158 Y1.7422  
G01 X-32.1858 Y1.6870  
G01 X-32.3450 Y1.6059  
G01 X-32.4895 Y1.5009  
G01 X-32.6159 Y1.3745  
G01 X-32.7209 Y1.2300  
G01 X-32.8020 Y1.0708  
G01 X-32.8572 Y0.9008  
G01 X-32.8852 Y0.7243  
G01 X-32.8852 Y0.5457  
G01 X-32.8572 Y0.3692  
G01 X-32.8020 Y0.1992  
G01 X-32.7209 Y0.0400  
G01 X-32.6159 Y-0.1045 
G01 X-32.4895 Y-0.2309 
G01 X-32.3450 Y-0.3359 
G01 X-32.1858 Y-0.4170 
G01 X-32.0158 Y-0.4722 
G01 X-31.8393 Y-0.5002 
G01 X-31.6607 Y-0.5002 
G01 X-31.4842 Y-0.4722 
G01 X-31.3142 Y-0.4170 
G01 X-31.1550 Y-0.3359 
G01 X-31.0105 Y-0.2309 
G01 X-30.8841 Y-0.1045 
G01 X-30.7791 Y0.0400  
G01 X-30.6980 Y0.1992  
G01 X-30.6428 Y0.3692  
G01 X-30.6148 Y0.5457  
G01 X-30.6148 Y0.7243  
G01 X-30.6428 Y0.9008  
G01 X-30.6980 Y1.0708  
G01 X-30.7172 Y1.1086  
G01 X-28.8936 Y2.9322  
G01 X-28.8415 Y3.0224  
G01 X-28.8146 Y3.1229  
G01 X-28.8146 Y6.8339  
G01 X-28.8415 Y6.9344  
G01 X-28.8936 Y7.0246  
G01 X-30.2652 Y8.3962  
G01 X-30.5827 Y8.7137  
G01 X-31.5352 Y9.6662  
G01 X-31.7248 Y9.8558  
G01 X-31.7248 Y9.8804  
G01 X-28.7926 Y6.9482  
G01 X-28.7926 Y2.9324  
G01 X-29.4528 Y2.2722  
G01 X-29.5264 Y2.1986  
G01 X-29.5785 Y2.1084  
G01 X-29.6054 Y2.0079  
G01 X-29.6054 Y1.7001  
G01 X-29.6458 Y1.6870  
G01 X-29.8050 Y1.6059  
G01 X-29.9495 Y1.5009  
G01 X-30.0759 Y1.3745  
G01 X-30.1809 Y1.2300  
G01 X-30.2620 Y1.0708  
G01 X-30.3172 Y0.9008  
G01 X-30.3452 Y0.7243  
G01 X-30.3452 Y0.5457  
G01 X-30.3172 Y0.3692  
G01 X-30.2620 Y0.1992  
G01 X-30.1809 Y0.0400  
G01 X-30.0759 Y-0.1045 
G01 X-29.9495 Y-0.2309 
G01 X-29.8050 Y-0.3359 
G01 X-29.6458 Y-0.4170 
G01 X-29.4758 Y-0.4722 
G01 X-29.2993 Y-0.5002 
G01 X-29.1207 Y-0.5002 
G01 X-28.9442 Y-0.4722 
G01 X-28.7742 Y-0.4170 
G01 X-28.6150 Y-0.3359 
G01 X-28.4705 Y-0.2309 
G01 X-28.3441 Y-0.1045 
G01 X-28.2391 Y0.0400  
G01 X-28.1580 Y0.1992  
G01 X-28.1028 Y0.3692  
G01 X-28.0748 Y0.5457  
G01 X-28.0748 Y0.7243  
G01 X-28.1028 Y0.9008  
G01 X-28.1580 Y1.0708  
G01 X-28.2391 Y1.2300  
G01 X-28.3441 Y1.3745  
G01 X-28.4705 Y1.5009  
G01 X-28.6150 Y1.6059  
G01 X-28.7742 Y1.6870  
G01 X-28.8146 Y1.7001  
G01 X-28.8146 Y1.7920  
G01 X-28.0808 Y2.5258  
G01 X-28.0287 Y2.6160  
G01 X-28.0018 Y2.7165  
G01 X-28.0018 Y7.1641  
G01 X-28.0287 Y7.2646  
G01 X-28.0808 Y7.3548  
G01 X-28.1544 Y7.4284  
G01 X-30.4207 Y9.6947  
G01 X-30.3973 Y9.6884  
G01 X-28.1927 Y9.6884  
G01 X-28.0922 Y9.7153  
G01 X-28.0020 Y9.7674  
G01 X-27.4477 Y10.3217 
G01 X-27.4401 Y10.3202 
G01 X-27.2715 Y10.3202 
G01 X-27.1062 Y10.3531 
G01 X-26.9504 Y10.4176 
G01 X-26.8103 Y10.5113 
G01 X-26.6911 Y10.6305 
G01 X-26.5974 Y10.7706 
G01 X-26.5329 Y10.9264 
G01 X-26.5000 Y11.0917 
G01 X-26.5000 Y12.5811 
G01 X-26.5329 Y12.7464 
G01 X-26.5974 Y12.9022 
G01 X-26.6911 Y13.0423 
G01 X-26.8103 Y13.1615 
G01 X-26.9343 Y13.2444 
G01 X-25.2773 Y13.2444 
G01 X-25.4013 Y13.1615 
G01 X-25.5205 Y13.0423 
G01 X-25.6142 Y12.9022 
G01 X-25.6787 Y12.7464 
G01 X-25.7116 Y12.5811 
G01 X-25.7116 Y11.0917 
G01 X-25.6787 Y10.9264 
G01 X-25.6142 Y10.7706 
G01 X-25.5205 Y10.6305 
G01 X-25.4013 Y10.5113 
G01 X-25.2612 Y10.4176 
G01 X-25.1054 Y10.3531 
G01 X-24.9401 Y10.3202 
G01 X-24.8368 Y10.3202 
G01 X-24.8876 Y10.2694 
G01 X-26.2627 Y10.2694 
G01 X-26.3345 Y10.2397 
G01 X-26.3895 Y10.1847 
G01 X-26.4192 Y10.1129 
G01 X-26.4192 Y8.7378  
G01 X-26.9991 Y8.1579  
G01 X-27.0511 Y8.0677  
G01 X-27.0781 Y7.9672  
G01 X-27.0781 Y3.6944  
G01 X-27.0511 Y3.5939  
G01 X-26.9991 Y3.5037  
G01 X-26.9255 Y3.4301  
G01 X-26.1508 Y2.6554  
G01 X-26.0606 Y2.6033  
G01 X-25.9601 Y2.5764  
G01 X-24.7383 Y2.5764  
G01 X-24.6378 Y2.6033  
G01 X-24.5476 Y2.6554  
G01 X-24.4740 Y2.7290  
G01 X-23.1534 Y4.0496  
G01 X-23.1387 Y4.0496  
G01 X-23.1072 Y3.9735  
G01 X-22.9983 Y3.8104  
G01 X-22.8596 Y3.6717  
G01 X-22.6965 Y3.5628  
G01 X-22.5154 Y3.4878  
G01 X-22.3230 Y3.4495  
G01 X-22.1270 Y3.4495  
G01 X-21.9346 Y3.4878  
G01 X-21.7535 Y3.5628  
G01 X-21.5904 Y3.6717  
G01 X-21.4517 Y3.8104  
G01 X-21.3428 Y3.9735  
G01 X-21.2678 Y4.1546  
G01 X-21.2295 Y4.3470  
G01 X-21.2295 Y4.5430  
G01 X-21.2678 Y4.7354  
G01 X-21.3428 Y4.9165  
G01 X-21.4517 Y5.0796  
G01 X-21.5904 Y5.2183  
G01 X-21.7535 Y5.3272  
G01 X-21.9346 Y5.4022  
G01 X-22.1270 Y5.4405  
G01 X-22.3230 Y5.4405  
G01 X-22.5154 Y5.4022  
G01 X-22.6965 Y5.3272  
G01 X-22.8596 Y5.2183  
G01 X-22.9983 Y5.0796  
G01 X-23.1072 Y4.9165  
G01 X-23.1387 Y4.8404  
G01 X-23.3693 Y4.8404  
G01 X-23.4698 Y4.8135  
G01 X-23.5600 Y4.7614  
G01 X-24.9542 Y3.3672  
G01 X-25.7442 Y3.3672  
G01 X-26.2873 Y3.9103  
G01 X-26.2873 Y5.4888  
G01 X-26.2627 Y5.4786  
G01 X-24.3849 Y5.4786  
G01 X-24.3131 Y5.5083  
G01 X-24.2581 Y5.5633  
G01 X-24.2284 Y5.6351  
G01 X-24.2284 Y6.5134  
G01 X-23.9092 Y6.5134  
G01 X-23.9092 Y5.9699  
G01 X-23.8795 Y5.8981  
G01 X-23.8245 Y5.8431  
G01 X-23.7527 Y5.8134  
G01 X-22.0749 Y5.8134  
G01 X-22.0031 Y5.8431  
G01 X-21.9481 Y5.8981  
G01 X-21.9184 Y5.9699  
G01 X-21.9184 Y7.8477  
G01 X-21.9481 Y7.9195  
G01 X-22.0031 Y7.9745  
G01 X-22.0749 Y8.0042  
G01 X-23.7527 Y8.0042  
G01 X-23.8245 Y7.9745  
G01 X-23.8795 Y7.9195  
G01 X-23.9092 Y7.8477  
G00 Z2.5400  
G00 X-14.3011 Y7.7742  
G01 Z-0.1500 F50    
G01 X-16.1789 Y7.7742  F250   
G01 X-16.2507 Y7.7445  
G01 X-16.3056 Y7.6895  
G01 X-16.3354 Y7.6177  
G01 X-16.3354 Y7.1742  
G01 X-16.7100 Y7.1742  
G01 X-16.7100 Y7.6177  
G01 X-16.7397 Y7.6895  
G01 X-16.7947 Y7.7445  
G01 X-16.8665 Y7.7742  
G01 X-18.7443 Y7.7742  
G01 X-18.8161 Y7.7445  
G01 X-18.8711 Y7.6895  
G01 X-18.9008 Y7.6177  
G01 X-18.9008 Y5.9399  
G01 X-18.8711 Y5.8681  
G01 X-18.8161 Y5.8131  
G01 X-18.7443 Y5.7834  
G01 X-16.8665 Y5.7834  
G01 X-16.7947 Y5.8131  
G01 X-16.7397 Y5.8681  
G01 X-16.7100 Y5.9399  
G01 X-16.7100 Y6.3834  
G01 X-16.3354 Y6.3834  
G01 X-16.3354 Y5.9399  
G01 X-16.3056 Y5.8681  
G01 X-16.2507 Y5.8131  
G01 X-16.1789 Y5.7834  
G01 X-14.3011 Y5.7834  
G01 X-14.2293 Y5.8131  
G01 X-14.1743 Y5.8681  
G01 X-14.1446 Y5.9399  
G01 X-14.1446 Y7.6177  
G01 X-14.1743 Y7.6895  
G01 X-14.2293 Y7.7445  
G01 X-14.3011 Y7.7742  
G00 Z2.5400  
G00 X-8.8562 Y8.7158  
G01 Z-0.1500 F50    
G01 X-8.8492 Y8.6896  F250   
G01 X-8.9816 Y8.6896  
G01 X-8.9746 Y8.7158  
G01 X-8.9746 Y9.0396  
G01 X-8.8562 Y9.0396  
G01 X-8.8562 Y8.7158  
G00 Z2.5400  
G00 X-16.6200 Y7.6164  
G01 Z-0.1500 F50    
G01 X-16.6395 Y7.6890  F250   
G01 X-16.6567 Y7.7188  
G01 X-16.3887 Y7.7188  
G01 X-16.4059 Y7.6890  
G01 X-16.4254 Y7.6164  
G01 X-16.4254 Y7.2642  
G01 X-16.6200 Y7.2642  
G01 X-16.6200 Y7.6164  
G00 Z2.5400  
G00 X-13.8854 Y8.7412  
G01 Z-0.1500 F50    
G01 X-13.8716 Y8.6896  F250   
G01 X-14.0684 Y8.6896  
G01 X-14.0546 Y8.7412  
G01 X-14.0546 Y9.0934  
G01 X-13.8854 Y9.0934  
G01 X-13.8854 Y8.7412  
G00 Z2.5400  
G00 X-8.9746 Y7.5910  
G01 Z-0.1500 F50    
G01 X-8.9940 Y7.6636  F250   
G01 X-9.0259 Y7.7188  
G01 X-8.8049 Y7.7188  
G01 X-8.8367 Y7.6636  
G01 X-8.8562 Y7.5910  
G01 X-8.8562 Y6.2607  
G01 X-8.9746 Y6.3791  
G01 X-8.9746 Y7.5910  
G00 Z2.5400  
G00 X-17.5946 Y10.9795 
G01 Z-0.1500 F50    
G01 X-16.8923 Y10.9795 F250   
G01 X-17.2076 Y10.6642 
G01 X-18.3883 Y10.6642 
G01 X-17.9885 Y11.0640 
G01 X-17.9246 Y11.1747 
G01 X-17.8961 Y11.2810 
G01 X-17.5946 Y10.9795 
G00 Z2.5400  
G00 X-20.4025 Y10.6610 
G01 Z-0.1500 F50    
G01 X-20.0840 Y10.9795 F250   
G01 X-19.4459 Y10.9795 
G01 X-19.7644 Y10.6610 
G01 X-20.4025 Y10.6610 
G00 Z2.5400  
G00 X-24.0564 Y10.6700 
G01 Z-0.1500 F50    
G01 X-24.0475 Y10.6610 F250   
G01 X-24.0624 Y10.6610 
G01 X-24.0564 Y10.6700 
G00 Z2.5400  
G00 X-11.5146 Y7.6164  
G01 Z-0.1500 F50    
G01 X-11.5341 Y7.6890  F250   
G01 X-11.5513 Y7.7188  
G01 X-11.2941 Y7.7188  
G01 X-11.3259 Y7.6636  
G01 X-11.3454 Y7.5910  
G01 X-11.3454 Y7.4704  
G01 X-11.5146 Y7.4704  
G01 X-11.5146 Y7.6164  
G00 Z2.5400  
G00 X-16.6200 Y8.7412  
G01 Z-0.1500 F50    
G01 X-16.6200 Y9.8789  F250   
G01 X-16.4254 Y10.0735 
G01 X-16.4254 Y8.7412  
G01 X-16.4116 Y8.6896  
G01 X-16.6338 Y8.6896  
G01 X-16.6200 Y8.7412  
G00 Z2.5400  
G00 X-5.5654 Y6.8354  
G01 Z-0.1500 F50    
G01 X-6.4854 Y6.8354  F250   
G01 X-6.4854 Y7.5910  
G01 X-6.5049 Y7.6636  
G01 X-6.5367 Y7.7188  
G01 X-5.5654 Y7.7188  
G01 X-5.5654 Y6.8354  
G00 Z2.5400  
G00 X-28.3016 Y12.5900 
G01 Z-0.1500 F50    
G01 X-28.3016 Y11.0828 F250   
G01 X-28.2653 Y10.9001 
G01 X-28.2212 Y10.7938 
G01 X-28.4459 Y10.5692 
G01 X-29.1250 Y10.5692 
G01 X-29.1212 Y10.5731 
G01 X-29.0176 Y10.7280 
G01 X-28.9463 Y10.9001 
G01 X-28.9100 Y11.0828 
G01 X-28.9100 Y12.0957 
G01 X-28.2732 Y12.7325 
G01 X-28.3016 Y12.5900 
G00 Z2.5400  
G00 X-23.9100 Y12.5900 
G01 Z-0.1500 F50    
G01 X-23.9463 Y12.7727 F250   
G01 X-24.0176 Y12.9448 
G01 X-24.1212 Y13.0997 
G01 X-24.1758 Y13.1544 
G01 X-24.0009 Y13.1544 
G01 X-23.3105 Y12.4640 
G01 X-23.3105 Y11.6154 
G01 X-23.0165 Y11.3214 
G01 X-23.3349 Y11.3214 
G01 X-23.9100 Y11.8965 
G01 X-23.9100 Y12.5900 
G00 Z2.5400  
G00 X-30.8796 Y7.7650  
G01 Z-0.1500 F50    
G01 X-29.6954 Y6.5807  F250   
G01 X-29.6954 Y4.8964  
G01 X-30.0374 Y5.2384  
G01 X-30.8210 Y5.2384  
G01 X-31.3750 Y4.6844  
G01 X-31.3750 Y4.3288  
G01 X-31.7020 Y4.3288  
G01 X-31.7166 Y4.3434  
G01 X-31.6918 Y4.3682  
G01 X-31.6543 Y4.4332  
G01 X-31.6348 Y4.5058  
G01 X-31.6348 Y5.1810  
G01 X-31.6543 Y5.2536  
G01 X-31.6918 Y5.3186  
G01 X-31.7450 Y5.3718  
G01 X-31.8100 Y5.4093  
G01 X-31.8826 Y5.4288  
G01 X-33.0887 Y5.4288  
G01 X-33.5760 Y5.9161  
G01 X-33.5760 Y9.0835  
G01 X-33.5078 Y9.0652  
G01 X-32.1799 Y9.0652  
G01 X-32.1496 Y9.0350  
G01 X-31.1971 Y8.0825  
G01 X-30.8796 Y7.7650  
G00 Z2.5400  
G00 X-29.2001 Y13.1786 
G01 Z-0.1500 F50    
G01 X-29.2529 Y13.2314 F250   
G01 X-29.4078 Y13.3350 
G01 X-29.5799 Y13.4063 
G01 X-29.7626 Y13.4426 
G01 X-29.9490 Y13.4426 
G01 X-30.1317 Y13.4063 
G01 X-30.3038 Y13.3350 
G01 X-30.4587 Y13.2314 
G01 X-30.5904 Y13.0997 
G01 X-30.6940 Y12.9448 
G01 X-30.7653 Y12.7727 
G01 X-30.8016 Y12.5900 
G01 X-30.8016 Y11.2266 
G01 X-31.5269 Y11.9519 
G01 X-31.6173 Y12.0423 
G01 X-31.6568 Y12.0651 
G01 X-31.6918 Y12.1258 
G01 X-31.7166 Y12.1506 
G01 X-31.6918 Y12.1754 
G01 X-31.6543 Y12.2404 
G01 X-31.6348 Y12.3130 
G01 X-31.6348 Y12.3895 
G01 X-30.1460 Y13.8783 
G01 X-28.5004 Y13.8783 
G01 X-29.2001 Y13.1786 
G00 Z2.5400  
G00 X-19.3443 Y13.1505 
G01 Z-0.1500 F50    
G01 X-20.1346 Y13.1505 F250   
G01 X-20.7705 Y12.5146 
G01 X-20.7705 Y11.6660 
G01 X-21.1151 Y11.3214 
G01 X-21.4335 Y11.3214 
G01 X-21.1395 Y11.6154 
G01 X-21.1395 Y12.5146 
G01 X-21.7754 Y13.1505 
G01 X-22.6240 Y13.1505 
G01 X-23.3518 Y13.8783 
G01 X-20.0721 Y13.8783 
G01 X-19.3443 Y13.1505 
G00 Z2.5400  
G00 X-36.4578 Y13.3652 
G01 Z-0.1500 F50    
G01 X-34.5826 Y13.3652 F250   
G01 X-34.5100 Y13.3847 
G01 X-34.4450 Y13.4222 
G01 X-34.3918 Y13.4754 
G01 X-34.3543 Y13.5404 
G01 X-34.3348 Y13.6130 
G01 X-34.3348 Y14.8882 
G01 X-34.3543 Y14.9608 
G01 X-34.3918 Y15.0258 
G01 X-34.4450 Y15.0790 
G01 X-34.5100 Y15.1165 
G01 X-34.5826 Y15.1360 
G01 X-36.4578 Y15.1360 
G01 X-36.5304 Y15.1165 
G01 X-36.5954 Y15.0790 
G01 X-36.6486 Y15.0258 
G01 X-36.6861 Y14.9608 
G01 X-36.7056 Y14.8882 
G01 X-36.7056 Y13.6130 
G01 X-36.6861 Y13.5404 
G01 X-36.6486 Y13.4754 
G01 X-36.5954 Y13.4222 
G01 X-36.5304 Y13.3847 
G01 X-36.4578 Y13.3652 
G00 Z2.5400  
G00 X-25.4448 Y0.5386  
G01 Z-0.1500 F50    
G01 X-25.4448 Y0.7314  F250   
G01 X-25.4750 Y0.9219  
G01 X-25.5346 Y1.1053  
G01 X-25.6221 Y1.2771  
G01 X-25.7355 Y1.4332  
G01 X-25.8718 Y1.5695  
G01 X-26.0279 Y1.6829  
G01 X-26.1997 Y1.7704  
G01 X-26.3831 Y1.8300  
G01 X-26.5736 Y1.8602  
G01 X-26.7664 Y1.8602  
G01 X-26.9569 Y1.8300  
G01 X-27.1403 Y1.7704  
G01 X-27.3121 Y1.6829  
G01 X-27.4682 Y1.5695  
G01 X-27.6045 Y1.4332  
G01 X-27.7179 Y1.2771  
G01 X-27.8054 Y1.1053  
G01 X-27.8650 Y0.9219  
G01 X-27.8952 Y0.7314  
G01 X-27.8952 Y0.5386  
G01 X-27.8650 Y0.3481  
G01 X-27.8054 Y0.1647  
G01 X-27.7179 Y-0.0071 
G01 X-27.6045 Y-0.1632 
G01 X-27.4682 Y-0.2995 
G01 X-27.3121 Y-0.4129 
G01 X-27.1403 Y-0.5004 
G01 X-26.9569 Y-0.5600 
G01 X-26.7664 Y-0.5902 
G01 X-26.5736 Y-0.5902 
G01 X-26.3831 Y-0.5600 
G01 X-26.1997 Y-0.5004 
G01 X-26.0279 Y-0.4129 
G01 X-25.8718 Y-0.2995 
G01 X-25.7355 Y-0.1632 
G01 X-25.6221 Y-0.0071 
G01 X-25.5346 Y0.1647  
G01 X-25.4750 Y0.3481  
G01 X-25.4448 Y0.5386  
G00 Z2.5400  
G00 X-22.9048 Y0.5386  
G01 Z-0.1500 F50    
G01 X-22.9048 Y0.7314  F250   
G01 X-22.9350 Y0.9219  
G01 X-22.9946 Y1.1053  
G01 X-23.0821 Y1.2771  
G01 X-23.1955 Y1.4332  
G01 X-23.3318 Y1.5695  
G01 X-23.4879 Y1.6829  
